;FLAVOR:Marlin
;TIME:122
;Filament used: 0.055418m
;Layer height: 0.16
;MINX:99.978
;MINY:99.957
;MINZ:0.2
;MAXX:120.047
;MAXY:120.006
;MAXZ:4.8
;TARGET_MACHINE.NAME:Creality Ender-3 V3 SE
;Generated with Cura_SteamEngine 5.9.1
M82 ;absolute extrusion mode
M220 S100 ;Reset Feedrate
M221 S100 ;Reset Flowrate

G28 ;Home

M420 S1; Use saved mesh leveling data

G92 E0 ;Reset Extruder
G1 Z2.0 F3000 ;Move Z Axis up
G1 X-3 Y20 Z0.28 F5000.0 ;Move to start position
M190 S60 ; Set bed temperature and wait
M109 S200 ; Set hotend temperature and wait
G1 X-3 Y100.0 Z0.28 F1500.0 E15 ;Draw the first line
G1 X-2 Y100.0 Z0.28 F5000.0 ;Move to side a little
G1 X-2 Y20 Z0.28 F1500.0 E30 ;Draw the second line
G92 E0 ;Reset Extruder
G1 E-1.0000 F1800 ;Retract a bit
G1 Z2.0 F3000 ;Move Z Axis up
G1 E0.0000 F1800 

G92 E0
G92 E0
G1 F2400 E-0.8
;LAYER_COUNT:24
;LAYER:0
M107
G0 F9000 X109.83 Y120.006 Z0.2
;TYPE:SKIRT
G1 F2400 E0
G1 F1800 X108.063 Y119.875 E0.05893
G1 X105.235 Y118.793 E0.15964
G1 X103.69 Y117.83 E0.22019
G1 X101.668 Y115.532 E0.322
G1 X100.792 Y113.999 E0.38072
G1 X100.052 Y111.002 E0.4834
G1 X99.978 Y109.293 E0.54029
G1 X100.716 Y106.3 E0.64282
G1 X101.478 Y104.672 E0.70261
G1 X103.48 Y102.407 E0.80315
G1 X104.941 Y101.32 E0.86372
G1 X107.791 Y100.236 E0.96514
G1 X109.523 Y99.957 E1.02348
G1 X112.555 Y100.329 E1.12509
G1 X114.27 Y100.902 E1.18523
G1 X117.01 Y102.784 E1.29579
G1 X118.134 Y104.157 E1.3548
G1 X119.73 Y107.201 E1.46912
G1 X120.047 Y110.04 E1.56413
G1 X119.709 Y112.822 E1.65734
G1 X118.13 Y115.843 E1.77072
G1 X117.026 Y117.197 E1.82882
G1 X114.497 Y118.942 E1.93102
G1 X112.9 Y119.632 E1.98888
G1 X109.83 Y120.006 E2.09174
G0 F9000 X109.822 Y119.604
G1 F1800 X108.152 Y119.48 E2.14744
G1 X105.413 Y118.432 E2.24498
G1 X103.95 Y117.521 E2.3023
G1 X101.996 Y115.3 E2.40069
G1 X101.166 Y113.848 E2.45632
G1 X100.45 Y110.948 E2.55567
G1 X100.38 Y109.331 E2.6095
G1 X101.095 Y106.433 E2.70878
G1 X101.814 Y104.896 E2.76522
G1 X103.753 Y102.703 E2.86258
G1 X105.136 Y101.674 E2.91992
G1 X107.895 Y100.624 E3.0181
G1 X109.531 Y100.361 E3.07321
G1 X112.468 Y100.721 E3.17163
G1 X114.089 Y101.263 E3.22848
G1 X116.736 Y103.081 E3.33528
G1 X117.799 Y104.38 E3.39111
G1 X119.34 Y107.319 E3.50148
G1 X119.644 Y110.04 E3.59255
G1 X119.321 Y112.7 E3.68167
G1 X117.794 Y115.622 E3.79133
G1 X116.751 Y116.901 E3.84622
G1 X114.303 Y118.59 E3.94514
G1 X112.794 Y119.242 E3.99981
G1 X109.822 Y119.604 E4.09939
G0 F9000 X109.814 Y119.202
G1 F1800 X108.241 Y119.085 E4.15185
G1 X105.589 Y118.071 E4.24629
G1 X104.211 Y117.212 E4.3003
G1 X102.324 Y115.068 E4.39529
G1 X101.54 Y113.697 E4.44782
G1 X100.848 Y110.894 E4.54385
G1 X100.782 Y109.369 E4.59462
G1 X101.473 Y106.568 E4.69057
G1 X102.151 Y105.119 E4.74378
G1 X104.026 Y102.999 E4.83791
G1 X105.331 Y102.028 E4.89201
G1 X107.999 Y101.013 E4.98696
G1 X109.539 Y100.765 E5.03884
G1 X112.381 Y101.113 E5.13407
G1 X113.908 Y101.624 E5.18763
G1 X116.462 Y103.378 E5.29067
G1 X117.464 Y104.603 E5.34331
G1 X118.95 Y107.437 E5.44974
G1 X119.241 Y110.04 E5.53686
G1 X118.933 Y112.578 E5.62189
G1 X117.458 Y115.401 E5.72783
G1 X116.476 Y116.605 E5.77951
G1 X114.109 Y118.238 E5.87515
G1 X112.688 Y118.852 E5.92664
G1 X109.814 Y119.202 E6.02293
G0 F9000 X109.806 Y118.8
G1 F1800 X108.33 Y118.69 E6.07216
G1 X105.767 Y117.71 E6.16343
G1 X104.471 Y116.903 E6.2142
G1 X102.65 Y114.834 E6.30588
G1 X101.915 Y113.548 E6.35514
G1 X101.246 Y110.84 E6.44792
G1 X101.184 Y109.407 E6.49562
G1 X101.851 Y106.703 E6.58826
G1 X102.488 Y105.342 E6.63824
G1 X104.299 Y103.295 E6.72914
G1 X105.526 Y102.382 E6.78001
G1 X108.103 Y101.402 E6.87171
G1 X109.547 Y101.169 E6.92036
G1 X112.294 Y101.505 E7.0124
G1 X113.727 Y101.985 E7.06267
G1 X116.188 Y103.675 E7.16196
G1 X117.129 Y104.826 E7.21141
G1 X118.56 Y107.555 E7.3139
G1 X118.838 Y110.04 E7.39707
G1 X118.545 Y112.459 E7.47811
G1 X117.124 Y115.177 E7.58012
G1 X116.201 Y116.309 E7.6287
G1 X113.915 Y117.886 E7.72107
G1 X112.582 Y118.462 E7.76937
G1 X109.806 Y118.8 E7.86238
G0 F9000 X109.798 Y118.398
G1 F1800 X108.419 Y118.295 E7.90837
G1 X105.945 Y117.349 E7.99647
G1 X104.731 Y116.593 E8.04404
G1 X102.978 Y114.602 E8.13227
G1 X102.289 Y113.397 E8.17843
G1 X101.644 Y110.786 E8.26789
G1 X101.586 Y109.445 E8.31253
G1 X102.23 Y106.836 E8.40191
G1 X102.824 Y105.566 E8.44854
G1 X104.571 Y103.591 E8.53624
G1 X105.721 Y102.736 E8.58391
G1 X108.207 Y101.791 E8.67236
G1 X109.555 Y101.573 E8.71778
G1 X112.207 Y101.897 E8.80664
G1 X113.546 Y102.346 E8.85361
G1 X115.916 Y103.974 E8.94925
G1 X116.793 Y105.045 E8.99529
G1 X118.17 Y107.673 E9.09397
G1 X118.435 Y110.041 E9.17322
G1 X118.157 Y112.34 E9.25024
G1 X116.79 Y114.953 E9.34832
G1 X115.926 Y116.013 E9.39381
G1 X113.721 Y117.534 E9.4829
G1 X112.476 Y118.072 E9.52801
G1 X109.798 Y118.398 E9.61774
G0 F9000 X109.79 Y117.996
G1 F1800 X108.508 Y117.9 E9.6605
G1 X106.121 Y116.988 E9.74549
G1 X104.992 Y116.284 E9.78974
G1 X103.304 Y114.368 E9.87467
G1 X102.664 Y113.248 E9.91757
G1 X102.042 Y110.732 E10.00378
G1 X101.988 Y109.483 E10.04536
G1 X102.608 Y106.971 E10.13141
G1 X103.161 Y105.789 E10.17482
G1 X104.843 Y103.887 E10.25927
G1 X105.916 Y103.09 E10.30372
G1 X108.311 Y102.18 E10.38894
G1 X109.564 Y101.977 E10.43115
G1 X112.119 Y102.289 E10.51677
G1 X113.365 Y102.707 E10.56048
G1 X115.642 Y104.271 E10.65236
G1 X116.458 Y105.268 E10.69521
G1 X117.78 Y107.791 E10.78994
G1 X118.032 Y110.042 E10.86528
G1 X117.769 Y112.221 E10.93828
G1 X116.457 Y114.729 E11.03242
G1 X115.651 Y115.717 E11.07483
G1 X113.527 Y117.182 E11.16065
G1 X112.37 Y117.682 E11.20257
G1 X109.79 Y117.996 E11.28901
G0 F9000 X109.782 Y117.594
G1 F1800 X108.597 Y117.505 E11.32854
G1 X106.297 Y116.627 E11.41042
G1 X105.253 Y115.975 E11.45136
G1 X103.632 Y114.136 E11.53289
G1 X103.038 Y113.097 E11.5727
G1 X102.44 Y110.678 E11.65558
G1 X102.39 Y109.521 E11.6941
G1 X102.986 Y107.106 E11.77683
G1 X103.498 Y106.012 E11.817
G1 X105.117 Y104.181 E11.8983
G1 X106.108 Y103.445 E11.93935
G1 X108.415 Y102.569 E12.02143
G1 X109.573 Y102.381 E12.06045
G1 X112.031 Y102.681 E12.14281
G1 X113.184 Y103.068 E12.18326
G1 X115.368 Y104.568 E12.27138
G1 X116.123 Y105.491 E12.31104
G1 X117.39 Y107.909 E12.40184
G1 X117.629 Y110.043 E12.47326
G1 X117.381 Y112.102 E12.54224
G1 X116.124 Y114.505 E12.63244
G1 X115.376 Y115.421 E12.67177
G1 X113.333 Y116.83 E12.75431
G1 X112.264 Y117.292 E12.79305
G1 X109.782 Y117.594 E12.87621
G0 F9000 X109.774 Y117.192
G1 F1800 X108.686 Y117.11 E12.9125
G1 X106.473 Y116.266 E12.99127
G1 X105.516 Y115.668 E13.02881
G1 X103.958 Y113.901 E13.10716
G1 X103.412 Y112.946 E13.14375
G1 X102.838 Y110.624 E13.2233
G1 X102.792 Y109.559 E13.25876
G1 X103.364 Y107.241 E13.33817
G1 X103.835 Y106.235 E13.37511
G1 X105.391 Y104.475 E13.45325
G1 X106.3 Y103.8 E13.49091
G1 X108.519 Y102.958 E13.56984
G1 X109.582 Y102.785 E13.60566
G1 X111.943 Y103.073 E13.68477
G1 X113.003 Y103.429 E13.72197
G1 X115.094 Y104.865 E13.80633
G1 X115.788 Y105.714 E13.8428
G1 X117 Y108.027 E13.92966
G1 X117.226 Y110.044 E13.99716
G1 X116.993 Y111.983 E14.06212
G1 X115.791 Y114.281 E14.14837
G1 X115.101 Y115.125 E14.18463
G1 X113.139 Y116.478 E14.2639
G1 X112.158 Y116.902 E14.29945
G1 X109.774 Y117.192 E14.37932
G0 F9000 X109.766 Y116.79
G1 F1800 X108.774 Y116.715 E14.41241
G1 X106.651 Y115.906 E14.48798
G1 X105.779 Y115.361 E14.52218
G1 X104.284 Y113.666 E14.59735
G1 X103.786 Y112.795 E14.63072
G1 X103.236 Y110.57 E14.70695
G1 X103.194 Y109.597 E14.73934
G1 X103.743 Y107.374 E14.8155
G1 X104.171 Y106.459 E14.8491
G1 X105.665 Y104.769 E14.92412
G1 X106.492 Y104.155 E14.95838
G1 X108.623 Y103.347 E15.03418
G1 X109.591 Y103.189 E15.0668
G1 X111.855 Y103.465 E15.14266
G1 X112.822 Y103.79 E15.17659
G1 X114.82 Y105.162 E15.25721
G1 X115.453 Y105.937 E15.29049
G1 X116.61 Y108.145 E15.3734
G1 X116.823 Y110.045 E15.43699
G1 X116.605 Y111.863 E15.49789
G1 X115.456 Y114.058 E15.58029
G1 X114.826 Y114.829 E15.61341
G1 X112.945 Y116.126 E15.6894
G1 X112.052 Y116.512 E15.72176
G1 X109.766 Y116.79 E15.79835
G0 F9000 X109.758 Y116.388
G1 F1800 X108.862 Y116.32 E15.82824
G1 X106.829 Y115.546 E15.90059
G1 X106.042 Y115.054 E15.93146
G1 X104.61 Y113.431 E16.00345
G1 X104.16 Y112.644 E16.0336
G1 X103.634 Y110.516 E16.10651
G1 X103.596 Y109.635 E16.13584
G1 X104.121 Y107.509 E16.20867
G1 X104.508 Y106.682 E16.23904
G1 X105.939 Y105.063 E16.31091
G1 X106.684 Y104.51 E16.34177
G1 X108.726 Y103.736 E16.4144
G1 X109.601 Y103.593 E16.44389
G1 X111.767 Y103.857 E16.51647
G1 X112.639 Y104.15 E16.54706
G1 X114.547 Y105.461 E16.62406
G1 X115.118 Y106.16 E16.65408
G1 X116.22 Y108.263 E16.73305
G1 X116.42 Y110.046 E16.79272
G1 X116.217 Y111.743 E16.84957
G1 X115.121 Y113.835 E16.92812
G1 X114.551 Y114.533 E16.95809
G1 X112.751 Y115.774 E17.03081
G1 X111.946 Y116.122 E17.05998
G1 X109.758 Y116.388 E17.13329
G0 F9000 X109.75 Y115.986
G1 F1800 X108.95 Y115.925 E17.15997
G1 X107.007 Y115.186 E17.22911
G1 X106.305 Y114.747 E17.25665
G1 X104.936 Y113.196 E17.32546
G1 X104.534 Y112.493 E17.35239
G1 X104.032 Y110.462 E17.42198
G1 X103.998 Y109.673 E17.44824
G1 X104.499 Y107.644 E17.51775
G1 X104.845 Y106.905 E17.54489
G1 X106.213 Y105.357 E17.6136
G1 X106.876 Y104.865 E17.64106
G1 X108.829 Y104.125 E17.71053
G1 X109.611 Y103.997 E17.73688
G1 X111.679 Y104.249 E17.80617
G1 X112.456 Y104.51 E17.83344
G1 X114.274 Y105.76 E17.90682
G1 X114.783 Y106.383 E17.93358
G1 X115.831 Y108.383 E18.00867
G1 X116.018 Y110.043 E18.06424
G1 X115.829 Y111.623 E18.11716
G1 X114.785 Y113.616 E18.19199
G1 X114.278 Y114.235 E18.21861
G1 X112.557 Y115.422 E18.28814
G1 X111.84 Y115.732 E18.31412
G1 X109.75 Y115.986 E18.38415
G0 F9000 X109.743 Y115.584
G1 F1800 X109.038 Y115.53 E18.40766
G1 X107.185 Y114.826 E18.47359
G1 X106.568 Y114.44 E18.4978
G1 X105.262 Y112.961 E18.56342
G1 X104.908 Y112.342 E18.58714
G1 X104.43 Y110.408 E18.6534
G1 X104.4 Y109.711 E18.67661
G1 X104.878 Y107.777 E18.74287
G1 X105.181 Y107.129 E18.76666
G1 X106.487 Y105.651 E18.83226
G1 X107.068 Y105.22 E18.85632
G1 X108.932 Y104.514 E18.92262
G1 X109.621 Y104.401 E18.94584
G1 X111.591 Y104.641 E19.01184
G1 X112.273 Y104.87 E19.03577
G1 X114.001 Y106.059 E19.10554
G1 X114.448 Y106.606 E19.12903
G1 X115.442 Y108.503 E19.20026
G1 X115.616 Y110.04 E19.25171
G1 X115.441 Y111.503 E19.30072
G1 X114.45 Y113.393 E19.3717
G1 X114.003 Y113.939 E19.39517
G1 X112.363 Y115.07 E19.46143
G1 X111.734 Y115.342 E19.48422
G1 X109.743 Y115.584 E19.55093
G0 F9000 X109.736 Y115.182
G1 F1800 X109.126 Y115.135 E19.57128
G1 X107.363 Y114.466 E19.63399
G1 X106.831 Y114.133 E19.65487
G1 X105.588 Y112.726 E19.71731
G1 X105.282 Y112.191 E19.73781
G1 X104.828 Y110.354 E19.80075
G1 X104.802 Y109.749 E19.82089
G1 X105.256 Y107.912 E19.88383
G1 X105.518 Y107.352 E19.90439
G1 X106.76 Y105.947 E19.96676
G1 X107.262 Y105.574 E19.98756
G1 X109.035 Y104.903 E20.05061
G1 X109.631 Y104.805 E20.0707
G1 X111.503 Y105.033 E20.13343
G1 X112.09 Y105.23 E20.15402
G1 X113.728 Y106.357 E20.22015
G1 X114.115 Y106.83 E20.24048
G1 X115.053 Y108.622 E20.30775
G1 X115.214 Y110.037 E20.35512
G1 X115.053 Y111.382 E20.40017
G1 X114.115 Y113.17 E20.46733
G1 X113.728 Y113.643 E20.48765
G1 X112.169 Y114.718 E20.55064
G1 X111.628 Y114.952 E20.57024
G1 X109.736 Y115.182 E20.63363
G0 F9000 X109.729 Y114.78
G1 F1800 X109.214 Y114.74 E20.65082
G1 X107.541 Y114.106 E20.71032
G1 X107.094 Y113.826 E20.72786
G1 X105.914 Y112.491 E20.78713
G1 X105.656 Y112.04 E20.80441
G1 X105.226 Y110.3 E20.86402
G1 X105.204 Y109.787 E20.8811
G1 X105.634 Y108.047 E20.94071
G1 X105.855 Y107.575 E20.95805
G1 X107.033 Y106.243 E21.01719
G1 X107.457 Y105.927 E21.03478
G1 X109.136 Y105.292 E21.09448
G1 X109.641 Y105.209 E21.1115
G1 X111.415 Y105.425 E21.17094
G1 X111.91 Y105.591 E21.18831
G1 X113.453 Y106.653 E21.25061
G1 X113.78 Y107.053 E21.26779
G1 X114.665 Y108.742 E21.33121
G1 X114.812 Y110.034 E21.37446
G1 X114.665 Y111.261 E21.41556
G1 X113.78 Y112.947 E21.4789
G1 X113.453 Y113.347 E21.49608
G1 X111.975 Y114.366 E21.55579
G1 X111.522 Y114.562 E21.57221
G1 X109.729 Y114.78 E21.63228
G0 F9000 X109.722 Y114.378
G1 F1800 X109.302 Y114.345 E21.64629
G1 X107.721 Y113.747 E21.70251
G1 X107.355 Y113.517 E21.71689
G1 X106.24 Y112.256 E21.77288
G1 X106.03 Y111.889 E21.78694
G1 X105.624 Y110.246 E21.84323
G1 X105.606 Y109.825 E21.85725
G1 X106.012 Y108.182 E21.91354
G1 X106.192 Y107.798 E21.92764
G1 X107.306 Y106.539 E21.98355
G1 X107.653 Y106.28 E21.99796
G1 X109.237 Y105.681 E22.05428
G1 X109.651 Y105.613 E22.06824
G1 X111.327 Y105.817 E22.12439
G1 X111.73 Y105.952 E22.13853
G1 X113.178 Y106.949 E22.197
G1 X113.445 Y107.276 E22.21104
G1 X114.277 Y108.862 E22.27061
G1 X114.41 Y110.031 E22.30974
G1 X114.277 Y111.14 E22.34689
G1 X113.445 Y112.724 E22.4064
G1 X113.178 Y113.051 E22.42044
G1 X111.781 Y114.014 E22.47688
G1 X111.416 Y114.172 E22.4901
G1 X109.722 Y114.378 E22.54686
G0 F9000 X109.716 Y113.976
G1 F1800 X109.39 Y113.95 E22.55774
G1 X107.899 Y113.386 E22.61076
G1 X107.618 Y113.21 E22.62179
G1 X106.566 Y112.021 E22.67459
G1 X106.404 Y111.738 E22.68544
G1 X106.022 Y110.192 E22.7384
G1 X106.008 Y109.863 E22.74936
G1 X106.39 Y108.317 E22.80232
G1 X106.529 Y108.021 E22.8132
G1 X107.581 Y106.832 E22.866
G1 X107.846 Y106.634 E22.877
G1 X109.338 Y106.07 E22.93006
G1 X109.661 Y106.017 E22.94094
G1 X111.239 Y106.209 E22.99381
G1 X111.55 Y106.313 E23.00472
G1 X112.903 Y107.245 E23.05936
G1 X113.11 Y107.499 E23.07026
G1 X113.889 Y108.982 E23.12598
G1 X114.008 Y110.028 E23.16099
G1 X113.889 Y111.019 E23.19419
G1 X113.11 Y112.501 E23.24988
G1 X112.903 Y112.755 E23.26078
G1 X111.587 Y113.662 E23.31393
G1 X111.31 Y113.782 E23.32398
G1 X109.716 Y113.976 E23.37738
G1 F2400 E22.57738
G0 F9000 X111.143 Y112.997
G1 F2400 E23.37738
G1 F1800 X109.62 Y113.182 E23.42841
G1 X108.181 Y112.638 E23.47958
G1 X107.166 Y111.491 E23.53052
G1 X106.798 Y110 E23.5816
G1 X107.166 Y108.509 E23.63268
G1 X108.181 Y107.362 E23.68362
G1 X109.62 Y106.818 E23.73479
G1 X111.143 Y107.003 E23.78581
G1 X112.402 Y107.871 E23.83668
G1 X113.113 Y109.223 E23.88748
G1 X113.204 Y110.022 E23.91423
G1 X113.113 Y110.777 E23.93952
G1 X112.402 Y112.129 E23.99033
G1 X111.143 Y112.997 E24.04119
G0 F9000 X111.36 Y113.333
G1 F1800 X111.205 Y113.392 E24.04671
G1 X109.668 Y113.579 E24.0982
G1 X109.479 Y113.556 E24.10454
G1 X108.04 Y113.012 E24.1557
G1 X107.881 Y112.903 E24.16212
G1 X106.866 Y111.756 E24.21306
G1 X106.778 Y111.587 E24.2194
G1 X106.41 Y110.096 E24.27047
G1 X106.41 Y109.904 E24.27686
G1 X106.778 Y108.413 E24.32794
G1 X106.866 Y108.244 E24.33428
G1 X107.881 Y107.097 E24.38522
G1 X108.04 Y106.988 E24.39163
G1 X109.479 Y106.444 E24.4428
G1 X109.668 Y106.421 E24.44913
G1 X111.191 Y106.606 E24.50016
G1 X111.37 Y106.674 E24.50653
G1 X112.629 Y107.542 E24.55739
G1 X112.756 Y107.685 E24.56375
G1 X113.501 Y109.102 E24.617
G1 X113.606 Y110.025 E24.64789
G1 X113.501 Y110.898 E24.67714
G1 X112.756 Y112.315 E24.73038
G1 X112.629 Y112.458 E24.73675
G1 X111.36 Y113.333 E24.78801
G1 F2400 E23.98801
;MESH:Spacer batt.stl
G0 F9000 X110.913 Y112.392
G0 X110.005 Y112.196
;TYPE:WALL-OUTER
G1 F2400 E24.78801
G1 F1463.4 X110.8 Y112.099 E24.82078
G1 F1457.5 X111.686 Y111.49 E24.86494
G1 F1451.6 X112.189 Y110.523 E24.90989
G1 F1445.8 X112.253 Y110 E24.93171
G1 X112.189 Y109.473 E24.9537
G1 F1457.5 X111.685 Y108.509 E24.99838
G1 F1463.4 X110.8 Y107.897 E25.0424
G1 F1460.4 X109.732 Y107.767 E25.0865
G1 X108.728 Y108.149 E25.13054
G1 F1457.5 X108.013 Y108.958 E25.17489
G1 F1460.4 X107.754 Y110.002 E25.21898
G1 X108.013 Y111.042 E25.26291
G1 F1457.5 X108.728 Y111.847 E25.30714
G1 F1460.4 X109.732 Y112.229 E25.35118
G1 F1463.4 X110.005 Y112.196 E25.36243
G0 F9000 X110.005 Y112.684
G1 F1463.4 X109.671 Y112.725 E25.37619
G1 F1460.4 X108.444 Y112.259 E25.43
G1 F1457.5 X107.569 Y111.274 E25.48412
G1 X107.257 Y110 E25.53799
G1 X107.569 Y108.726 E25.59187
G1 X108.445 Y107.737 E25.64614
G1 F1460.4 X109.671 Y107.271 E25.6999
G1 X110.977 Y107.43 E25.75384
G1 F1463.4 X112.058 Y108.18 E25.80766
G1 F1457.5 X112.675 Y109.356 E25.86221
G1 F1445.8 X112.753 Y110 E25.88907
G1 X112.675 Y110.64 E25.91577
G1 F1457.5 X112.058 Y111.82 E25.97047
M104 S200
