;FLAVOR:Marlin
;TIME:722
;Filament used: 0.369682m
;Layer height: 0.2
;MINX:91.87
;MINY:84.403
;MINZ:0.2
;MAXX:128.111
;MAXY:135.582
;MAXZ:6.2
;TARGET_MACHINE.NAME:Creality Ender-3 V3 SE
;Generated with Cura_SteamEngine 5.10.0
M220 S100 ;Reset Feedrate
M221 S100 ;Reset Flowrate

G28 ;Home

M420 S1; Use saved mesh leveling data

G92 E0 ;Reset Extruder
G1 Z2.0 F3000 ;Move Z Axis up
G1 X-3 Y20 Z0.28 F5000.0 ;Move to start position
M190 S60 ; Set bed temperature and wait
M109 S200 ; Set hotend temperature and wait
G1 X-3 Y100.0 Z0.28 F1500.0 E15 ;Draw the first line
G1 X-2 Y100.0 Z0.28 F5000.0 ;Move to side a little
G1 X-2 Y20 Z0.28 F1500.0 E30 ;Draw the second line
G92 E0 ;Reset Extruder
G1 E-1.0000 F1800 ;Retract a bit
G1 Z2.0 F3000 ;Move Z Axis up
G1 E0.0000 F1800 

M82 ;absolute extrusion mode
G92 E0
G92 E0
G1 F2400 E-0.8
;LAYER_COUNT:31
;LAYER:0
M107
G0 F9000 X94.683 Y97.436 Z0.2
;TYPE:SKIRT
G1 F2400 E0
G1 F1800 X95.479 Y96.672 E0.0367
G1 X96.346 Y95.997 E0.07324
G1 X97.976 Y95.068 E0.13564
G1 X99.235 Y94.571 E0.18066
G1 X99.657 Y94.45 E0.19526
G1 X100.572 Y94.149 E0.2273
G1 X100.958 Y94.006 E0.24099
G1 X101.105 Y92.982 E0.2754
G1 X102.017 Y91.301 E0.33901
G1 X102.199 Y90.641 E0.36178
G1 X103.24 Y88.887 E0.42962
G1 X104.469 Y87.615 E0.48845
G1 X105.606 Y86.668 E0.53766
G1 X106.455 Y86.106 E0.57153
G1 X107.707 Y85.452 E0.61851
G1 X109.032 Y84.939 E0.66576
G1 X109.803 Y84.726 E0.69237
G1 X111.612 Y84.437 E0.7533
G1 X112.295 Y84.403 E0.77604
G1 X114.405 Y84.551 E0.8464
G1 X115.287 Y84.726 E0.8763
G1 X116.853 Y85.219 E0.93091
G1 X117.046 Y85.3 E0.93787
G1 X117.653 Y85.27 E0.95808
G1 X119.653 Y85.464 E1.02492
G1 X120.66 Y85.709 E1.05939
G1 X121.95 Y86.195 E1.10524
G1 X123.617 Y87.125 E1.16872
G1 X124.324 Y87.658 E1.19817
G1 X125.407 Y88.688 E1.24788
G1 X126.186 Y89.663 E1.28939
G1 X127.157 Y91.324 E1.35338
G1 X127.648 Y92.58 E1.39824
G1 X128.037 Y94.154 E1.45216
G1 X128.095 Y94.591 E1.46683
G1 X128.111 Y96.639 E1.53495
G1 X127.957 Y97.802 E1.57396
G1 X127.825 Y98.369 E1.59333
G1 X127.598 Y99.46 E1.63039
G1 X127.434 Y100.457 E1.664
G1 X127.288 Y101.591 E1.70203
G1 X127.191 Y102.593 E1.73551
G1 X127.148 Y103.455 E1.76421
G1 X127.122 Y104.753 E1.80739
G1 X127.147 Y105.708 E1.83917
G1 X127.193 Y106.637 E1.8701
G1 X127.286 Y107.61 E1.90261
G1 X127.455 Y108.916 E1.94641
G1 X127.583 Y109.69 E1.97251
G1 X128.044 Y111.888 E2.0472
G1 X128.093 Y112.262 E2.05975
G1 X128.092 Y114.614 E2.13798
G1 X128.043 Y114.991 E2.15062
G1 X127.533 Y116.958 E2.21821
G1 X127 Y118.212 E2.26353
G1 X126.477 Y119.112 E2.29815
G1 X125.323 Y120.596 E2.36067
G1 X124.353 Y121.511 E2.40502
G1 X124.334 Y124.3 E2.49779
G1 X124.208 Y125.616 E2.54176
G1 X124.075 Y126.326 E2.56579
G1 X123.548 Y128.092 E2.62708
G1 X123.265 Y128.752 E2.65097
G1 X122.301 Y130.454 E2.71603
G1 X121.948 Y130.944 E2.73611
G1 X120.813 Y132.214 E2.79276
G1 X119.744 Y133.144 E2.83989
G1 X118.404 Y134.044 E2.89358
G1 X117.533 Y134.494 E2.92618
G1 X116.439 Y134.939 E2.96547
G1 X114.852 Y135.365 E3.02012
G1 X113.519 Y135.55 E3.06488
G1 X112.062 Y135.582 E3.11335
G1 X110.89 Y135.481 E3.15248
G1 X109.928 Y135.303 E3.18502
G1 X108.811 Y134.983 E3.22366
G1 X107.022 Y134.213 E3.28844
G1 X105.982 Y133.594 E3.3287
G1 X104.939 Y132.807 E3.37215
G1 X104.171 Y132.096 E3.40696
G1 X103.023 Y130.751 E3.46578
G1 X102.519 Y129.995 E3.496
G1 X101.753 Y128.535 E3.55084
G1 X101.393 Y127.606 E3.58397
G1 X100.951 Y125.973 E3.64024
G1 X100.874 Y125.51 E3.65585
G1 X100.754 Y123.812 E3.71247
G1 X100.754 Y116.217 E3.96508
G1 X100.93 Y115.418 E3.99229
G1 X100.877 Y115.171 E4.00069
G1 X100.427 Y115.003 E4.01667
G1 X98.611 Y114.402 E4.08029
G1 X97.593 Y113.94 E4.11747
G1 X95.922 Y112.884 E4.18322
G1 X94.907 Y112.007 E4.22783
G1 X94.335 Y111.375 E4.25619
G1 X93.164 Y109.67 E4.32498
G1 X92.754 Y108.832 E4.35601
G1 X92.088 Y106.843 E4.42577
G1 X92.001 Y106.399 E4.44082
G1 X91.87 Y103.955 E4.52223
G1 X91.943 Y103.267 E4.54524
G1 X92.329 Y101.506 E4.6052
G1 X92.887 Y100.079 E4.65616
G1 X93.415 Y99.112 E4.69281
G1 X94.683 Y97.436 E4.76271
G0 F9000 X94.961 Y97.724
G1 F1800 X95.725 Y96.988 E4.79799
G1 X96.592 Y96.313 E4.83454
G1 X98.173 Y95.416 E4.89499
G1 X99.345 Y94.956 E4.93687
G1 X99.767 Y94.835 E4.95147
G1 X100.702 Y94.527 E4.98421
G1 X101.32 Y94.298 E5.00613
G1 X101.491 Y93.111 E5.04602
G1 X102.391 Y91.452 E5.1088
G1 X102.571 Y90.798 E5.13136
G1 X103.559 Y89.133 E5.19575
G1 X104.757 Y87.893 E5.2531
G1 X105.827 Y87.001 E5.29943
G1 X106.64 Y86.461 E5.33189
G1 X107.892 Y85.807 E5.37887
G1 X109.139 Y85.325 E5.42334
G1 X109.91 Y85.112 E5.44994
G1 X111.632 Y84.837 E5.50794
G1 X112.315 Y84.803 E5.53069
G1 X114.328 Y84.944 E5.59781
G1 X115.167 Y85.108 E5.62624
G1 X116.733 Y85.601 E5.68084
G1 X116.974 Y85.704 E5.68956
G1 X117.672 Y85.67 E5.7128
G1 X119.558 Y85.853 E5.77583
G1 X120.565 Y86.098 E5.8103
G1 X121.808 Y86.569 E5.85451
G1 X123.377 Y87.445 E5.91428
G1 X124.048 Y87.948 E5.94217
G1 X125.131 Y88.978 E5.99188
G1 X125.873 Y89.912 E6.03155
G1 X126.784 Y91.47 E6.09158
G1 X127.275 Y92.726 E6.13643
G1 X127.64 Y94.207 E6.18717
G1 X127.698 Y94.644 E6.20183
G1 X127.711 Y96.642 E6.26828
G1 X127.567 Y97.711 E6.30416
G1 X127.435 Y98.278 E6.32352
G1 X127.206 Y99.378 E6.36089
G1 X127.039 Y100.392 E6.39507
G1 X126.891 Y101.54 E6.43357
G1 X126.791 Y102.573 E6.46809
G1 X126.748 Y103.435 E6.4968
G1 X126.722 Y104.745 E6.54038
G1 X126.747 Y105.728 E6.57308
G1 X126.793 Y106.657 E6.60402
G1 X126.889 Y107.661 E6.63756
G1 X127.06 Y108.982 E6.68187
G1 X127.189 Y109.756 E6.70796
G1 X127.647 Y111.94 E6.78218
G1 X127.696 Y112.314 E6.79473
G1 X127.695 Y114.562 E6.8695
G1 X127.646 Y114.939 E6.88214
G1 X127.165 Y116.802 E6.94614
G1 X126.653 Y118.012 E6.98984
G1 X126.161 Y118.866 E7.02262
G1 X125.007 Y120.35 E7.08514
G1 X124.153 Y121.16 E7.12429
G1 X123.954 Y121.311 E7.1326
G1 X123.936 Y124.262 E7.23075
G1 X123.815 Y125.542 E7.27352
G1 X123.682 Y126.252 E7.29754
G1 X123.18 Y127.934 E7.35592
G1 X122.897 Y128.594 E7.37981
G1 X121.976 Y130.22 E7.44196
G1 X121.623 Y130.71 E7.46205
G1 X120.55 Y131.912 E7.51564
G1 X119.481 Y132.842 E7.56277
G1 X118.22 Y133.689 E7.61329
G1 X117.382 Y134.123 E7.64468
G1 X116.288 Y134.568 E7.68396
G1 X114.796 Y134.969 E7.73534
G1 X113.51 Y135.15 E7.77854
G1 X112.096 Y135.183 E7.82558
G1 X110.924 Y135.082 E7.86471
G1 X110.038 Y134.918 E7.89468
G1 X108.921 Y134.598 E7.93332
G1 X107.227 Y133.869 E7.99466
G1 X106.187 Y133.25 E8.03491
G1 X105.211 Y132.513 E8.07559
G1 X104.443 Y131.802 E8.1104
G1 X103.356 Y130.529 E8.16608
G1 X102.852 Y129.773 E8.1963
G1 X102.126 Y128.39 E8.24825
G1 X101.766 Y127.461 E8.28139
G1 X101.346 Y125.907 E8.33493
G1 X101.269 Y125.444 E8.35054
G1 X101.154 Y123.812 E8.40495
G1 X101.154 Y116.262 E8.65607
G1 X101.339 Y115.42 E8.68474
G1 X101.222 Y114.873 E8.70334
G1 X100.567 Y114.628 E8.7266
G1 X98.775 Y114.037 E8.78936
G1 X97.806 Y113.601 E8.82471
G1 X96.184 Y112.581 E8.88843
G1 X95.169 Y111.704 E8.93305
G1 X94.664 Y111.148 E8.95803
G1 X93.523 Y109.493 E9.02489
G1 X93.133 Y108.704 E9.05416
G1 X92.481 Y106.766 E9.12217
G1 X92.394 Y106.322 E9.13722
G1 X92.268 Y103.996 E9.2147
G1 X92.334 Y103.353 E9.2362
G1 X92.72 Y101.592 E9.29616
G1 X93.238 Y100.271 E9.34335
G1 X93.766 Y99.304 E9.38
G1 X94.961 Y97.724 E9.44588
G0 F9000 X95.239 Y98.012
G1 F1800 X95.971 Y97.304 E9.47976
G1 X96.838 Y96.629 E9.5163
G1 X98.32 Y95.788 E9.57298
G1 X99.455 Y95.341 E9.61355
G1 X99.877 Y95.22 E9.62815
G1 X100.827 Y94.907 E9.66142
G1 X101.682 Y94.591 E9.69174
G1 X101.877 Y93.24 E9.73714
G1 X102.765 Y91.603 E9.79908
G1 X102.943 Y90.955 E9.82143
G1 X103.878 Y89.379 E9.88238
G1 X105.014 Y88.2 E9.93683
G1 X106.049 Y87.334 E9.98172
G1 X106.825 Y86.816 E10.01275
G1 X108.077 Y86.162 E10.05973
G1 X109.246 Y85.711 E10.1014
G1 X110.017 Y85.498 E10.12801
G1 X111.652 Y85.237 E10.18308
G1 X112.335 Y85.203 E10.20582
G1 X114.251 Y85.337 E10.2697
G1 X115.09 Y85.501 E10.29814
G1 X116.612 Y85.982 E10.35123
G1 X116.901 Y86.109 E10.36173
G1 X117.692 Y86.07 E10.38807
G1 X119.463 Y86.242 E10.44725
G1 X120.47 Y86.487 E10.48172
G1 X121.614 Y86.919 E10.52239
G1 X123.138 Y87.766 E10.58038
G1 X123.772 Y88.238 E10.60667
G1 X124.855 Y89.268 E10.65638
G1 X125.528 Y90.115 E10.69236
G1 X126.411 Y91.616 E10.75028
G1 X126.902 Y92.872 E10.79514
G1 X127.243 Y94.26 E10.84267
G1 X127.301 Y94.697 E10.85734
G1 X127.314 Y96.589 E10.92026
G1 X127.177 Y97.62 E10.95486
G1 X127.045 Y98.187 E10.97422
G1 X126.814 Y99.297 E11.01193
G1 X126.644 Y100.327 E11.04665
G1 X126.494 Y101.489 E11.08562
G1 X126.391 Y102.553 E11.12117
G1 X126.348 Y103.415 E11.14988
G1 X126.322 Y104.737 E11.19386
G1 X126.347 Y105.748 E11.2275
G1 X126.393 Y106.677 E11.25843
G1 X126.492 Y107.712 E11.29301
G1 X126.663 Y109.033 E11.33732
G1 X126.798 Y109.838 E11.36446
G1 X127.25 Y111.992 E11.43767
G1 X127.299 Y112.366 E11.45021
G1 X127.298 Y114.51 E11.52152
G1 X127.249 Y114.887 E11.53417
G1 X126.778 Y116.701 E11.5965
G1 X126.306 Y117.812 E11.63665
G1 X125.814 Y118.666 E11.66943
G1 X124.731 Y120.06 E11.72814
G1 X123.911 Y120.841 E11.76581
G1 X123.555 Y121.111 E11.78067
G1 X123.538 Y124.225 E11.88424
G1 X123.422 Y125.468 E11.92576
G1 X123.289 Y126.178 E11.94979
G1 X122.812 Y127.776 E12.00526
G1 X122.529 Y128.436 E12.02914
G1 X121.651 Y129.986 E12.08839
G1 X121.298 Y130.476 E12.10848
G1 X120.252 Y131.645 E12.16065
G1 X119.257 Y132.51 E12.2045
G1 X118.035 Y133.334 E12.25352
G1 X117.231 Y133.752 E12.28366
G1 X116.137 Y134.197 E12.32294
G1 X114.739 Y134.573 E12.37109
G1 X113.5 Y134.75 E12.41272
G1 X112.13 Y134.784 E12.4583
G1 X110.958 Y134.683 E12.49743
G1 X110.148 Y134.533 E12.52483
G1 X109.031 Y134.213 E12.56347
G1 X107.432 Y133.525 E12.62137
G1 X106.392 Y132.906 E12.66162
G1 X105.483 Y132.219 E12.69952
G1 X104.715 Y131.508 E12.73433
G1 X103.688 Y130.306 E12.78691
G1 X103.206 Y129.587 E12.8157
G1 X102.499 Y128.245 E12.86615
G1 X102.139 Y127.316 E12.89929
G1 X101.741 Y125.841 E12.9501
G1 X101.664 Y125.378 E12.96572
G1 X101.554 Y123.812 E13.01793
G1 X101.554 Y116.307 E13.26755
G1 X101.748 Y115.422 E13.29768
G1 X101.567 Y114.575 E13.32649
G1 X100.707 Y114.253 E13.35703
G1 X98.9 Y113.657 E13.42032
G1 X98.018 Y113.262 E13.45246
G1 X96.446 Y112.278 E13.51414
G1 X95.431 Y111.401 E13.55876
G1 X94.961 Y110.88 E13.5821
G1 X93.882 Y109.316 E13.64529
G1 X93.492 Y108.527 E13.67457
G1 X92.874 Y106.689 E13.73906
G1 X92.787 Y106.245 E13.75411
G1 X92.666 Y104.035 E13.82772
G1 X92.725 Y103.439 E13.84764
G1 X93.111 Y101.678 E13.90761
G1 X93.589 Y100.463 E13.95103
G1 X94.117 Y99.496 E13.98768
G1 X95.239 Y98.012 E14.04955
G0 F9000 X95.518 Y98.299
G1 F1800 X96.217 Y97.62 E14.08197
G1 X97.084 Y96.945 E14.11851
G1 X98.467 Y96.16 E14.1714
G1 X99.565 Y95.726 E14.21067
G1 X99.987 Y95.605 E14.22527
G1 X100.957 Y95.286 E14.25924
G1 X102.044 Y94.883 E14.2978
G1 X102.263 Y93.369 E14.34867
G1 X103.139 Y91.754 E14.40978
G1 X103.315 Y91.112 E14.43192
G1 X104.199 Y89.622 E14.48955
G1 X105.271 Y88.506 E14.54102
G1 X106.272 Y87.666 E14.58448
G1 X107.01 Y87.171 E14.61403
G1 X108.262 Y86.517 E14.66102
G1 X109.353 Y86.097 E14.6999
G1 X110.124 Y85.884 E14.7265
G1 X111.672 Y85.637 E14.77864
G1 X112.355 Y85.603 E14.80139
G1 X114.174 Y85.73 E14.86203
G1 X115.013 Y85.894 E14.89047
G1 X116.452 Y86.348 E14.94065
G1 X116.829 Y86.513 E14.95434
G1 X117.711 Y86.47 E14.98371
G1 X119.368 Y86.631 E15.03908
G1 X120.375 Y86.876 E15.07355
G1 X121.472 Y87.293 E15.11259
G1 X122.9 Y88.088 E15.16695
G1 X123.496 Y88.528 E15.19159
G1 X124.579 Y89.558 E15.2413
G1 X125.184 Y90.319 E15.27363
G1 X126.039 Y91.763 E15.32945
G1 X126.514 Y92.968 E15.37253
G1 X126.846 Y94.313 E15.4186
G1 X126.904 Y94.75 E15.43327
G1 X126.917 Y96.537 E15.4927
G1 X126.787 Y97.529 E15.52598
G1 X126.655 Y98.096 E15.54534
G1 X126.422 Y99.216 E15.58339
G1 X126.249 Y100.262 E15.61865
G1 X126.097 Y101.438 E15.65809
G1 X125.991 Y102.533 E15.69468
G1 X125.948 Y103.395 E15.72339
G1 X125.922 Y104.729 E15.76777
G1 X125.947 Y105.768 E15.80233
G1 X125.993 Y106.697 E15.83327
G1 X126.095 Y107.763 E15.86889
G1 X126.266 Y109.084 E15.91319
G1 X126.407 Y109.92 E15.94139
G1 X126.853 Y112.044 E16.01357
G1 X126.902 Y112.418 E16.02612
G1 X126.901 Y114.458 E16.09397
G1 X126.852 Y114.835 E16.10661
G1 X126.41 Y116.545 E16.16536
G1 X125.959 Y117.612 E16.20389
G1 X125.467 Y118.466 E16.23667
G1 X124.455 Y119.771 E16.29159
G1 X123.669 Y120.522 E16.32775
G1 X123.156 Y120.911 E16.34916
G1 X123.14 Y124.188 E16.45816
G1 X123.029 Y125.394 E16.49844
G1 X122.896 Y126.104 E16.52247
G1 X122.444 Y127.618 E16.57502
G1 X122.161 Y128.278 E16.5989
G1 X121.326 Y129.752 E16.65525
G1 X120.973 Y130.242 E16.67533
G1 X119.989 Y131.344 E16.72447
G1 X119.033 Y132.179 E16.76669
G1 X117.85 Y132.979 E16.81419
G1 X117.08 Y133.381 E16.84308
G1 X115.986 Y133.826 E16.88236
G1 X114.682 Y134.177 E16.92728
G1 X113.489 Y134.35 E16.96737
G1 X112.164 Y134.385 E17.01146
G1 X110.992 Y134.284 E17.05058
G1 X110.258 Y134.148 E17.07541
G1 X109.141 Y133.828 E17.11406
G1 X107.637 Y133.181 E17.16851
G1 X106.597 Y132.562 E17.20876
G1 X105.755 Y131.925 E17.24388
G1 X104.987 Y131.214 E17.27869
G1 X104.02 Y130.082 E17.32821
G1 X103.56 Y129.4 E17.35557
G1 X102.872 Y128.1 E17.40449
G1 X102.525 Y127.211 E17.43623
G1 X102.136 Y125.775 E17.48571
G1 X102.059 Y125.312 E17.50132
G1 X101.954 Y123.812 E17.55134
G1 X101.954 Y116.351 E17.79949
G1 X102.157 Y115.422 E17.83112
G1 X101.963 Y114.527 E17.86158
G1 X101.954 Y114.292 E17.8694
G1 X100.847 Y113.878 E17.90871
G1 X99.062 Y113.291 E17.97121
G1 X98.229 Y112.922 E18.00151
G1 X96.708 Y111.975 E18.0611
G1 X95.693 Y111.098 E18.10572
G1 X95.29 Y110.652 E18.12571
G1 X94.241 Y109.139 E18.18694
G1 X93.851 Y108.35 E18.21622
G1 X93.267 Y106.612 E18.2772
G1 X93.18 Y106.168 E18.29225
G1 X93.064 Y104.073 E18.36203
G1 X93.116 Y103.524 E18.38037
G1 X93.484 Y101.823 E18.43826
G1 X93.94 Y100.655 E18.47996
G1 X94.468 Y99.688 E18.51661
G1 X95.518 Y98.299 E18.57452
G0 F9000 X95.797 Y98.585
G1 F1800 X96.463 Y97.936 E18.60545
G1 X97.33 Y97.261 E18.642
G1 X98.664 Y96.508 E18.69294
G1 X99.675 Y96.111 E18.72907
G1 X100.097 Y95.99 E18.74367
G1 X101.087 Y95.664 E18.77834
G1 X101.977 Y95.334 E18.80991
G1 X102.41 Y95.154 E18.82551
G1 X102.649 Y93.497 E18.88119
G1 X103.46 Y91.993 E18.93802
G1 X103.509 Y91.916 E18.94106
G1 X103.687 Y91.269 E18.96337
G1 X104.519 Y89.867 E19.0176
G1 X105.56 Y88.783 E19.06759
G1 X106.496 Y87.998 E19.10822
G1 X107.195 Y87.526 E19.13627
G1 X108.447 Y86.872 E19.18325
G1 X109.46 Y86.483 E19.21934
G1 X110.231 Y86.27 E19.24595
G1 X111.692 Y86.037 E19.29515
G1 X112.375 Y86.003 E19.3179
G1 X114.097 Y86.123 E19.37531
G1 X114.936 Y86.287 E19.40374
G1 X116.292 Y86.715 E19.45104
G1 X116.755 Y86.917 E19.46784
G1 X117.73 Y86.87 E19.5003
G1 X119.273 Y87.02 E19.55187
G1 X120.28 Y87.265 E19.58634
G1 X121.278 Y87.643 E19.62183
G1 X122.662 Y88.41 E19.67446
G1 X123.258 Y88.85 E19.6991
G1 X124.267 Y89.808 E19.74538
G1 X124.84 Y90.523 E19.77585
G1 X125.695 Y91.967 E19.83167
G1 X126.126 Y93.064 E19.87087
G1 X126.449 Y94.366 E19.91549
G1 X126.507 Y94.803 E19.93015
G1 X126.517 Y96.539 E19.98789
G1 X126.397 Y97.438 E20.01805
G1 X126.265 Y98.005 E20.03742
G1 X126.03 Y99.134 E20.07577
G1 X125.854 Y100.197 E20.11161
G1 X125.7 Y101.387 E20.15152
G1 X125.593 Y102.495 E20.18854
G1 X125.548 Y103.387 E20.21825
G1 X125.522 Y104.721 E20.26263
G1 X125.547 Y105.788 E20.29812
G1 X125.593 Y106.717 E20.32906
G1 X125.698 Y107.814 E20.36571
G1 X125.869 Y109.135 E20.41002
G1 X126.016 Y110.002 E20.43927
G1 X126.456 Y112.096 E20.51043
G1 X126.505 Y112.47 E20.52298
G1 X126.504 Y114.406 E20.58737
G1 X126.455 Y114.783 E20.60001
G1 X126.023 Y116.444 E20.6571
G1 X125.612 Y117.412 E20.69208
G1 X125.12 Y118.266 E20.72486
G1 X124.178 Y119.482 E20.77602
G1 X123.427 Y120.203 E20.81064
G1 X122.757 Y120.711 E20.83861
G1 X122.742 Y124.152 E20.95306
G1 X122.636 Y125.32 E20.99207
G1 X122.503 Y126.03 E21.01609
G1 X122.076 Y127.46 E21.06573
G1 X121.793 Y128.12 E21.08961
G1 X121.001 Y129.518 E21.14305
G1 X120.648 Y130.008 E21.16314
G1 X119.691 Y131.077 E21.21086
G1 X118.771 Y131.877 E21.25141
G1 X117.664 Y132.625 E21.29585
G1 X116.929 Y133.01 E21.32344
G1 X115.835 Y133.455 E21.36273
G1 X114.624 Y133.781 E21.40444
G1 X113.478 Y133.95 E21.44297
G1 X112.198 Y133.986 E21.48556
