;FLAVOR:Marlin
;TIME:1080
;Filament used: 0.54252m
;Layer height: 0.16
;MINX:92.986
;MINY:92.991
;MINZ:0.2
;MAXX:127.014
;MAXY:127.016
;MAXZ:6.44
;TARGET_MACHINE.NAME:Creality Ender-3 V3 SE
;Generated with Cura_SteamEngine 5.9.1
M82 ;absolute extrusion mode
M220 S100 ;Reset Feedrate
M221 S100 ;Reset Flowrate

G28 ;Home

M420 S1; Use saved mesh leveling data

G92 E0 ;Reset Extruder
G1 Z2.0 F3000 ;Move Z Axis up
G1 X-3 Y20 Z0.28 F5000.0 ;Move to start position
M190 S60 ; Set bed temperature and wait
M109 S200 ; Set hotend temperature and wait
G1 X-3 Y100.0 Z0.28 F1500.0 E15 ;Draw the first line
G1 X-2 Y100.0 Z0.28 F5000.0 ;Move to side a little
G1 X-2 Y20 Z0.28 F1500.0 E30 ;Draw the second line
G92 E0 ;Reset Extruder
G1 E-1.0000 F1800 ;Retract a bit
G1 Z2.0 F3000 ;Move Z Axis up
G1 E0.0000 F1800 

G92 E0
G92 E0
G1 F2400 E-0.8
;LAYER_COUNT:34
;LAYER:0
M107
G0 F9000 X112.031 Y126.959 Z0.2
;TYPE:SKIRT
G1 F2400 E0
G1 F1800 X111.361 Y126.956 E0.02228
G1 X110.486 Y127.016 E0.05146
G1 X107.909 Y126.966 E0.13718
G1 X107.268 Y126.787 E0.15932
G1 X106.595 Y126.684 E0.18196
G1 X105.359 Y126.381 E0.22429
G1 X104.538 Y125.938 E0.25532
G1 X102.96 Y125.557 E0.30931
G1 X101.124 Y124.544 E0.37905
G1 X100.207 Y123.942 E0.41554
G1 X99.968 Y123.754 E0.42565
G1 X99.619 Y123.502 E0.43997
G1 X98.642 Y122.696 E0.4821
G1 X97.709 Y121.798 E0.52517
G1 X96.67 Y120.588 E0.57821
G1 X96.255 Y119.738 E0.60967
G1 X95.226 Y118.557 E0.66177
G1 X94.173 Y116.329 E0.74373
G1 X94.043 Y115.953 E0.75697
G1 X93.886 Y115.542 E0.7716
G1 X93.441 Y114.003 E0.82488
G1 X93.364 Y113.534 E0.84069
G1 X93.188 Y112.693 E0.86927
G1 X92.986 Y111.131 E0.92165
G1 X93.163 Y109.664 E0.9708
G1 X93.034 Y108.185 E1.02018
G1 X93.492 Y105.822 E1.10024
G1 X93.747 Y104.959 E1.13017
G1 X94.159 Y103.741 E1.17293
G1 X94.804 Y102.339 E1.22426
G1 X95.446 Y101.061 E1.27183
G1 X96.487 Y99.866 E1.32454
G1 X96.653 Y99.717 E1.33196
G1 X97.26 Y98.678 E1.37198
G1 X98.867 Y97.094 E1.44703
G1 X99.553 Y96.527 E1.47663
G1 X100.332 Y95.966 E1.50856
G1 X101.688 Y95.149 E1.56122
G1 X102.852 Y94.549 E1.60477
G1 X104.148 Y94.085 E1.65056
G1 X105.037 Y93.888 E1.68084
G1 X105.165 Y93.872 E1.68513
G1 X105.838 Y93.526 E1.7103
G1 X107.866 Y93.044 E1.77963
G1 X108.592 Y93.044 E1.80378
G1 X109.216 Y92.991 E1.82461
G1 X110.964 Y93.006 E1.88275
G1 X111.724 Y93.05 E1.90807
G1 X114.161 Y93.458 E1.99025
G1 X115.479 Y94.063 E2.03849
G1 X115.591 Y94.081 E2.04226
G1 X116.989 Y94.421 E2.09011
G1 X118.115 Y95.038 E2.13282
G1 X118.624 Y95.305 E2.15193
G1 X119.677 Y95.981 E2.19355
G1 X120.389 Y96.509 E2.22304
G1 X121.321 Y97.284 E2.26335
G1 X122.176 Y98.078 E2.30216
G1 X123.383 Y99.475 E2.36356
G1 X123.799 Y100.356 E2.39597
G1 X124.787 Y101.468 E2.44544
G1 X125.739 Y103.46 E2.51888
G1 X126.077 Y104.353 E2.55063
G1 X126.59 Y106.165 E2.61327
G1 X126.652 Y106.542 E2.62598
G1 X126.812 Y107.306 E2.65194
G1 X127.014 Y108.866 E2.70426
G1 X126.83 Y110.367 E2.75456
G1 X126.961 Y111.715 E2.7996
G1 X126.696 Y113.301 E2.85308
G1 X126.501 Y114.196 E2.88355
G1 X126.192 Y115.212 E2.91887
G1 X126.044 Y115.833 E2.9401
G1 X125.159 Y117.738 E3.00997
G1 X124.402 Y119.125 E3.06252
G1 X123.378 Y120.219 E3.11236
G1 X122.744 Y121.321 E3.15465
G1 X121.245 Y122.797 E3.22462
G1 X120.461 Y123.452 E3.2586
G1 X119.613 Y124.063 E3.29336
G1 X118.56 Y124.705 E3.33438
G1 X117.956 Y125.043 E3.3574
G1 X116.401 Y125.808 E3.41504
G1 X114.856 Y126.127 E3.46751
G1 X113.939 Y126.562 E3.50127
G1 X112.031 Y126.959 E3.56609
G0 F9000 X111.989 Y126.559
G1 F1800 X111.348 Y126.556 E3.58741
G1 X110.494 Y126.616 E3.61588
G1 X107.967 Y126.567 E3.69994
G1 X107.355 Y126.396 E3.72108
G1 X106.69 Y126.295 E3.74345
G1 X105.502 Y126.004 E3.78413
G1 X104.666 Y125.552 E3.81574
G1 X104.559 Y125.536 E3.81934
G1 X103.105 Y125.18 E3.86913
G1 X102.033 Y124.582 E3.90995
G1 X101.343 Y124.209 E3.93604
G1 X100.454 Y123.627 E3.97138
G1 X100.202 Y123.429 E3.98204
G1 X99.874 Y123.193 E3.99548
G1 X98.897 Y122.387 E4.03761
G1 X97.987 Y121.51 E4.07964
G1 X97.005 Y120.364 E4.12984
G1 X96.582 Y119.497 E4.16192
G1 X96.496 Y119.414 E4.1659
G1 X95.565 Y118.338 E4.21322
G1 X94.551 Y116.197 E4.29202
G1 X94.42 Y115.821 E4.30526
G1 X94.27 Y115.43 E4.31919
G1 X93.836 Y113.938 E4.37087
G1 X93.759 Y113.469 E4.38668
G1 X93.585 Y112.642 E4.41479
G1 X93.389 Y111.128 E4.46556
G1 X93.565 Y109.668 E4.51447
G1 X93.438 Y108.205 E4.56332
G1 X93.885 Y105.898 E4.64147
G1 X94.126 Y105.086 E4.66965
G1 X94.522 Y103.908 E4.71098
G1 X95.161 Y102.518 E4.76186
G1 X95.778 Y101.289 E4.8076
G1 X96.789 Y100.129 E4.85878
G1 X96.965 Y99.976 E4.86654
G1 X97.578 Y98.927 E4.90695
G1 X99.122 Y97.402 E4.97913
G1 X99.787 Y96.852 E5.00783
G1 X100.566 Y96.291 E5.03976
G1 X101.444 Y95.759 E5.0739
G1 X101.535 Y95.712 E5.07731
G1 X101.872 Y95.504 E5.09048
G1 X102.987 Y94.926 E5.13225
G1 X104.283 Y94.462 E5.17804
G1 X105.122 Y94.279 E5.2066
G1 X105.285 Y94.26 E5.21206
G1 X105.979 Y93.904 E5.238
G1 X107.913 Y93.444 E5.30412
G1 X108.614 Y93.444 E5.32744
G1 X109.25 Y93.39 E5.34867
G1 X110.942 Y93.405 E5.40494
G1 X111.658 Y93.445 E5.42879
G1 X114.042 Y93.844 E5.50919
G1 X115.36 Y94.449 E5.55742
G1 X115.496 Y94.47 E5.562
G1 X116.844 Y94.798 E5.60814
G1 X117.93 Y95.393 E5.64933
G1 X118.408 Y95.642 E5.66726
G1 X119.461 Y96.318 E5.70888
G1 X120.15 Y96.83 E5.73743
G1 X121.049 Y97.578 E5.77632
G1 X121.873 Y98.34 E5.81365
G1 X123.045 Y99.696 E5.87326
G1 X123.461 Y100.578 E5.9057
G1 X124.45 Y101.691 E5.95522
G1 X125.365 Y103.602 E6.02569
G1 X125.692 Y104.463 E6.05632
G1 X126.195 Y106.23 E6.11743
G1 X126.257 Y106.607 E6.13014
G1 X126.415 Y107.357 E6.15563
G1 X126.611 Y108.868 E6.20631
G1 X126.428 Y110.361 E6.25634
G1 X126.558 Y111.699 E6.30105
G1 X126.305 Y113.216 E6.3522
G1 X126.118 Y114.08 E6.3816
G1 X125.807 Y115.104 E6.4172
G1 X125.665 Y115.699 E6.43754
G1 X124.796 Y117.569 E6.50613
G1 X124.075 Y118.89 E6.55618
G1 X123.054 Y119.98 E6.60586
G1 X122.425 Y121.074 E6.64783
G1 X120.964 Y122.512 E6.71601
G1 X120.227 Y123.127 E6.74794
G1 X119.379 Y123.738 E6.7827
G1 X118.365 Y124.356 E6.82219
G1 X117.779 Y124.684 E6.84453
G1 X116.27 Y125.426 E6.90046
G1 X114.729 Y125.744 E6.95279
G1 X113.812 Y126.18 E6.98656
G1 X111.989 Y126.559 E7.04849
G0 F9000 X111.947 Y126.159
G1 F1800 X111.334 Y126.156 E7.06888
G1 X110.502 Y126.216 E7.09663
G1 X108.024 Y126.168 E7.17906
G1 X107.432 Y126.003 E7.1995
G1 X106.785 Y125.906 E7.22126
G1 X105.646 Y125.627 E7.26027
G1 X104.793 Y125.166 E7.29251
G1 X104.654 Y125.147 E7.29718
G1 X103.254 Y124.804 E7.34512
G1 X102.228 Y124.233 E7.38418
G1 X101.562 Y123.874 E7.40934
G1 X100.701 Y123.312 E7.44354
G1 X100.449 Y123.114 E7.4542
G1 X100.129 Y122.884 E7.4673
G1 X99.152 Y122.078 E7.50943
G1 X98.265 Y121.222 E7.55043
G1 X97.342 Y120.142 E7.59768
G1 X96.91 Y119.258 E7.63041
G1 X96.799 Y119.152 E7.63551
G1 X95.901 Y118.114 E7.68116
G1 X94.929 Y116.065 E7.75659
G1 X94.798 Y115.689 E7.76983
G1 X94.644 Y115.287 E7.78415
G1 X94.231 Y113.872 E7.83318
G1 X94.153 Y113.403 E7.84899
G1 X93.982 Y112.591 E7.87659
G1 X93.792 Y111.125 E7.92576
G1 X93.967 Y109.676 E7.9743
G1 X93.841 Y108.229 E8.02261
G1 X94.269 Y106.011 E8.09774
G1 X94.505 Y105.213 E8.12542
G1 X94.886 Y104.075 E8.16534
G1 X95.518 Y102.698 E8.21573
G1 X96.113 Y101.514 E8.2598
G1 X97.052 Y100.431 E8.30748
G1 X97.276 Y100.236 E8.31736
G1 X97.897 Y99.173 E8.3583
G1 X99.377 Y97.71 E8.42752
G1 X100.021 Y97.177 E8.45532
G1 X100.8 Y96.616 E8.48725
G1 X101.651 Y96.101 E8.52033
G1 X101.744 Y96.053 E8.52382
G1 X102.082 Y95.845 E8.53702
G1 X103.123 Y95.302 E8.57607
G1 X104.368 Y94.853 E8.62009
G1 X105.207 Y94.67 E8.64865
G1 X105.4 Y94.65 E8.6551
G1 X106.118 Y94.282 E8.68194
G1 X107.96 Y93.844 E8.74491
G1 X108.636 Y93.844 E8.76739
G1 X109.284 Y93.789 E8.78902
G1 X110.921 Y93.804 E8.84347
G1 X111.592 Y93.84 E8.86582
G1 X113.923 Y94.23 E8.94443
G1 X115.245 Y94.837 E8.99281
G1 X115.402 Y94.859 E8.99809
G1 X116.698 Y95.174 E9.04245
G1 X117.738 Y95.744 E9.08189
G1 X118.192 Y95.979 E9.09889
G1 X119.245 Y96.655 E9.14051
G1 X119.911 Y97.151 E9.16813
G1 X120.777 Y97.872 E9.20561
G1 X121.601 Y98.634 E9.24294
G1 X122.707 Y99.916 E9.29925
G1 X123.124 Y100.801 E9.33179
G1 X124.113 Y101.914 E9.38132
G1 X124.991 Y103.744 E9.44882
G1 X125.307 Y104.573 E9.47833
G1 X125.8 Y106.295 E9.53791
G1 X125.862 Y106.672 E9.55061
G1 X126.018 Y107.409 E9.57567
G1 X126.208 Y108.871 E9.62471
G1 X126.026 Y110.355 E9.67443
G1 X126.155 Y111.683 E9.71881
G1 X125.914 Y113.132 E9.76767
G1 X125.735 Y113.964 E9.79597
G1 X125.424 Y114.988 E9.83157
G1 X125.286 Y115.565 E9.8513
G1 X124.433 Y117.4 E9.9186
G1 X123.748 Y118.655 E9.96616
G1 X122.804 Y119.666 E10.01216
G1 X122.738 Y119.726 E10.01513
G1 X122.106 Y120.827 E10.05735
G1 X120.707 Y122.205 E10.12267
G1 X119.993 Y122.802 E10.15362
G1 X119.145 Y123.413 E10.18838
G1 X118.169 Y124.007 E10.22639
G1 X117.602 Y124.325 E10.24801
G1 X116.14 Y125.044 E10.3022
G1 X114.706 Y125.344 E10.35092
G1 X114.625 Y125.35 E10.35363
G1 X113.686 Y125.797 E10.38822
G1 X111.947 Y126.159 E10.44729
G0 F9000 X111.906 Y125.759
G1 F1800 X111.319 Y125.756 E10.46682
G1 X110.51 Y125.816 E10.4938
G1 X108.081 Y125.769 E10.5746
G1 X107.509 Y125.61 E10.59435
G1 X106.88 Y125.517 E10.6155
G1 X105.79 Y125.25 E10.65282
G1 X104.914 Y124.776 E10.68595
G1 X104.749 Y124.758 E10.69147
G1 X103.401 Y124.428 E10.73763
G1 X102.422 Y123.884 E10.77488
G1 X101.78 Y123.539 E10.79912
G1 X100.948 Y122.997 E10.83215
G1 X100.696 Y122.799 E10.84281
G1 X100.384 Y122.575 E10.85558
G1 X99.407 Y121.769 E10.89771
G1 X98.569 Y120.962 E10.9364
G1 X97.679 Y119.92 E10.98198
G1 X97.236 Y119.014 E11.01552
G1 X97.102 Y118.89 E11.0216
G1 X96.238 Y117.891 E11.06553
G1 X95.307 Y115.933 E11.13764
G1 X95.176 Y115.557 E11.15088
G1 X95.018 Y115.144 E11.16559
G1 X94.626 Y113.806 E11.21196
G1 X94.548 Y113.337 E11.22777
G1 X94.379 Y112.54 E11.25487
G1 X94.195 Y111.122 E11.30243
G1 X94.369 Y109.684 E11.35061
G1 X94.244 Y108.252 E11.39842
G1 X94.653 Y106.124 E11.47049
G1 X94.885 Y105.339 E11.49771
G1 X95.25 Y104.242 E11.53617
G1 X95.875 Y102.878 E11.58607
G1 X96.448 Y101.738 E11.62851
G1 X97.354 Y100.693 E11.67451
G1 X97.587 Y100.496 E11.68466
G1 X98.215 Y99.422 E11.72604
G1 X99.632 Y98.018 E11.79238
G1 X100.255 Y97.502 E11.81929
G1 X101.034 Y96.941 E11.85122
G1 X101.834 Y96.457 E11.88231
G1 X101.943 Y96.401 E11.88639
G1 X102.292 Y96.186 E11.90002
G1 X103.308 Y95.657 E11.93812
G1 X104.453 Y95.244 E11.97861
G1 X105.292 Y95.061 E12.00717
G1 X105.515 Y95.041 E12.01462
G1 X106.26 Y94.659 E12.04246
G1 X108.006 Y94.244 E12.10215
G1 X108.648 Y94.244 E12.1235
G1 X109.281 Y94.189 E12.14464
G1 X110.901 Y94.203 E12.19852
G1 X111.526 Y94.235 E12.21934
G1 X113.808 Y94.617 E12.29629
G1 X115.136 Y95.227 E12.3449
G1 X115.307 Y95.248 E12.35063
G1 X116.553 Y95.551 E12.39328
G1 X117.555 Y96.1 E12.43128
G1 X117.976 Y96.316 E12.44702
G1 X119.029 Y96.992 E12.48864
G1 X119.655 Y97.459 E12.51461
G1 X120.505 Y98.166 E12.55138
G1 X121.329 Y98.928 E12.58871
G1 X122.367 Y100.135 E12.64166
G1 X122.794 Y101.039 E12.67491
G1 X122.865 Y101.107 E12.67818
G1 X123.776 Y102.138 E12.72394
G1 X124.63 Y103.917 E12.78958
G1 X124.767 Y104.295 E12.80295
G1 X124.922 Y104.683 E12.81685
G1 X125.415 Y106.405 E12.87642
G1 X125.468 Y106.74 E12.8877
G1 X125.621 Y107.461 E12.91222
G1 X125.805 Y108.875 E12.95964
G1 X125.644 Y110.235 E13.00519
G1 X125.622 Y110.328 E13.00837
G1 X125.752 Y111.668 E13.05315
G1 X125.523 Y113.048 E13.09968
G1 X125.352 Y113.848 E13.12689
G1 X125.041 Y114.872 E13.16248
G1 X124.907 Y115.431 E13.1816
G1 X124.07 Y117.231 E13.24762
G1 X123.42 Y118.42 E13.29269
G1 X122.512 Y119.393 E13.33696
G1 X122.426 Y119.466 E13.34071
G1 X121.787 Y120.58 E13.38342
G1 X120.426 Y121.92 E13.44695
G1 X119.759 Y122.477 E13.47585
G1 X118.911 Y123.088 E13.51062
G1 X117.973 Y123.658 E13.54712
G1 X117.406 Y123.976 E13.56874
G1 X116.008 Y124.663 E13.62055
G1 X114.675 Y124.945 E13.66587
G1 X114.521 Y124.957 E13.67101
G1 X113.559 Y125.415 E13.70645
G1 X111.906 Y125.759 E13.7626
G0 F9000 X111.865 Y125.359
G1 F1800 X111.303 Y125.356 E13.78129
G1 X110.518 Y125.416 E13.80748
G1 X108.137 Y125.37 E13.88669
G1 X107.588 Y125.217 E13.90564
G1 X106.975 Y125.128 E13.92624
G1 X105.934 Y124.873 E13.96189
G1 X105.034 Y124.386 E13.99593
G1 X104.792 Y124.36 E14.00402
G1 X103.55 Y124.053 E14.04658
G1 X102.611 Y123.531 E14.08231
G1 X101.998 Y123.203 E14.10543
G1 X101.195 Y122.682 E14.13727
G1 X100.943 Y122.484 E14.14793
G1 X100.639 Y122.266 E14.16037
G1 X99.662 Y121.46 E14.2025
G1 X98.847 Y120.674 E14.24016
G1 X98.014 Y119.696 E14.28288
G1 X97.559 Y118.764 E14.31738
G1 X97.404 Y118.628 E14.32424
G1 X96.576 Y117.671 E14.36633
G1 X95.685 Y115.801 E14.43522
G1 X95.554 Y115.425 E14.44847
G1 X95.402 Y115.031 E14.46251
G1 X95.021 Y113.74 E14.50728
G1 X94.943 Y113.271 E14.52309
G1 X94.776 Y112.488 E14.54972
G1 X94.598 Y111.118 E14.59567
G1 X94.771 Y109.692 E14.64345
G1 X94.647 Y108.275 E14.69076
G1 X95.037 Y106.237 E14.75977
G1 X95.265 Y105.465 E14.78655
G1 X95.63 Y104.368 E14.825
G1 X96.232 Y103.058 E14.87295
G1 X96.783 Y101.962 E14.91375
G1 X97.656 Y100.955 E14.95808
G1 X97.896 Y100.76 E14.96836
G1 X98.533 Y99.671 E15.01032
G1 X99.888 Y98.326 E15.07383
G1 X100.489 Y97.827 E15.09981
G1 X101.268 Y97.266 E15.13174
G1 X102.016 Y96.813 E15.16082
G1 X102.137 Y96.751 E15.16534
G1 X102.477 Y96.541 E15.17863
G1 X103.493 Y96.012 E15.21673
G1 X104.538 Y95.635 E15.25368
G1 X105.377 Y95.452 E15.28224
G1 X105.626 Y95.434 E15.29055
G1 X106.402 Y95.036 E15.31955
G1 X108.052 Y94.644 E15.37596
G1 X108.671 Y94.644 E15.39655
G1 X109.316 Y94.588 E15.41808
G1 X110.882 Y94.603 E15.47017
G1 X111.46 Y94.63 E15.48941
G1 X113.691 Y95.003 E15.56465
G1 X114.903 Y95.554 E15.60893
G1 X115.009 Y95.616 E15.61301
G1 X115.212 Y95.637 E15.6198
G1 X116.408 Y95.928 E15.66074
G1 X117.372 Y96.456 E15.6973
G1 X117.793 Y96.672 E15.71304
G1 X118.813 Y97.328 E15.75337
G1 X119.399 Y97.766 E15.77771
G1 X120.233 Y98.46 E15.81379
G1 X121.057 Y99.222 E15.85112
G1 X122.028 Y100.354 E15.90073
G1 X122.465 Y101.281 E15.93481
G1 X122.565 Y101.372 E15.93931
G1 X123.439 Y102.361 E15.98321
G1 X124.269 Y104.09 E16.047
G1 X124.396 Y104.446 E16.05957
G1 X124.537 Y104.793 E16.07203
G1 X125.03 Y106.515 E16.1316
G1 X125.073 Y106.806 E16.14138
G1 X125.224 Y107.513 E16.16543
G1 X125.402 Y108.88 E16.21128
G1 X125.254 Y110.145 E16.25364
G1 X125.218 Y110.3 E16.25893
G1 X125.349 Y111.652 E16.30411
G1 X125.128 Y112.982 E16.34895
G1 X124.969 Y113.734 E16.37452
G1 X124.727 Y114.55 E16.40283
G1 X124.656 Y114.761 E16.41023
G1 X124.527 Y115.299 E16.42863
G1 X123.719 Y117.039 E16.49244
G1 X123.093 Y118.185 E16.53587
G1 X122.254 Y119.087 E16.57685
G1 X122.114 Y119.205 E16.58294
G1 X121.468 Y120.333 E16.62617
G1 X120.169 Y121.613 E16.68683
G1 X119.525 Y122.152 E16.71476
G1 X118.677 Y122.763 E16.74952
G1 X117.777 Y123.309 E16.78453
G1 X117.21 Y123.627 E16.80615
G1 X115.877 Y124.282 E16.85555
G1 X114.643 Y124.546 E16.89753
G1 X114.417 Y124.564 E16.90507
G1 X113.432 Y125.033 E16.94135
G1 X111.865 Y125.359 E16.99459
G0 F9000 X111.824 Y124.959
G1 F1800 X111.286 Y124.956 E17.01248
G1 X110.526 Y125.016 E17.03784
G1 X108.194 Y124.971 E17.11541
G1 X107.667 Y124.824 E17.13361
G1 X107.032 Y124.732 E17.15495
G1 X106.08 Y124.497 E17.18757
G1 X105.152 Y123.995 E17.22266
G1 X104.888 Y123.972 E17.23147
G1 X103.699 Y123.678 E17.27221
G1 X102.805 Y123.181 E17.30623
G1 X102.215 Y122.867 E17.32846
G1 X101.442 Y122.367 E17.35908
G1 X101.19 Y122.169 E17.36974
G1 X100.894 Y121.957 E17.38185
G1 X99.917 Y121.151 E17.42397
G1 X99.152 Y120.415 E17.45928
G1 X98.351 Y119.474 E17.50038
G1 X97.882 Y118.514 E17.53592
G1 X97.707 Y118.366 E17.54354
G1 X96.914 Y117.449 E17.58386
G1 X96.063 Y115.669 E17.64949
G1 X95.932 Y115.293 E17.66273
G1 X95.786 Y114.918 E17.67611
G1 X95.405 Y113.627 E17.72088
G1 X95.338 Y113.208 E17.735
G1 X95.173 Y112.436 E17.76125
G1 X95.001 Y111.114 E17.80559
G1 X95.156 Y109.836 E17.84841
G1 X95.193 Y109.712 E17.85271
G1 X95.16 Y109.559 E17.85792
G1 X95.05 Y108.298 E17.90002
G1 X95.421 Y106.35 E17.96598
G1 X95.645 Y105.59 E17.99233
G1 X95.993 Y104.535 E18.02928
G1 X96.589 Y103.238 E18.07675
G1 X97.118 Y102.186 E18.11592
G1 X97.958 Y101.217 E18.15857
G1 X98.22 Y101.017 E18.16953
G1 X98.276 Y100.892 E18.17409
