;FLAVOR:Marlin
;TIME:1692
;Filament used: 1.88668m
;Layer height: 0.16
;MINX:38.056
;MINY:95.609
;MINZ:0.2
;MAXX:181.91
;MAXY:124.495
;MAXZ:11.52
;TARGET_MACHINE.NAME:Creality Ender-3 V3 SE
;Generated with Cura_SteamEngine 5.9.1
M82 ;absolute extrusion mode
M220 S100 ;Reset Feedrate
M221 S100 ;Reset Flowrate

G28 ;Home

M420 S1; Use saved mesh leveling data

G92 E0 ;Reset Extruder
G1 Z2.0 F3000 ;Move Z Axis up
G1 X-3 Y20 Z0.28 F5000.0 ;Move to start position
M190 S60 ; Set bed temperature and wait
M109 S200 ; Set hotend temperature and wait
G1 X-3 Y100.0 Z0.28 F1500.0 E15 ;Draw the first line
G1 X-2 Y100.0 Z0.28 F5000.0 ;Move to side a little
G1 X-2 Y20 Z0.28 F1500.0 E30 ;Draw the second line
G92 E0 ;Reset Extruder
G1 E-1.0000 F1800 ;Retract a bit
G1 Z2.0 F3000 ;Move Z Axis up
G1 E0.0000 F1800 

G92 E0
G92 E0
G1 F2400 E-0.8
;LAYER_COUNT:60
;LAYER:0
M107
G0 F9000 X47.562 Y124.495 Z0.2
;TYPE:SKIRT
G1 F2400 E0
G1 F1800 X44.479 Y123.715 E0.10577
G1 X43.26 Y123.219 E0.14954
G1 X40.322 Y120.837 E0.27534
G1 X39.134 Y118.879 E0.35152
G1 X38.913 Y118.432 E0.3681
G1 X38.371 Y117.115 E0.41547
G1 X38.056 Y115.328 E0.47582
G1 X38.378 Y112.605 E0.56702
G1 X38.757 Y110.292 E0.64498
G1 X39.095 Y109.135 E0.68507
G1 X42.121 Y104.172 E0.8784
G1 X43.534 Y102.715 E0.94591
G1 X50.755 Y97.892 E1.23472
G1 X52.134 Y97.316 E1.28443
G1 X60.726 Y95.61 E1.57578
G1 X159.3 Y95.609 E4.85436
G1 X167.964 Y97.389 E5.14855
G1 X169.126 Y97.822 E5.18979
G1 X176.519 Y102.767 E5.48562
G1 X177.874 Y104.154 E5.55011
G1 X180.668 Y108.788 E5.73009
G1 X181.266 Y110.127 E5.77886
G1 X181.651 Y112.836 E5.86987
G1 X181.91 Y114.983 E5.9418
G1 X181.728 Y116.888 E6.00544
G1 X181.168 Y118.243 E6.05421
G1 X180.586 Y119.379 E6.09666
G1 X179.662 Y120.853 E6.15452
G1 X177.272 Y122.769 E6.25641
G1 X175.701 Y123.737 E6.31778
G1 X172.422 Y124.495 E6.42972
G1 X47.562 Y124.495 E10.58258
G0 F9000 X47.613 Y124.095
G1 F1800 X44.63 Y123.344 E10.68489
G1 X43.465 Y122.87 E10.72672
G1 X40.628 Y120.57 E10.84819
G1 X39.493 Y118.702 E10.92089
G1 X39.272 Y118.255 E10.93748
G1 X38.758 Y117.004 E10.98246
G1 X38.46 Y115.315 E11.03951
G1 X38.773 Y112.67 E11.12809
G1 X39.152 Y110.357 E11.20605
G1 X39.464 Y109.298 E11.24277
G1 X42.441 Y104.416 E11.43295
G1 X43.789 Y103.026 E11.49735
G1 X50.947 Y98.245 E11.78365
G1 X52.252 Y97.7 E11.83069
G1 X60.764 Y96.01 E12.11933
G1 X159.259 Y96.009 E15.39528
G1 X167.824 Y97.764 E15.68607
G1 X168.946 Y98.182 E15.7259
G1 X176.262 Y103.075 E16.01863
G1 X177.553 Y104.397 E16.08009
G1 X180.325 Y108.995 E16.25866
G1 X180.878 Y110.24 E16.30397
G1 X181.254 Y112.884 E16.3928
G1 X181.508 Y114.988 E16.46329
G1 X181.336 Y116.79 E16.52349
G1 X180.812 Y118.061 E16.56922
G1 X180.247 Y119.167 E16.61053
G1 X179.36 Y120.582 E16.66607
G1 X177.062 Y122.428 E16.76411
G1 X175.546 Y123.362 E16.82333
G1 X172.375 Y124.095 E16.93158
G1 X47.613 Y124.095 E21.08118
G0 F9000 X47.662 Y123.695
G1 F1800 X44.781 Y122.973 E21.17997
G1 X43.67 Y122.521 E21.21986
G1 X40.934 Y120.303 E21.33701
G1 X39.852 Y118.525 E21.40623
G1 X39.631 Y118.078 E21.42282
G1 X39.145 Y116.893 E21.46542
G1 X38.864 Y115.302 E21.51916
G1 X39.168 Y112.734 E21.60516
G1 X39.536 Y110.47 E21.68145
G1 X39.833 Y109.462 E21.7164
G1 X42.761 Y104.66 E21.90347
G1 X44.044 Y103.337 E21.96476
G1 X51.139 Y98.598 E22.24854
G1 X52.37 Y98.084 E22.29291
G1 X60.802 Y96.41 E22.57884
G1 X159.218 Y96.409 E25.85217
G1 X167.684 Y98.139 E26.13956
G1 X168.766 Y98.542 E26.17797
G1 X176.002 Y103.382 E26.46751
G1 X177.233 Y104.642 E26.5261
G1 X179.982 Y109.202 E26.7032
G1 X180.49 Y110.353 E26.74504
G1 X180.857 Y112.932 E26.83168
G1 X181.106 Y114.993 E26.90073
G1 X180.944 Y116.692 E26.9575
G1 X180.455 Y117.88 E27.00022
G1 X179.908 Y118.955 E27.04034
G1 X179.058 Y120.311 E27.09357
G1 X176.852 Y122.087 E27.18777
G1 X175.391 Y122.987 E27.24484
G1 X172.328 Y123.695 E27.3494
G1 X47.662 Y123.695 E31.49581
G0 F9000 X47.711 Y123.295
G1 F1800 X44.932 Y122.602 E31.59107
G1 X43.875 Y122.172 E31.62902
G1 X41.24 Y120.036 E31.74184
G1 X40.211 Y118.348 E31.80759
G1 X39.99 Y117.901 E31.82418
G1 X39.532 Y116.782 E31.86439
G1 X39.268 Y115.289 E31.91482
G1 X39.563 Y112.798 E31.99825
G1 X39.92 Y110.583 E32.07287
G1 X40.202 Y109.626 E32.10606
G1 X43.081 Y104.904 E32.29
G1 X44.299 Y103.648 E32.34819
G1 X51.331 Y98.951 E32.62945
G1 X52.488 Y98.468 E32.67115
G1 X60.84 Y96.81 E32.95436
G1 X159.177 Y96.809 E36.22507
G1 X167.544 Y98.514 E36.50907
G1 X168.586 Y98.902 E36.54605
G1 X175.745 Y103.69 E36.83251
G1 X176.914 Y104.887 E36.88816
G1 X179.616 Y109.364 E37.06208
G1 X180.102 Y110.465 E37.10211
G1 X180.46 Y112.98 E37.1866
G1 X180.704 Y114.998 E37.25421
G1 X180.552 Y116.594 E37.30753
G1 X180.098 Y117.699 E37.34727
G1 X179.569 Y118.742 E37.38616
G1 X178.753 Y120.043 E37.43724
G1 X176.642 Y121.746 E37.52745
G1 X175.236 Y122.612 E37.58238
G1 X172.281 Y123.295 E37.68325
G1 X47.711 Y123.295 E41.82647
G0 F9000 X47.759 Y122.895
G1 F1800 X45.083 Y122.231 E41.91817
G1 X44.08 Y121.823 E41.95418
G1 X41.544 Y119.767 E42.06277
G1 X40.57 Y118.171 E42.12496
G1 X40.349 Y117.724 E42.14154
G1 X39.919 Y116.673 E42.17931
G1 X39.672 Y115.276 E42.22649
G1 X39.958 Y112.861 E42.30738
G1 X40.304 Y110.696 E42.3803
G1 X40.571 Y109.79 E42.41172
G1 X43.401 Y105.148 E42.59254
G1 X44.554 Y103.959 E42.64763
G1 X51.523 Y99.304 E42.92637
G1 X52.606 Y98.852 E42.9654
G1 X60.878 Y97.21 E43.2459
G1 X159.136 Y97.209 E46.51397
G1 X167.464 Y98.906 E46.79665
G1 X168.404 Y99.261 E46.83007
G1 X175.485 Y103.997 E47.11341
G1 X176.597 Y105.135 E47.16633
G1 X179.25 Y109.526 E47.33696
G1 X179.714 Y110.577 E47.37517
G1 X180.063 Y113.028 E47.45752
G1 X180.302 Y115.004 E47.52372
G1 X180.16 Y116.496 E47.57357
G1 X179.741 Y117.519 E47.61034
G1 X179.23 Y118.53 E47.64801
G1 X178.45 Y119.774 E47.69685
G1 X176.432 Y121.405 E47.78315
G1 X175.081 Y122.237 E47.83592
G1 X172.234 Y122.895 E47.93311
G1 X47.759 Y122.895 E52.07316
G0 F9000 X47.807 Y122.495
G1 F1800 X45.234 Y121.86 E52.16131
G1 X44.285 Y121.474 E52.19538
G1 X41.849 Y119.499 E52.29969
G1 X40.929 Y117.994 E52.35836
G1 X40.708 Y117.547 E52.37494
G1 X40.306 Y116.564 E52.41027
G1 X40.076 Y115.263 E52.45421
G1 X40.353 Y112.924 E52.53255
G1 X40.688 Y110.809 E52.60377
G1 X40.941 Y109.95 E52.63355
G1 X43.719 Y105.395 E52.81101
G1 X44.809 Y104.27 E52.86311
G1 X51.715 Y99.657 E53.13933
G1 X52.724 Y99.236 E53.17569
G1 X60.916 Y97.61 E53.45348
G1 X159.095 Y97.609 E56.71892
G1 X167.384 Y99.298 E57.00028
G1 X168.22 Y99.619 E57.03007
G1 X175.225 Y104.304 E57.31036
G1 X176.28 Y105.383 E57.36055
G1 X178.884 Y109.688 E57.52789
G1 X179.326 Y110.689 E57.56429
G1 X179.666 Y113.076 E57.64448
G1 X179.9 Y115.01 E57.70927
G1 X179.768 Y116.399 E57.75568
G1 X179.371 Y117.367 E57.79048
G1 X178.891 Y118.317 E57.82588
G1 X178.146 Y119.505 E57.87252
G1 X176.222 Y121.064 E57.95488
G1 X174.926 Y121.862 E58.0055
G1 X172.187 Y122.495 E58.09901
G1 X47.807 Y122.495 E62.2359
G0 F9000 X47.853 Y122.095
G1 F1800 X45.385 Y121.489 E62.32043
G1 X44.49 Y121.125 E62.35256
G1 X42.154 Y119.231 E62.45259
G1 X41.288 Y117.817 E62.50774
G1 X41.067 Y117.37 E62.52432
G1 X40.693 Y116.455 E62.5572
G1 X40.48 Y115.25 E62.5979
G1 X40.748 Y112.986 E62.67372
G1 X41.072 Y110.922 E62.74321
G1 X41.31 Y110.114 E62.77123
G1 X44.039 Y105.639 E62.94556
G1 X45.064 Y104.581 E62.99456
G1 X51.907 Y100.01 E63.26826
G1 X52.842 Y99.62 E63.30196
G1 X60.954 Y98.01 E63.57703
G1 X159.054 Y98.009 E66.83985
G1 X167.304 Y99.69 E67.11988
G1 X168.032 Y99.975 E67.14588
G1 X174.971 Y104.615 E67.42352
G1 X175.961 Y105.629 E67.47065
G1 X178.518 Y109.85 E67.63479
G1 X178.938 Y110.801 E67.66937
G1 X179.269 Y113.124 E67.74742
G1 X179.498 Y115.016 E67.8108
G1 X179.376 Y116.301 E67.85374
G1 X179.001 Y117.215 E67.88659
G1 X178.552 Y118.104 E67.91972
G1 X177.842 Y119.236 E67.96416
G1 X175.97 Y120.753 E68.0443
G1 X174.773 Y121.487 E68.091
G1 X172.14 Y122.095 E68.18088
G1 X47.853 Y122.095 E72.31469
G0 F9000 X47.903 Y121.695
G1 F1800 X45.536 Y121.118 E72.39572
G1 X44.695 Y120.776 E72.42591
G1 X42.459 Y118.963 E72.52166
G1 X41.647 Y117.64 E72.57329
G1 X41.426 Y117.193 E72.58987
G1 X41.08 Y116.346 E72.6203
G1 X40.884 Y115.237 E72.65776
G1 X41.143 Y113.047 E72.73111
G1 X41.456 Y111.035 E72.79883
G1 X41.679 Y110.278 E72.82508
G1 X44.359 Y105.883 E72.99629
G1 X45.319 Y104.892 E73.04218
G1 X52.099 Y100.363 E73.31337
G1 X52.96 Y100.004 E73.3444
G1 X60.992 Y98.41 E73.61675
G1 X159.013 Y98.409 E76.87694
G1 X167.158 Y100.063 E77.15338
G1 X167.851 Y100.334 E77.17813
G1 X174.711 Y104.922 E77.45262
G1 X175.644 Y105.877 E77.49702
G1 X178.152 Y110.012 E77.65787
G1 X178.55 Y110.913 E77.69064
G1 X178.872 Y113.172 E77.76653
G1 X179.096 Y115.022 E77.82851
G1 X178.984 Y116.203 E77.86797
G1 X178.631 Y117.063 E77.89889
G1 X178.213 Y117.891 E77.92974
G1 X177.538 Y118.967 E77.97198
G1 X175.718 Y120.442 E78.0499
G1 X174.622 Y121.111 E78.09261
G1 X172.093 Y121.695 E78.17894
G1 X47.903 Y121.695 E82.30951
G0 F9000 X47.952 Y121.295
G1 F1800 X45.687 Y120.747 E82.38702
G1 X44.9 Y120.427 E82.41528
G1 X42.765 Y118.696 E82.50669
G1 X42.006 Y117.463 E82.55485
G1 X41.785 Y117.016 E82.57144
G1 X41.467 Y116.237 E82.59942
G1 X41.288 Y115.224 E82.63364
G1 X41.538 Y113.108 E82.7045
G1 X41.84 Y111.148 E82.77046
G1 X42.049 Y110.438 E82.79508
G1 X44.677 Y106.129 E82.96295
G1 X45.574 Y105.203 E83.00583
G1 X52.29 Y100.716 E83.27447
G1 X53.078 Y100.388 E83.30286
G1 X61.03 Y98.81 E83.5725
G1 X158.973 Y98.809 E86.8301
G1 X167.012 Y100.436 E87.1029
G1 X167.67 Y100.693 E87.12639
G1 X174.454 Y105.23 E87.39784
G1 X175.324 Y106.121 E87.43926
G1 X177.786 Y110.174 E87.59698
G1 X178.162 Y111.025 E87.62793
G1 X178.475 Y113.22 E87.70167
G1 X178.694 Y115.028 E87.76225
G1 X178.592 Y116.105 E87.79823
G1 X178.261 Y116.911 E87.82721
G1 X177.874 Y117.678 E87.85578
G1 X177.234 Y118.698 E87.89583
G1 X175.466 Y120.131 E87.97153
G1 X174.47 Y120.735 E88.01027
G1 X172.046 Y121.295 E88.09301
G1 X47.952 Y121.295 E92.2204
G0 F9000 X48 Y120.895
G1 F1800 X45.838 Y120.376 E92.29435
G1 X45.105 Y120.078 E92.32067
G1 X43.069 Y118.427 E92.40785
G1 X42.365 Y117.286 E92.45244
G1 X42.144 Y116.839 E92.46903
G1 X41.854 Y116.128 E92.49457
G1 X41.692 Y115.211 E92.52554
G1 X41.933 Y113.168 E92.59396
G1 X42.224 Y111.261 E92.65812
G1 X42.418 Y110.602 E92.68097
G1 X44.997 Y106.373 E92.84572
G1 X45.829 Y105.514 E92.88549
G1 X52.483 Y101.068 E93.15166
G1 X53.194 Y100.773 E93.17727
G1 X61.068 Y99.21 E93.44427
G1 X158.934 Y99.209 E96.6993
G1 X166.867 Y100.809 E96.96847
G1 X167.487 Y101.051 E96.9906
G1 X174.194 Y105.537 E97.25898
G1 X175.006 Y106.368 E97.29762
G1 X177.42 Y110.336 E97.4521
G1 X177.774 Y111.137 E97.48123
G1 X178.078 Y113.268 E97.55283
G1 X178.292 Y115.034 E97.61199
G1 X178.2 Y116.007 E97.6445
G1 X177.891 Y116.759 E97.67154
G1 X177.535 Y117.465 E97.69784
G1 X176.93 Y118.429 E97.73569
G1 X175.214 Y119.82 E97.80916
G1 X174.318 Y120.359 E97.84394
G1 X171.999 Y120.895 E97.9231
G1 X48 Y120.895 E102.04733
G0 F9000 X48.047 Y120.495
G1 F1800 X45.989 Y120.005 E102.11769
G1 X45.31 Y119.729 E102.14207
G1 X43.372 Y118.158 E102.22504
G1 X42.724 Y117.109 E102.26605
G1 X42.503 Y116.662 E102.28264
G1 X42.241 Y116.019 E102.30573
G1 X42.096 Y115.198 E102.33346
G1 X42.329 Y113.228 E102.39944
G1 X42.608 Y111.374 E102.4618
G1 X42.787 Y110.766 E102.48288
G1 X45.317 Y106.617 E102.64451
G1 X46.084 Y105.825 E102.68118
G1 X52.672 Y101.423 E102.94471
G1 X53.314 Y101.157 E102.96782
G1 X61.106 Y99.61 E103.23205
G1 X158.895 Y99.609 E106.48452
G1 X166.722 Y101.182 E106.75005
G1 X167.304 Y101.409 E106.77083
G1 X173.937 Y105.845 E107.03623
G1 X174.686 Y106.612 E107.07189
G1 X177.078 Y110.544 E107.22497
G1 X177.385 Y111.246 E107.25045
G1 X177.681 Y113.316 E107.32
G1 X177.89 Y115.04 E107.37776
G1 X177.808 Y115.909 E107.40679
G1 X177.521 Y116.607 E107.43189
G1 X177.196 Y117.252 E107.45592
G1 X176.626 Y118.16 E107.49157
G1 X174.962 Y119.509 E107.56282
G1 X174.168 Y119.983 E107.59358
G1 X171.952 Y120.495 E107.66922
G1 X48.047 Y120.495 E111.79032
G0 F9000 X48.093 Y120.095
G1 F1800 X46.14 Y119.634 E111.85706
G1 X45.515 Y119.38 E111.8795
G1 X43.677 Y117.89 E111.9582
G1 X43.083 Y116.932 E111.99569
G1 X42.862 Y116.485 E112.01227
G1 X42.628 Y115.91 E112.03292
G1 X42.5 Y115.185 E112.05741
G1 X42.725 Y113.287 E112.12098
G1 X42.992 Y111.487 E112.1815
G1 X43.157 Y110.926 E112.20095
G1 X45.635 Y106.863 E112.35924
G1 X46.339 Y106.136 E112.3929
G1 X52.861 Y101.778 E112.65379
G1 X53.434 Y101.541 E112.67441
G1 X61.144 Y100.01 E112.93586
G1 X158.856 Y100.009 E116.18577
G1 X166.577 Y101.555 E116.44767
G1 X167.121 Y101.767 E116.46709
G1 X173.677 Y106.152 E116.72942
G1 X174.368 Y106.859 E116.7623
G1 X176.736 Y110.752 E116.91386
G1 X176.997 Y111.356 E116.93574
G1 X177.284 Y113.364 E117.0032
G1 X177.488 Y115.046 E117.05956
G1 X177.416 Y115.811 E117.08511
G1 X177.151 Y116.455 E117.10828
G1 X176.857 Y117.039 E117.13002
G1 X176.322 Y117.891 E117.16348
G1 X174.71 Y119.198 E117.23251
G1 X174.018 Y119.607 E117.25924
G1 X171.905 Y120.095 E117.33137
G1 X48.093 Y120.095 E121.44938
G0 F9000 X48.142 Y119.695
G1 F1800 X46.291 Y119.263 E121.5126
G1 X45.72 Y119.031 E121.53309
G1 X43.981 Y117.621 E121.60756
G1 X43.442 Y116.755 E121.64148
G1 X43.221 Y116.308 E121.65807
G1 X43.014 Y115.798 E121.67638
G1 X42.904 Y115.173 E121.69748
G1 X43.121 Y113.345 E121.75871
G1 X43.376 Y111.6 E121.81736
G1 X43.527 Y111.086 E121.83518
G1 X45.953 Y107.109 E121.99013
G1 X46.594 Y106.447 E122.02078
G1 X53.05 Y102.133 E122.27903
G1 X53.554 Y101.925 E122.29716
G1 X61.182 Y100.41 E122.55583
G1 X158.818 Y100.409 E125.80322
G1 X166.432 Y101.928 E126.06145
G1 X166.938 Y102.125 E126.07951
G1 X173.42 Y106.46 E126.33887
G1 X174.048 Y107.103 E126.36876
G1 X176.394 Y110.96 E126.51892
G1 X176.608 Y111.464 E126.53713
G1 X176.887 Y113.412 E126.60258
G1 X177.086 Y115.052 E126.65753
G1 X177.024 Y115.713 E126.67961
G1 X176.781 Y116.303 E126.70083
G1 X176.518 Y116.826 E126.7203
G1 X176.018 Y117.622 E126.75157
G1 X174.458 Y118.887 E126.81837
G1 X173.869 Y119.231 E126.84105
G1 X171.858 Y119.695 E126.9097
G1 X48.142 Y119.695 E131.02451
G0 F9000 X48.189 Y119.295
G1 F1800 X46.442 Y118.892 E131.08414
G1 X45.925 Y118.682 E131.1027
G1 X44.284 Y117.352 E131.17295
G1 X43.8 Y116.577 E131.20334
G1 X43.592 Y116.158 E131.2189
G1 X43.401 Y115.687 E131.23581
G1 X43.308 Y115.16 E131.25361
G1 X43.517 Y113.403 E131.31246
G1 X43.772 Y111.658 E131.37111
G1 X43.897 Y111.247 E131.3854
G1 X46.271 Y107.355 E131.53703
G1 X46.849 Y106.758 E131.56467
G1 X53.24 Y102.487 E131.82033
G1 X53.672 Y102.309 E131.83587
G1 X61.22 Y100.81 E132.09182
G1 X158.78 Y100.809 E135.33668
G1 X166.287 Y102.301 E135.59125
G1 X166.755 Y102.483 E135.60795
G1 X173.16 Y106.767 E135.86424
G1 X173.73 Y107.35 E135.89136
G1 X176.052 Y111.168 E136.03998
G1 X176.219 Y111.57 E136.05446
G1 X176.49 Y113.46 E136.11797
G1 X176.684 Y115.058 E136.17151
G1 X176.632 Y115.615 E136.19011
G1 X176.411 Y116.151 E136.2094
G1 X176.179 Y116.613 E136.22659
G1 X175.714 Y117.353 E136.25566
G1 X174.206 Y118.576 E136.32024
G1 X173.721 Y118.854 E136.33883
G1 X171.811 Y119.295 E136.40403
G1 X48.189 Y119.295 E140.51571
G0 F9000 X48.236 Y118.895
G1 F1800 X46.532 Y118.502 E140.57388
G1 X46.131 Y118.334 E140.58834
G1 X44.588 Y117.083 E140.65441
G1 X44.158 Y116.398 E140.68131
G1 X43.963 Y116.008 E140.69581
G1 X43.788 Y115.576 E140.71131
G1 X43.712 Y115.147 E140.7258
G1 X43.913 Y113.46 E140.78231
G1 X44.155 Y111.774 E140.83896
G1 X44.266 Y111.409 E140.85165
G1 X46.589 Y107.601 E141.00001
G1 X47.104 Y107.069 E141.02464
G1 X53.43 Y102.841 E141.27771
G1 X53.79 Y102.693 E141.29065
G1 X61.258 Y101.21 E141.54389
G1 X158.742 Y101.209 E144.78622
G1 X166.209 Y102.693 E145.03943
G1 X166.57 Y102.84 E145.0524
G1 X172.9 Y107.074 E145.30569
G1 X173.412 Y107.597 E145.33003
G1 X175.682 Y111.321 E145.47509
G1 X175.83 Y111.678 E145.48794
G1 X176.093 Y113.508 E145.54943
G1 X176.282 Y115.064 E145.60157
G1 X176.24 Y115.516 E145.61667
G1 X176.041 Y115.998 E145.63401
G1 X175.84 Y116.4 E145.64896
G1 X175.41 Y117.084 E145.67583
G1 X173.954 Y118.265 E145.73819
G1 X173.575 Y118.477 E145.75263
G1 X171.764 Y118.895 E145.81445
G1 X48.236 Y118.895 E149.923
G0 F9000 X48.283 Y118.495
G1 F1800 X171.717 Y118.495 E154.02844
G1 X173.429 Y118.1 E154.08687
