;FLAVOR:Marlin
;TIME:2693
;Filament used: 3.26147m
;Layer height: 0.16
;MINX:79.077
;MINY:65.997
;MINZ:0.2
;MAXX:140.967
;MAXY:154.015
;MAXZ:5.44
;TARGET_MACHINE.NAME:Creality Ender-3 V3 SE
;Generated with Cura_SteamEngine 5.9.1
M82 ;absolute extrusion mode
M220 S100 ;Reset Feedrate
M221 S100 ;Reset Flowrate

G28 ;Home

M420 S1; Use saved mesh leveling data

G92 E0 ;Reset Extruder
G1 Z2.0 F3000 ;Move Z Axis up
G1 X-3 Y20 Z0.28 F5000.0 ;Move to start position
M190 S60 ; Set bed temperature and wait
M109 S200 ; Set hotend temperature and wait
G1 X-3 Y100.0 Z0.28 F1500.0 E15 ;Draw the first line
G1 X-2 Y100.0 Z0.28 F5000.0 ;Move to side a little
G1 X-2 Y20 Z0.28 F1500.0 E30 ;Draw the second line
G92 E0 ;Reset Extruder
G1 E-1.0000 F1800 ;Retract a bit
G1 Z2.0 F3000 ;Move Z Axis up
G1 E0.0000 F1800 

G92 E0
G92 E0
G1 F2400 E-0.8
;LAYER_COUNT:30
;LAYER:0
M107
G0 F9000 X85.038 Y150.338 Z0.2
;TYPE:SKIRT
G1 F2400 E0
G1 F1800 X83.864 Y149.285 E0.05245
G1 X80.909 Y145.16 E0.22122
G1 X80.214 Y143.876 E0.26978
G1 X79.077 Y138.529 E0.4516
G1 X79.077 Y83.736 E2.27402
G1 X80.087 Y79.672 E2.4133
G1 X80.683 Y78.173 E2.46696
G1 X83.677 Y74.605 E2.62188
G1 X84.996 Y73.543 E2.6782
G1 X89.193 Y71.739 E2.83014
G1 X122.049 Y65.997 E3.9395
G1 X125.048 Y66.126 E4.03934
G1 X126.265 Y66.346 E4.08047
G1 X128.977 Y67.587 E4.17967
G1 X130.182 Y68.343 E4.22698
G1 X132.411 Y70.662 E4.33396
G1 X133.16 Y71.988 E4.38462
G1 X134.189 Y74.575 E4.47722
G1 X140.731 Y111.764 E5.73312
G1 X140.967 Y118.366 E5.95284
G1 X139.069 Y125.683 E6.20426
G1 X132.161 Y142.685 E6.81465
G1 X129.576 Y146.789 E6.97597
G1 X125.123 Y150.151 E7.16154
G1 X120.422 Y151.497 E7.32418
G1 X96.212 Y154.015 E8.13375
G1 X91.296 Y153.463 E8.29829
G1 X89.849 Y153.116 E8.34778
G1 X85.038 Y150.338 E8.53256
G0 F9000 X85.276 Y150.014
G1 F1800 X84.163 Y149.016 E8.58228
G1 X81.261 Y144.969 E8.74791
G1 X80.592 Y143.734 E8.79463
G1 X79.477 Y138.488 E8.97301
G1 X79.477 Y83.784 E10.79247
G1 X80.459 Y79.82 E10.9283
G1 X81.032 Y78.379 E10.97988
G1 X83.955 Y74.895 E11.13114
G1 X85.207 Y73.887 E11.1846
G1 X89.306 Y72.125 E11.33299
G1 X122.073 Y66.399 E12.43934
G1 X124.977 Y66.52 E12.53601
G1 X126.145 Y66.731 E12.57549
G1 X128.764 Y67.926 E12.67124
G1 X129.93 Y68.658 E12.71703
G1 X132.086 Y70.9 E12.82048
G1 X132.788 Y72.136 E12.86776
G1 X133.802 Y74.686 E12.95903
G1 X140.331 Y111.778 E14.21168
G1 X140.565 Y118.324 E14.42954
G1 X138.698 Y125.532 E14.67719
G1 X131.79 Y142.534 E15.28758
G1 X129.276 Y146.514 E15.44415
G1 X124.943 Y149.786 E15.62474
G1 X120.344 Y151.103 E15.78385
G1 X96.216 Y153.612 E16.59068
G1 X91.341 Y153.065 E16.75384
G1 X89.997 Y152.74 E16.79983
G1 X85.276 Y150.014 E16.98115
G0 F9000 X85.514 Y149.69
G1 F1800 X84.462 Y148.747 E17.02814
G1 X81.613 Y144.779 E17.19061
G1 X80.971 Y143.593 E17.23546
G1 X79.877 Y138.447 E17.41044
G1 X79.877 Y83.832 E19.22695
G1 X80.831 Y79.968 E19.35932
G1 X81.381 Y78.585 E19.40882
G1 X84.233 Y75.185 E19.55643
G1 X85.418 Y74.231 E19.60702
G1 X89.419 Y72.511 E19.75187
G1 X122.098 Y66.801 E20.85525
G1 X124.906 Y66.914 E20.94872
G1 X126.026 Y67.116 E20.98657
G1 X128.551 Y68.265 E21.07884
G1 X129.678 Y68.973 E21.12311
G1 X131.761 Y71.139 E21.22306
G1 X132.44 Y72.334 E21.26877
G1 X133.415 Y74.796 E21.35684
G1 X139.931 Y111.792 E22.60627
G1 X140.163 Y118.282 E22.82227
G1 X138.327 Y125.381 E23.06615
G1 X131.419 Y142.383 E23.67654
G1 X128.976 Y146.239 E23.82836
G1 X124.763 Y149.421 E24.00396
G1 X120.266 Y150.709 E24.15955
G1 X96.22 Y153.209 E24.96363
G1 X91.386 Y152.667 E25.12542
G1 X90.145 Y152.364 E25.16791
G1 X85.514 Y149.69 E25.34577
G0 F9000 X85.752 Y149.366
G1 F1800 X84.763 Y148.479 E25.38995
G1 X81.965 Y144.588 E25.54935
G1 X81.349 Y143.451 E25.59236
G1 X80.277 Y138.406 E25.76391
G1 X80.277 Y83.879 E27.57748
G1 X81.203 Y80.116 E27.70638
G1 X81.73 Y78.791 E27.7538
G1 X84.511 Y75.475 E27.89775
G1 X85.629 Y74.575 E27.94548
G1 X89.532 Y72.897 E28.08679
G1 X122.123 Y67.203 E29.18719
G1 X124.835 Y67.308 E29.27745
G1 X125.908 Y67.502 E29.31372
G1 X128.338 Y68.604 E29.40247
G1 X129.426 Y69.288 E29.44521
G1 X131.436 Y71.378 E29.54165
G1 X132.092 Y72.532 E29.5858
G1 X133.028 Y74.905 E29.67065
G1 X139.531 Y111.806 E30.91689
G1 X139.761 Y118.24 E31.13103
G1 X137.956 Y125.23 E31.37114
G1 X131.048 Y142.232 E31.98152
G1 X128.677 Y145.964 E32.12858
G1 X124.583 Y149.056 E32.29922
G1 X120.188 Y150.315 E32.45128
G1 X96.223 Y152.806 E33.25265
G1 X91.481 Y152.278 E33.41135
G1 X90.293 Y151.988 E33.45202
G1 X85.752 Y149.366 E33.62642
G0 F9000 X85.99 Y149.042
G1 F1800 X85.064 Y148.211 E33.66781
G1 X82.317 Y144.397 E33.82414
G1 X81.727 Y143.309 E33.8653
G1 X80.677 Y138.365 E34.03341
G1 X80.677 Y83.925 E35.84409
G1 X81.575 Y80.264 E35.96947
G1 X82.079 Y78.997 E36.01482
G1 X84.792 Y75.762 E36.15524
G1 X85.837 Y74.92 E36.19988
G1 X89.645 Y73.283 E36.33774
G1 X122.149 Y67.605 E37.4352
G1 X124.764 Y67.702 E37.52223
G1 X125.791 Y67.888 E37.55695
G1 X128.125 Y68.943 E37.64214
G1 X129.174 Y69.603 E37.68336
G1 X131.111 Y71.617 E37.7763
G1 X131.744 Y72.73 E37.81889
G1 X132.641 Y75.012 E37.90044
G1 X139.131 Y111.82 E39.14356
G1 X139.359 Y118.198 E39.35583
G1 X137.585 Y125.079 E39.59218
G1 X130.691 Y142.048 E40.20137
G1 X128.377 Y145.69 E40.34488
G1 X124.403 Y148.691 E40.51051
G1 X120.11 Y149.921 E40.65904
G1 X96.226 Y152.403 E41.45771
G1 X91.576 Y151.889 E41.61331
G1 X90.441 Y151.612 E41.65217
G1 X85.99 Y149.042 E41.82311
G0 F9000 X86.228 Y148.718
G1 F1800 X85.365 Y147.943 E41.86169
G1 X82.642 Y144.163 E42.01664
G1 X82.106 Y143.168 E42.05423
G1 X81.077 Y138.324 E42.21894
G1 X81.077 Y83.975 E44.02659
G1 X81.947 Y80.412 E44.14858
G1 X82.428 Y79.203 E44.19186
G1 X85.073 Y76.049 E44.32877
G1 X86.043 Y75.267 E44.37021
G1 X89.762 Y73.669 E44.50484
G1 X122.175 Y68.006 E45.59923
G1 X124.693 Y68.096 E45.68303
G1 X125.67 Y68.273 E45.71605
G1 X127.96 Y69.308 E45.79964
G1 X128.921 Y69.917 E45.83748
G1 X130.786 Y71.856 E45.92696
G1 X131.396 Y72.928 E45.96798
G1 X132.254 Y75.119 E46.04624
G1 X138.731 Y111.834 E47.28625
G1 X138.957 Y118.156 E47.49665
G1 X137.214 Y124.928 E47.72923
G1 X130.334 Y141.864 E48.33723
G1 X128.077 Y145.416 E48.4772
G1 X124.223 Y148.326 E48.63782
G1 X120.032 Y149.527 E48.78283
G1 X96.229 Y152 E49.57878
G1 X91.671 Y151.5 E49.73129
G1 X90.589 Y151.236 E49.76833
G1 X86.228 Y148.718 E49.93582
G0 F9000 X86.466 Y148.394
G1 F1800 X85.663 Y147.673 E49.97171
G1 X82.994 Y143.973 E50.12345
G1 X82.485 Y143.028 E50.15915
G1 X81.477 Y138.283 E50.32049
G1 X81.477 Y84.025 E52.12512
G1 X82.336 Y80.507 E52.24557
G1 X82.776 Y79.41 E52.28488
G1 X85.354 Y76.336 E52.41832
G1 X86.249 Y75.615 E52.45654
G1 X89.879 Y74.055 E52.58795
G1 X122.201 Y68.407 E53.67928
G1 X124.622 Y68.49 E53.75985
G1 X125.549 Y68.658 E53.79118
G1 X127.795 Y69.673 E53.87316
G1 X128.667 Y70.229 E53.90756
G1 X130.461 Y72.095 E53.99365
G1 X131.048 Y73.126 E54.03311
G1 X131.867 Y75.228 E54.10814
G1 X138.331 Y111.848 E55.34496
G1 X138.555 Y118.114 E55.5535
G1 X136.843 Y124.777 E55.78231
G1 X129.977 Y141.68 E56.38912
G1 X127.777 Y145.142 E56.52554
G1 X124.043 Y147.961 E56.68116
G1 X119.954 Y149.133 E56.82263
G1 X96.231 Y151.598 E57.61591
G1 X91.766 Y151.111 E57.7653
G1 X90.737 Y150.86 E57.80053
G1 X86.466 Y148.394 E57.96456
G0 F9000 X86.704 Y148.07
G1 F1800 X85.961 Y147.403 E57.99777
G1 X83.346 Y143.783 E58.1463
G1 X82.864 Y142.888 E58.18011
G1 X81.877 Y138.242 E58.33808
G1 X81.877 Y84.075 E60.13969
G1 X82.725 Y80.602 E60.25859
G1 X83.124 Y79.616 E60.29397
G1 X85.632 Y76.626 E60.42377
G1 X86.46 Y75.959 E60.45913
G1 X89.992 Y74.441 E60.587
G1 X122.228 Y68.808 E61.67542
G1 X124.551 Y68.884 E61.75272
G1 X125.428 Y69.043 E61.78237
G1 X127.63 Y70.038 E61.86274
G1 X128.411 Y70.54 E61.89362
G1 X130.137 Y72.335 E61.97644
G1 X130.675 Y73.271 E62.01235
G1 X131.48 Y75.337 E62.0861
G1 X137.931 Y111.862 E63.31972
G1 X138.153 Y118.073 E63.52643
G1 X136.472 Y124.626 E63.75145
G1 X129.62 Y141.496 E64.35706
G1 X127.477 Y144.868 E64.48995
G1 X123.863 Y147.596 E64.64055
G1 X119.876 Y148.739 E64.7785
G1 X96.233 Y151.196 E65.5691
G1 X91.861 Y150.722 E65.71537
G1 X90.885 Y150.484 E65.74878
G1 X86.704 Y148.07 E65.90936
G0 F9000 X86.942 Y147.746
G1 F1800 X86.261 Y147.134 E65.93981
G1 X83.698 Y143.593 E66.0852
G1 X83.243 Y142.748 E66.11712
G1 X82.277 Y138.201 E66.27173
G1 X82.277 Y84.125 E68.0703
G1 X83.114 Y80.697 E68.18767
G1 X83.472 Y79.823 E68.21908
G1 X85.91 Y76.916 E68.34527
G1 X86.671 Y76.303 E68.37777
G1 X90.105 Y74.827 E68.50209
G1 X122.255 Y69.209 E69.58761
G1 X124.48 Y69.278 E69.66164
G1 X125.309 Y69.428 E69.68966
G1 X127.414 Y70.375 E69.76644
G1 X128.158 Y70.853 E69.79585
G1 X129.813 Y72.575 E69.87529
G1 X130.302 Y73.416 E69.90764
G1 X131.093 Y75.446 E69.98011
G1 X137.531 Y111.876 E71.21055
G1 X137.751 Y118.029 E71.41533
G1 X136.101 Y124.475 E71.63663
G1 X129.263 Y141.312 E72.24106
G1 X127.177 Y144.594 E72.3704
G1 X123.681 Y147.232 E72.51607
G1 X119.835 Y148.341 E72.6492
G1 X96.235 Y150.794 E73.43837
G1 X91.956 Y150.333 E73.58151
G1 X91.033 Y150.108 E73.61311
G1 X86.942 Y147.746 E73.77022
G0 F9000 X87.177 Y147.42
G1 F1800 X86.563 Y146.868 E73.79769
G1 X84.05 Y143.403 E73.94005
G1 X83.622 Y142.608 E73.97008
G1 X82.677 Y138.16 E74.12132
G1 X82.677 Y84.174 E75.91691
G1 X83.484 Y80.849 E76.03071
G1 X83.819 Y80.031 E76.06011
G1 X86.188 Y77.206 E76.18273
G1 X86.882 Y76.647 E76.21237
G1 X90.218 Y75.213 E76.33314
G1 X122.283 Y69.61 E77.41579
G1 X124.409 Y69.672 E77.48653
G1 X125.19 Y69.813 E77.51293
G1 X127.25 Y70.74 E77.58806
G1 X127.903 Y71.164 E77.61396
G1 X129.49 Y72.815 E77.69012
G1 X129.929 Y73.561 E77.71891
G1 X130.706 Y75.555 E77.79009
G1 X137.131 Y111.89 E79.01735
G1 X137.349 Y117.985 E79.2202
G1 X135.73 Y124.324 E79.4378
G1 X128.906 Y141.128 E80.04103
G1 X126.877 Y144.32 E80.16683
G1 X123.499 Y146.868 E80.30756
G1 X119.794 Y147.943 E80.43587
G1 X96.237 Y150.392 E81.2236
G1 X92.051 Y149.944 E81.36362
G1 X91.181 Y149.732 E81.39341
G1 X87.177 Y147.42 E81.54719
G0 F9000 X87.415 Y147.096
G1 F1800 X86.862 Y146.599 E81.57192
G1 X84.402 Y143.213 E81.71112
G1 X84.001 Y142.468 E81.73926
G1 X83.077 Y138.119 E81.88714
G1 X83.077 Y84.223 E83.67973
G1 X83.854 Y81.001 E83.78996
G1 X84.166 Y80.239 E83.81735
G1 X86.469 Y77.493 E83.93655
G1 X87.088 Y76.994 E83.96299
G1 X90.335 Y75.599 E84.08054
G1 X122.311 Y70.011 E85.16018
G1 X124.338 Y70.066 E85.22762
G1 X125.071 Y70.198 E85.25239
G1 X127.086 Y71.105 E85.32589
G1 X127.648 Y71.475 E85.34827
G1 X129.167 Y73.056 E85.42119
G1 X129.584 Y73.764 E85.44852
G1 X130.319 Y75.662 E85.51622
G1 X136.731 Y111.904 E86.74035
G1 X136.947 Y117.941 E86.94127
G1 X135.359 Y124.174 E87.1552
G1 X128.55 Y140.942 E87.75714
G1 X126.577 Y144.046 E87.87947
G1 X123.317 Y146.504 E88.01526
G1 X119.718 Y147.549 E88.13991
G1 X96.239 Y149.99 E88.92503
G1 X92.094 Y149.546 E89.06368
G1 X91.331 Y149.357 E89.08983
G1 X87.415 Y147.096 E89.24023
G0 F9000 X87.653 Y146.772
G1 F1800 X87.161 Y146.33 E89.26222
G1 X84.726 Y142.978 E89.40002
G1 X84.38 Y142.328 E89.42451
G1 X83.477 Y138.078 E89.56903
G1 X83.477 Y84.27 E91.35869
G1 X84.224 Y81.152 E91.46533
G1 X84.512 Y80.448 E91.49063
G1 X86.75 Y77.78 E91.60645
G1 X87.294 Y77.341 E91.6297
G1 X90.452 Y75.985 E91.74401
G1 X122.34 Y70.412 E92.82068
G1 X124.267 Y70.46 E92.8848
G1 X124.952 Y70.583 E92.90794
G1 X126.922 Y71.47 E92.9798
G1 X127.39 Y71.783 E92.99853
G1 X128.845 Y73.298 E93.06839
G1 X129.211 Y73.909 E93.09208
G1 X129.932 Y75.77 E93.15846
G1 X136.331 Y111.918 E94.37944
G1 X136.545 Y117.897 E94.57843
G1 X134.988 Y124.024 E94.78869
G1 X128.194 Y140.756 E95.38933
G1 X126.277 Y143.772 E95.50819
G1 X123.135 Y146.14 E95.63905
G1 X119.641 Y147.155 E95.76006
G1 X96.241 Y149.588 E96.54255
G1 X92.137 Y149.148 E96.67983
G1 X91.48 Y148.982 E96.70237
G1 X87.653 Y146.772 E96.84935
G0 F9000 X87.891 Y146.448
G1 F1800 X87.46 Y146.061 E96.86862
G1 X85.05 Y142.743 E97.00501
G1 X84.759 Y142.189 E97.02583
G1 X83.877 Y138.037 E97.167
G1 X83.877 Y84.317 E98.95374
G1 X84.594 Y81.303 E99.05678
G1 X84.858 Y80.657 E99.07999
G1 X87.031 Y78.067 E99.19244
G1 X87.5 Y77.689 E99.21248
G1 X90.569 Y76.371 E99.32357
G1 X122.369 Y70.813 E100.39727
G1 X124.196 Y70.854 E100.45805
G1 X124.835 Y70.969 E100.47965
G1 X126.7 Y71.803 E100.5476
G1 X127.131 Y72.091 E100.56484
G1 X128.526 Y73.544 E100.63183
G1 X128.838 Y74.053 E100.65169
G1 X129.544 Y75.876 E100.71671
G1 X135.931 Y111.932 E101.93461
G1 X136.143 Y117.854 E102.1317
G1 X134.617 Y123.874 E102.33826
G1 X127.838 Y140.57 E102.9376
G1 X125.977 Y143.498 E103.05299
G1 X122.953 Y145.776 E103.17891
G1 X119.564 Y146.761 E103.2963
G1 X96.242 Y149.186 E104.07617
G1 X92.235 Y148.76 E104.2102
G1 X91.63 Y148.607 E104.23095
G1 X87.891 Y146.448 E104.37455
G0 F9000 X88.129 Y146.124
G1 F1800 X87.759 Y145.792 E104.39109
G1 X85.374 Y142.508 E104.52608
G1 X85.138 Y142.051 E104.54319
G1 X84.277 Y137.996 E104.68106
G1 X84.277 Y84.364 E106.46487
G1 X84.983 Y81.396 E106.56634
G1 X85.204 Y80.868 E106.58538
G1 X87.312 Y78.354 E106.6945
G1 X87.708 Y78.035 E106.71141
G1 X90.686 Y76.757 E106.8192
G1 X122.399 Y71.214 E107.88997
G1 X124.187 Y71.254 E107.94945
G1 X124.715 Y71.354 E107.96733
G1 X126.478 Y72.136 E108.03147
G1 X126.872 Y72.399 E108.04723
G1 X128.21 Y73.793 E108.11149
G1 X128.465 Y74.198 E108.12741
G1 X129.157 Y75.984 E108.19112
G1 X135.531 Y111.946 E109.40586
G1 X135.741 Y117.811 E109.60106
G1 X134.246 Y123.724 E109.80391
G1 X127.482 Y140.384 E110.40195
G1 X125.678 Y143.222 E110.5138
G1 X122.769 Y145.413 E110.63493
G1 X119.487 Y146.367 E110.74861
G1 X96.243 Y148.784 E111.52587
G1 X92.277 Y148.362 E111.65853
G1 X91.781 Y148.233 E111.67558
G1 X88.129 Y146.124 E111.81584
G0 F9000 X88.367 Y145.8
G1 F1800 X88.058 Y145.523 E111.82964
G1 X85.698 Y142.273 E111.96323
G1 X85.518 Y141.915 E111.97656
G1 X84.677 Y137.955 E112.11121
G1 X84.677 Y84.411 E113.89209
G1 X85.372 Y81.489 E113.99198
G1 X85.548 Y81.081 E114.00676
G1 X87.593 Y78.641 E114.11265
G1 X87.916 Y78.381 E114.12644
G1 X90.803 Y77.143 E114.23092
G1 X122.429 Y71.615 E115.29875
G1 X124.178 Y71.654 E115.35694
G1 X124.596 Y71.739 E115.37113
G1 X126.256 Y72.469 E115.43144
G1 X126.613 Y72.707 E115.44571
G1 X127.896 Y74.044 E115.50734
G1 X128.106 Y74.377 E115.52044
G1 X128.769 Y76.09 E115.58153
G1 X135.131 Y111.96 E116.79319
G1 X135.339 Y117.768 E116.98649
G1 X133.875 Y123.574 E117.18564
G1 X127.126 Y140.198 E117.78239
G1 X125.379 Y142.946 E117.89069
G1 X122.585 Y145.05 E118.00703
G1 X119.41 Y145.973 E118.117
G1 X96.244 Y148.382 E118.89166
G1 X92.319 Y147.964 E119.02294
G1 X91.933 Y147.859 E119.03625
G1 X88.367 Y145.8 E119.1732
G0 F9000 X88.605 Y145.476
G1 F1800 X88.357 Y145.254 E119.18427
G1 X86.022 Y142.038 E119.31646
G1 X85.898 Y141.781 E119.32595
G1 X85.077 Y137.914 E119.45743
G1 X85.077 Y84.458 E121.23539
G1 X85.761 Y81.582 E121.33371
G1 X85.891 Y81.295 E121.34419
G1 X87.874 Y78.929 E121.44687
G1 X88.124 Y78.728 E121.45754
G1 X90.92 Y77.529 E121.55872
G1 X122.459 Y72.016 E122.62362
G1 X124.169 Y72.054 E122.68051
G1 X124.473 Y72.122 E122.69087
G1 X126.095 Y72.835 E122.7498
G1 X126.351 Y73.013 E122.76017
G1 X127.58 Y74.293 E122.81919
G1 X127.748 Y74.559 E122.82965
G1 X128.381 Y76.196 E122.88803
G1 X134.731 Y111.974 E124.09661
G1 X134.937 Y117.726 E124.28804
G1 X133.504 Y123.424 E124.48346
G1 X126.77 Y140.012 E125.07891
G1 X125.08 Y142.67 E125.18367
G1 X122.401 Y144.687 E125.2952
G1 X119.333 Y145.579 E125.40147
G1 X96.245 Y147.98 E126.17352
G1 X92.361 Y147.566 E126.30344
G1 X92.088 Y147.487 E126.31289
G1 X88.605 Y145.476 E126.44666
G0 F9000 X89.005 Y144.784
G1 F1800 X86.67 Y141.568 E126.57884
G1 X85.877 Y137.832 E126.70587
G1 X85.877 Y84.552 E128.47797
G1 X86.539 Y81.768 E128.57315
G1 X88.488 Y79.443 E128.67406
G1 X91.154 Y78.301 E128.77052
G1 X122.519 Y72.818 E129.82954
G1 X124.151 Y72.854 E129.88384
G1 X125.773 Y73.567 E129.94277
G1 X127.002 Y74.847 E130.00179
G1 X127.605 Y76.408 E130.05745
G1 X133.931 Y112.002 E131.25986
G1 X134.133 Y117.644 E131.44763
G1 X132.762 Y123.124 E131.63552
G1 X126.058 Y139.64 E132.22837
G1 X124.482 Y142.118 E132.32604
G1 X122.033 Y143.961 E132.42799
G1 X119.179 Y144.791 E132.52684
G1 X96.247 Y147.176 E133.29368
G1 X92.445 Y146.77 E133.42085
G1 X89.005 Y144.784 E133.55297
G1 F2400 E132.75297
