;FLAVOR:Marlin
;TIME:2706
;Filament used: 3.26354m
;Layer height: 0.16
;MINX:79.023
;MINY:66.001
;MINZ:0.2
;MAXX:140.925
;MAXY:154.01
;MAXZ:5.44
;TARGET_MACHINE.NAME:Creality Ender-3 V3 SE
;Generated with Cura_SteamEngine 5.9.1
M82 ;absolute extrusion mode
M220 S100 ;Reset Feedrate
M221 S100 ;Reset Flowrate

G28 ;Home

M420 S1; Use saved mesh leveling data

G92 E0 ;Reset Extruder
G1 Z2.0 F3000 ;Move Z Axis up
G1 X-3 Y20 Z0.28 F5000.0 ;Move to start position
M190 S60 ; Set bed temperature and wait
M109 S200 ; Set hotend temperature and wait
G1 X-3 Y100.0 Z0.28 F1500.0 E15 ;Draw the first line
G1 X-2 Y100.0 Z0.28 F5000.0 ;Move to side a little
G1 X-2 Y20 Z0.28 F1500.0 E30 ;Draw the second line
G92 E0 ;Reset Extruder
G1 E-1.0000 F1800 ;Retract a bit
G1 Z2.0 F3000 ;Move Z Axis up
G1 E0.0000 F1800 

G92 E0
G92 E0
G1 F2400 E-0.8
;LAYER_COUNT:30
;LAYER:0
M107
G0 F9000 X94.856 Y150.143 Z0.2
;TYPE:SKIRT
G1 F2400 E0
G1 F1800 X90.437 Y146.817 E0.18396
G1 X87.876 Y142.791 E0.34266
G1 X80.689 Y124.946 E0.98251
G1 X79.023 Y118.335 E1.20927
G1 X79.371 Y110.784 E1.46068
G1 X85.806 Y74.57 E2.68403
G1 X86.815 Y72.022 E2.77518
G1 X87.628 Y70.612 E2.82932
G1 X89.703 Y68.502 E2.92775
G1 X90.848 Y67.609 E2.97604
G1 X93.779 Y66.389 E3.08163
G1 X94.983 Y66.069 E3.12307
G1 X97.988 Y66.001 E3.22304
G1 X130.85 Y71.752 E4.33265
G1 X134.752 Y73.429 E4.47391
G1 X136.137 Y74.388 E4.52994
G1 X139.049 Y77.86 E4.68066
G1 X139.864 Y79.316 E4.73615
G1 X140.925 Y83.848 E4.89096
G1 X140.92 Y138.529 E6.70966
G1 X139.84 Y143.593 E6.88188
G1 X139.195 Y145.062 E6.93524
G1 X136.219 Y149.117 E7.10253
G1 X135.178 Y150.212 E7.15279
G1 X130.393 Y152.983 E7.3367
G1 X128.892 Y153.477 E7.38925
G1 X123.699 Y154.01 E7.56288
G1 X99.286 Y151.408 E8.37946
G1 X94.856 Y150.143 E8.53269
G0 F9000 X95.04 Y149.78
G1 F1800 X90.734 Y146.539 E8.71194
G1 X88.233 Y142.608 E8.86691
G1 X81.077 Y124.848 E9.50376
G1 X79.426 Y118.295 E9.72852
G1 X79.765 Y110.854 E9.97627
G1 X86.193 Y74.679 E11.1983
G1 X87.162 Y72.222 E11.28614
G1 X87.951 Y70.853 E11.3387
G1 X89.949 Y68.818 E11.43355
G1 X91.054 Y67.957 E11.48014
G1 X93.882 Y66.776 E11.58208
G1 X95.041 Y66.468 E11.62196
G1 X97.958 Y66.402 E11.71901
G1 X130.737 Y72.138 E12.82581
G1 X134.554 Y73.779 E12.964
G1 X135.867 Y74.688 E13.01711
G1 X138.718 Y78.087 E13.16467
G1 X139.488 Y79.463 E13.21711
G1 X140.525 Y83.892 E13.3684
G1 X140.52 Y138.488 E15.18427
G1 X139.458 Y143.469 E15.35367
G1 X138.847 Y144.86 E15.4042
G1 X135.929 Y148.841 E15.56837
G1 X134.926 Y149.896 E15.61678
G1 X130.23 Y152.615 E15.79726
G1 X128.808 Y153.083 E15.84706
G1 X123.7 Y153.608 E16.01784
G1 X99.328 Y151.01 E16.83305
G1 X95.04 Y149.78 E16.98142
G0 F9000 X95.222 Y149.416
G1 F1800 X91.031 Y146.261 E17.1559
G1 X88.591 Y142.426 E17.30708
G1 X81.465 Y124.75 E17.94096
G1 X79.829 Y118.255 E18.16374
G1 X80.159 Y110.924 E18.40781
G1 X86.58 Y74.786 E19.62859
G1 X87.509 Y72.422 E19.71307
G1 X88.273 Y71.096 E19.76397
G1 X90.195 Y69.134 E19.85532
G1 X91.259 Y68.305 E19.90019
G1 X93.985 Y67.163 E19.99849
G1 X95.099 Y66.867 E20.03683
G1 X97.928 Y66.803 E20.13094
G1 X130.62 Y72.524 E21.23481
G1 X134.36 Y74.131 E21.3702
G1 X135.597 Y74.988 E21.42025
G1 X138.387 Y78.314 E21.56464
G1 X139.112 Y79.61 E21.61403
G1 X140.125 Y83.936 E21.76181
G1 X140.12 Y138.447 E23.57485
G1 X139.076 Y143.345 E23.74142
G1 X138.499 Y144.658 E23.78912
G1 X135.639 Y148.565 E23.95016
G1 X134.674 Y149.58 E23.99674
G1 X130.067 Y152.247 E24.1738
G1 X128.724 Y152.689 E24.22082
G1 X123.701 Y153.206 E24.38877
G1 X99.438 Y150.625 E25.20031
G1 X95.222 Y149.416 E25.34619
G0 F9000 X95.404 Y149.052
G1 F1800 X91.33 Y145.985 E25.5158
G1 X88.948 Y142.24 E25.66342
G1 X81.853 Y124.652 E26.2942
G1 X80.232 Y118.215 E26.51498
G1 X80.553 Y110.994 E26.75539
G1 X86.967 Y74.897 E27.97478
G1 X87.856 Y72.622 E28.05602
G1 X88.595 Y71.339 E28.10527
G1 X90.441 Y69.45 E28.19312
G1 X91.464 Y68.653 E28.23625
G1 X94.088 Y67.55 E28.33092
G1 X95.157 Y67.266 E28.36771
G1 X97.898 Y67.204 E28.4589
G1 X130.503 Y72.91 E29.55983
G1 X134.166 Y74.484 E29.69243
G1 X135.327 Y75.288 E29.7394
G1 X138.056 Y78.541 E29.88063
G1 X138.736 Y79.757 E29.92696
G1 X139.725 Y83.98 E30.07122
G1 X139.72 Y138.406 E31.88144
G1 X138.694 Y143.221 E32.04518
G1 X138.151 Y144.456 E32.09005
G1 X135.349 Y148.289 E32.24797
G1 X134.422 Y149.264 E32.29272
G1 X129.904 Y151.879 E32.46634
G1 X128.64 Y152.295 E32.5106
G1 X123.702 Y152.804 E32.67571
G1 X99.548 Y150.24 E33.48359
G1 X95.404 Y149.052 E33.62697
G0 F9000 X95.586 Y148.688
G1 F1800 X91.629 Y145.709 E33.79171
G1 X89.305 Y142.054 E33.93577
G1 X82.241 Y124.554 E34.56345
G1 X80.635 Y118.175 E34.78224
G1 X80.947 Y111.064 E35.01898
G1 X87.354 Y75.008 E36.23699
G1 X88.229 Y72.768 E36.31698
G1 X88.918 Y71.58 E36.36265
G1 X90.687 Y69.765 E36.44695
G1 X91.666 Y69.002 E36.48823
G1 X94.191 Y67.937 E36.57938
G1 X95.215 Y67.665 E36.61462
G1 X97.868 Y67.605 E36.70288
G1 X130.39 Y73.296 E37.801
G1 X133.968 Y74.834 E37.93054
G1 X135.057 Y75.588 E37.97459
G1 X137.725 Y78.768 E38.11265
G1 X138.36 Y79.904 E38.15594
G1 X139.325 Y84.024 E38.29668
G1 X139.32 Y138.365 E40.10407
G1 X138.312 Y143.097 E40.26499
G1 X137.803 Y144.254 E40.30703
G1 X135.059 Y148.013 E40.46182
G1 X134.17 Y148.948 E40.50473
G1 X129.741 Y151.511 E40.67493
G1 X128.556 Y151.901 E40.71642
G1 X123.703 Y152.402 E40.87869
G1 X99.658 Y149.855 E41.68291
G1 X95.586 Y148.688 E41.82379
G0 F9000 X95.768 Y148.324
G1 F1800 X91.928 Y145.433 E41.98366
G1 X89.662 Y141.868 E42.12416
G1 X82.629 Y124.456 E42.74874
G1 X81.038 Y118.135 E42.96554
G1 X81.341 Y111.134 E43.19861
G1 X87.741 Y75.117 E44.4153
G1 X88.575 Y72.969 E44.49194
G1 X89.239 Y71.824 E44.53597
G1 X90.933 Y70.081 E44.61681
G1 X91.873 Y69.349 E44.65643
G1 X94.294 Y68.324 E44.74388
G1 X95.273 Y68.064 E44.77757
G1 X97.838 Y68.006 E44.8629
G1 X130.273 Y73.682 E45.95809
G1 X133.774 Y75.186 E46.08482
G1 X134.787 Y75.888 E46.12581
G1 X137.394 Y78.995 E46.26071
G1 X137.984 Y80.051 E46.30094
G1 X138.925 Y84.068 E46.43817
G1 X138.92 Y138.324 E48.24273
G1 X137.93 Y142.973 E48.40082
G1 X137.455 Y144.053 E48.44006
G1 X134.769 Y147.737 E48.5917
G1 X133.918 Y148.632 E48.63278
G1 X129.578 Y151.143 E48.79955
G1 X128.472 Y151.507 E48.83827
G1 X123.704 Y152 E48.9977
G1 X99.768 Y149.47 E49.79825
G1 X95.768 Y148.324 E49.93665
G0 F9000 X95.95 Y147.96
G1 F1800 X92.227 Y145.157 E50.09165
G1 X90.019 Y141.682 E50.22858
G1 X83.017 Y124.358 E50.85007
G1 X81.44 Y118.095 E51.06488
G1 X81.735 Y111.204 E51.29428
G1 X88.128 Y75.226 E52.50966
G1 X88.948 Y73.114 E52.58501
G1 X89.561 Y72.066 E52.6254
G1 X91.179 Y70.397 E52.70271
G1 X92.08 Y69.695 E52.7407
G1 X94.397 Y68.711 E52.82442
G1 X95.331 Y68.463 E52.85657
G1 X97.808 Y68.407 E52.93897
G1 X130.156 Y74.068 E54.03122
G1 X133.58 Y75.539 E54.15517
G1 X134.517 Y76.188 E54.19308
G1 X137.063 Y79.222 E54.32481
G1 X137.608 Y80.198 E54.36199
G1 X138.525 Y84.112 E54.4957
G1 X138.52 Y138.283 E56.29743
G1 X137.548 Y142.849 E56.4527
G1 X137.107 Y143.852 E56.48915
G1 X134.446 Y147.501 E56.63935
G1 X133.668 Y148.315 E56.67681
G1 X129.415 Y150.775 E56.84022
G1 X128.388 Y151.113 E56.87618
G1 X123.705 Y151.598 E57.03277
G1 X99.878 Y149.085 E57.82966
G1 X95.95 Y147.96 E57.96555
G0 F9000 X96.132 Y147.596
G1 F1800 X92.526 Y144.881 E58.11568
G1 X90.375 Y141.496 E58.24908
G1 X83.405 Y124.26 E58.86745
G1 X81.842 Y118.054 E59.08031
G1 X82.129 Y111.274 E59.30601
G1 X88.515 Y75.335 E60.52007
G1 X89.321 Y73.259 E60.59414
G1 X89.88 Y72.312 E60.63072
G1 X91.425 Y70.713 E60.70467
G1 X92.286 Y70.042 E60.74098
G1 X94.5 Y69.098 E60.82103
G1 X95.389 Y68.862 E60.85162
G1 X97.778 Y68.808 E60.9311
G1 X130.043 Y74.454 E62.02054
G1 X133.382 Y75.889 E62.14142
G1 X134.247 Y76.488 E62.17642
G1 X136.732 Y79.449 E62.30499
G1 X137.232 Y80.345 E62.33911
G1 X138.125 Y84.156 E62.4693
G1 X138.12 Y138.242 E64.26821
G1 X137.166 Y142.725 E64.42065
G1 X136.759 Y143.651 E64.45429
G1 X134.123 Y147.265 E64.60307
G1 X133.419 Y147.998 E64.63688
G1 X129.252 Y150.407 E64.79697
G1 X128.304 Y150.719 E64.83016
G1 X123.706 Y151.196 E64.98391
G1 X99.988 Y148.7 E65.77713
G1 X96.132 Y147.596 E65.91053
G0 F9000 X96.314 Y147.232
G1 F1800 X92.825 Y144.605 E66.0558
G1 X90.731 Y141.31 E66.18565
G1 X83.776 Y124.11 E66.80272
G1 X82.244 Y118.014 E67.01178
G1 X82.523 Y111.344 E67.23382
G1 X88.902 Y75.444 E68.44656
G1 X89.694 Y73.404 E68.51934
G1 X90.199 Y72.558 E68.55211
G1 X91.713 Y70.991 E68.62458
G1 X92.49 Y70.39 E68.65726
G1 X94.603 Y69.485 E68.73371
G1 X95.447 Y69.261 E68.76275
G1 X97.748 Y69.209 E68.8393
G1 X129.93 Y74.84 E69.92594
G1 X133.184 Y76.239 E70.04375
G1 X133.977 Y76.788 E70.07583
G1 X136.401 Y79.676 E70.20124
G1 X136.856 Y80.492 E70.23231
G1 X137.725 Y84.2 E70.35898
G1 X137.72 Y138.201 E72.15506
G1 X136.784 Y142.601 E72.30468
G1 X136.411 Y143.45 E72.33552
G1 X133.8 Y147.029 E72.48287
G1 X133.17 Y147.68 E72.513
G1 X129.089 Y150.039 E72.66978
G1 X128.22 Y150.325 E72.70021
G1 X123.707 Y150.794 E72.85112
G1 X100.098 Y148.315 E73.64068
G1 X96.314 Y147.232 E73.77159
G0 F9000 X96.496 Y146.868
G1 F1800 X93.124 Y144.329 E73.91198
G1 X91.087 Y141.124 E74.03829
G1 X84.164 Y124.012 E74.65225
G1 X82.646 Y117.973 E74.85935
G1 X82.917 Y111.414 E75.07769
G1 X89.289 Y75.553 E76.28912
G1 X90.067 Y73.549 E76.36062
G1 X90.517 Y72.804 E76.38957
G1 X92.001 Y71.269 E76.46058
G1 X92.691 Y70.74 E76.4895
G1 X94.761 Y69.853 E76.5644
G1 X95.503 Y69.66 E76.5899
G1 X97.718 Y69.61 E76.66359
G1 X129.813 Y75.226 E77.74729
G1 X132.99 Y76.591 E77.8623
G1 X133.707 Y77.088 E77.89132
G1 X136.07 Y79.903 E78.01356
G1 X136.48 Y80.639 E78.04158
G1 X137.325 Y84.244 E78.16473
G1 X137.32 Y138.16 E79.95799
G1 X136.402 Y142.477 E80.10478
G1 X136.063 Y143.249 E80.13282
G1 X133.512 Y146.751 E80.27693
G1 X132.92 Y147.363 E80.30525
G1 X128.926 Y149.671 E80.45867
G1 X128.136 Y149.931 E80.48633
G1 X123.708 Y150.392 E80.63441
G1 X100.208 Y147.93 E81.4203
G1 X96.496 Y146.868 E81.54871
G0 F9000 X96.678 Y146.504
G1 F1800 X93.423 Y144.053 E81.68423
G1 X91.443 Y140.938 E81.807
G1 X84.552 Y123.914 E82.41785
G1 X83.048 Y117.932 E82.623
G1 X83.311 Y111.484 E82.83764
G1 X89.676 Y75.662 E84.04775
G1 X90.44 Y73.694 E84.11796
G1 X90.837 Y73.048 E84.14318
G1 X92.244 Y71.587 E84.21064
G1 X92.894 Y71.089 E84.23788
G1 X94.919 Y70.221 E84.31116
G1 X95.559 Y70.059 E84.33312
G1 X97.688 Y70.011 E84.40394
G1 X129.696 Y75.612 E85.48471
G1 X132.796 Y76.944 E85.59693
G1 X133.437 Y77.388 E85.62287
G1 X135.736 Y80.126 E85.74178
G1 X136.105 Y80.789 E85.76702
G1 X136.925 Y84.288 E85.88655
G1 X136.92 Y138.119 E87.67697
G1 X136.019 Y142.355 E87.82101
G1 X135.715 Y143.049 E87.84621
G1 X133.224 Y146.473 E87.98705
G1 X132.67 Y147.046 E88.01355
G1 X128.764 Y149.303 E88.1636
G1 X128.052 Y149.537 E88.18853
G1 X123.709 Y149.99 E88.33376
G1 X100.318 Y147.545 E89.11598
G1 X96.678 Y146.504 E89.2419
G0 F9000 X96.86 Y146.14
G1 F1800 X93.722 Y143.777 E89.37256
G1 X91.799 Y140.752 E89.49178
G1 X84.94 Y123.816 E90.09951
G1 X83.45 Y117.891 E90.30272
G1 X83.705 Y111.554 E90.51366
G1 X90.063 Y75.771 E91.72245
G1 X90.799 Y73.874 E91.79012
G1 X91.156 Y73.294 E91.81277
G1 X92.487 Y71.905 E91.87676
G1 X93.097 Y71.438 E91.90231
G1 X95.077 Y70.589 E91.97396
G1 X95.615 Y70.458 E91.99238
G1 X97.658 Y70.412 E92.06035
G1 X129.579 Y75.998 E93.13818
G1 X132.602 Y77.297 E93.24761
G1 X133.167 Y77.688 E93.27047
G1 X135.403 Y80.351 E93.38612
G1 X135.729 Y80.937 E93.40842
G1 X136.525 Y84.332 E93.5244
G1 X136.52 Y138.078 E95.312
G1 X135.637 Y142.231 E95.45322
G1 X135.367 Y142.847 E95.47559
G1 X132.936 Y146.195 E95.6132
G1 X132.42 Y146.729 E95.6379
G1 X128.602 Y148.935 E95.78456
G1 X127.969 Y149.143 E95.80672
G1 X123.709 Y149.588 E95.94918
G1 X100.428 Y147.16 E96.72771
G1 X96.86 Y146.14 E96.85114
G0 F9000 X97.044 Y145.777
G1 F1800 X94.021 Y143.501 E96.97699
G1 X92.155 Y140.566 E97.09267
G1 X85.328 Y123.718 E97.6973
G1 X83.852 Y117.85 E97.89855
G1 X84.099 Y111.624 E98.10579
G1 X90.45 Y75.88 E99.31326
G1 X91.172 Y74.019 E99.37965
G1 X91.472 Y73.543 E99.39836
G1 X92.776 Y72.182 E99.46105
G1 X93.3 Y71.786 E99.4829
G1 X95.172 Y70.978 E99.55071
G1 X95.669 Y70.857 E99.56773
G1 X97.628 Y70.813 E99.6329
G1 X129.462 Y76.384 E100.70779
G1 X132.408 Y77.649 E100.81443
G1 X132.897 Y77.988 E100.83422
G1 X135.07 Y80.576 E100.94662
G1 X135.353 Y81.085 E100.96599
G1 X136.125 Y84.376 E101.07842
G1 X136.12 Y138.037 E102.86319
G1 X135.255 Y142.107 E103.00158
G1 X135.019 Y142.645 E103.02112
G1 X132.612 Y145.96 E103.15738
G1 X132.172 Y146.411 E103.17833
G1 X128.44 Y148.567 E103.32169
G1 X127.886 Y148.749 E103.34108
G1 X123.708 Y149.186 E103.4808
G1 X100.469 Y146.762 E104.25793
G1 X97.044 Y145.777 E104.37646
G0 F9000 X97.228 Y145.414
G1 F1800 X94.32 Y143.225 E104.49752
G1 X92.511 Y140.38 E104.60965
G1 X85.716 Y123.62 E105.21117
G1 X84.254 Y117.809 E105.41046
G1 X84.493 Y111.694 E105.614
G1 X90.838 Y75.987 E106.82023
G1 X91.531 Y74.198 E106.88404
G1 X91.786 Y73.793 E106.89996
G1 X93.065 Y72.459 E106.96142
G1 X93.5 Y72.136 E106.97944
G1 X95.267 Y71.367 E107.04354
G1 X95.723 Y71.256 E107.05915
G1 X97.598 Y71.214 E107.12153
G1 X129.345 Y76.77 E108.19349
G1 X132.214 Y78.002 E108.29733
G1 X132.627 Y78.288 E108.31404
G1 X134.737 Y80.801 E108.42318
G1 X134.977 Y81.233 E108.43962
G1 X135.725 Y84.42 E108.5485
G1 X135.72 Y137.996 E110.33044
G1 X134.873 Y141.983 E110.46601
G1 X134.671 Y142.443 E110.48272
G1 X132.288 Y145.725 E110.61762
G1 X131.925 Y146.092 E110.63479
G1 X128.278 Y148.199 E110.77488
G1 X127.803 Y148.355 E110.79151
G1 X123.708 Y148.784 E110.92845
G1 X100.511 Y146.364 E111.70417
G1 X97.228 Y145.414 E111.81785
G0 F9000 X97.411 Y145.051
G1 F1800 X94.619 Y142.949 E111.93408
G1 X92.867 Y140.194 E112.04268
G1 X86.104 Y123.522 E112.64107
G1 X84.656 Y117.767 E112.83845
G1 X84.887 Y111.764 E113.03826
G1 X91.226 Y76.093 E114.24327
G1 X91.89 Y74.377 E114.30447
G1 X92.1 Y74.044 E114.31756
G1 X93.354 Y72.736 E114.37783
G1 X93.701 Y72.485 E114.39208
G1 X95.362 Y71.756 E114.45241
G1 X95.777 Y71.655 E114.46661
G1 X97.568 Y71.615 E114.5262
G1 X129.228 Y77.156 E115.59522
G1 X132.02 Y78.354 E115.69627
G1 X132.357 Y78.588 E115.70991
G1 X134.404 Y81.026 E115.81579
G1 X134.601 Y81.381 E115.8293
G1 X135.325 Y84.464 E115.93463
G1 X135.32 Y137.955 E117.71375
G1 X134.491 Y141.859 E117.84649
G1 X134.323 Y142.241 E117.86037
G1 X131.964 Y145.49 E117.99391
G1 X131.679 Y145.772 E118.00725
G1 X128.115 Y147.831 E118.14415
G1 X127.72 Y147.961 E118.15798
G1 X123.708 Y148.382 E118.29215
G1 X100.553 Y145.966 E119.06647
G1 X97.411 Y145.051 E119.17531
G0 F9000 X97.595 Y144.688
G1 F1800 X94.918 Y142.673 E119.28675
G1 X93.223 Y140.008 E119.3918
G1 X86.492 Y123.424 E119.98709
G1 X85.058 Y117.725 E120.18255
G1 X85.281 Y111.834 E120.37862
G1 X91.614 Y76.199 E121.58242
G1 X92.248 Y74.559 E121.6409
G1 X92.416 Y74.293 E121.65136
G1 X93.643 Y73.013 E121.71034
G1 X93.899 Y72.835 E121.72071
G1 X95.523 Y72.122 E121.7797
G1 X95.827 Y72.054 E121.79006
G1 X97.538 Y72.016 E121.84698
G1 X129.111 Y77.542 E122.91307
G1 X131.826 Y78.707 E123.01133
G1 X132.087 Y78.888 E123.02189
G1 X134.071 Y81.251 E123.12452
G1 X134.225 Y81.529 E123.13509
G1 X134.925 Y84.508 E123.23687
G1 X134.92 Y137.914 E125.01316
G1 X134.109 Y141.735 E125.14308
G1 X133.975 Y142.039 E125.15413
G1 X131.64 Y145.255 E125.28631
G1 X131.435 Y145.452 E125.29577
G1 X127.953 Y147.463 E125.42951
G1 X127.637 Y147.567 E125.44057
G1 X123.708 Y147.98 E125.57197
G1 X100.629 Y145.572 E126.34375
G1 X97.595 Y144.688 E126.44886
G0 F9000 X97.963 Y143.962
G1 F1800 X95.514 Y142.119 E126.5508
G1 X93.937 Y139.64 E126.64852
G1 X87.234 Y123.124 E127.24136
G1 X85.862 Y117.643 E127.42928
G1 X86.069 Y111.974 E127.61796
G1 X92.39 Y76.411 E128.81933
G1 X92.994 Y74.847 E128.87509
G1 X94.221 Y73.567 E128.93407
G1 X95.845 Y72.854 E128.99306
G1 X97.478 Y72.818 E129.04739
G1 X128.877 Y78.314 E130.1076
G1 X131.51 Y79.443 E130.20288
G1 X133.459 Y81.765 E130.30371
G1 X134.125 Y84.598 E130.40051
G1 X134.12 Y137.832 E132.17108
G1 X133.327 Y141.569 E132.29814
G1 X130.992 Y144.785 E132.43032
G1 X127.553 Y146.771 E132.56241
G1 X123.708 Y147.176 E132.691
G1 X100.781 Y144.784 E133.45769
G1 X97.963 Y143.962 E133.55533
G1 F2400 E132.75533
G0 F9000 X98.738 Y142.415
G1 F2400 E133.55533
G1 F1800 X96.783 Y140.947 E133.63664
