;FLAVOR:Marlin
;TIME:118
;Filament used: 0.0890766m
;Layer height: 0.16
;MINX:100.5
;MINY:92.5
;MINZ:0.2
;MAXX:119.5
;MAXY:127.5
;MAXZ:1
;TARGET_MACHINE.NAME:Creality Ender-3 V3 SE
;Generated with Cura_SteamEngine 5.9.1
M82 ;absolute extrusion mode
M220 S100 ;Reset Feedrate
M221 S100 ;Reset Flowrate

G28 ;Home

M420 S1; Use saved mesh leveling data

G92 E0 ;Reset Extruder
G1 Z2.0 F3000 ;Move Z Axis up
G1 X-3 Y20 Z0.28 F5000.0 ;Move to start position
M190 S60 ; Set bed temperature and wait
M109 S200 ; Set hotend temperature and wait
G1 X-3 Y100.0 Z0.28 F1500.0 E15 ;Draw the first line
G1 X-2 Y100.0 Z0.28 F5000.0 ;Move to side a little
G1 X-2 Y20 Z0.28 F1500.0 E30 ;Draw the second line
G92 E0 ;Reset Extruder
G1 E-1.0000 F1800 ;Retract a bit
G1 Z2.0 F3000 ;Move Z Axis up
G1 E0.0000 F1800 

G92 E0
G92 E0
G1 F2400 E-0.8
;LAYER_COUNT:5
;LAYER:0
M107
G0 F9000 X113.039 Y127.46 Z0.2
;TYPE:SKIRT
G1 F2400 E0
G1 F1800 X106.736 Y127.5 E0.20964
G1 X105.05 Y127.087 E0.26738
G1 X103.213 Y126.135 E0.33619
G1 X101.909 Y124.739 E0.39973
G1 X100.823 Y122.919 E0.47022
G1 X100.565 Y121.349 E0.52314
G1 X100.5 Y98.74 E1.27512
G1 X100.919 Y97.036 E1.33349
G1 X101.865 Y95.213 E1.4018
G1 X103.273 Y93.897 E1.4659
G1 X104.879 Y92.94 E1.52808
G1 X105.216 Y92.802 E1.54019
G1 X106.961 Y92.54 E1.59888
G1 X113.264 Y92.5 E1.80852
G1 X114.95 Y92.913 E1.86626
G1 X116.787 Y93.865 E1.93507
G1 X118.091 Y95.261 E1.99861
G1 X119.177 Y97.081 E2.0691
G1 X119.435 Y98.651 E2.12202
G1 X119.5 Y121.26 E2.874
G1 X119.081 Y122.964 E2.93236
G1 X118.135 Y124.787 E3.00067
G1 X116.727 Y126.103 E3.06478
G1 X115.121 Y127.06 E3.12696
G1 X114.781 Y127.199 E3.13917
G1 X113.039 Y127.46 E3.19776
G0 F9000 X113.036 Y127.06
G1 F1800 X106.785 Y127.1 E3.40567
G1 X105.189 Y126.709 E3.46032
G1 X103.458 Y125.812 E3.52517
G1 X102.23 Y124.497 E3.58501
G1 X101.206 Y122.781 E3.65148
G1 X100.96 Y121.284 E3.70193
G1 X100.9 Y98.786 E4.45022
G1 X101.295 Y97.179 E4.50526
G1 X102.188 Y95.458 E4.56975
G1 X103.512 Y94.221 E4.63002
G1 X105.084 Y93.284 E4.69088
G1 X105.327 Y93.189 E4.69956
G1 X106.964 Y92.94 E4.75464
G1 X113.215 Y92.9 E4.96255
G1 X114.811 Y93.291 E5.0172
G1 X116.542 Y94.188 E5.08205
G1 X117.77 Y95.503 E5.14189
G1 X118.794 Y97.219 E5.20835
G1 X119.04 Y98.716 E5.25881
G1 X119.1 Y121.214 E6.0071
G1 X118.705 Y122.821 E6.06214
G1 X117.812 Y124.542 E6.12663
G1 X116.488 Y125.779 E6.18689
G1 X114.916 Y126.716 E6.24776
G1 X114.674 Y126.811 E6.25641
G1 X113.036 Y127.06 E6.31151
G0 F9000 X113.033 Y126.66
G1 F1800 X106.834 Y126.7 E6.5177
G1 X105.328 Y126.331 E6.56927
G1 X103.703 Y125.489 E6.63014
G1 X102.551 Y124.255 E6.68629
G1 X101.589 Y122.643 E6.74873
G1 X101.355 Y121.219 E6.79672
G1 X101.3 Y98.832 E7.54132
G1 X101.671 Y97.322 E7.59304
G1 X102.511 Y95.703 E7.6537
G1 X103.751 Y94.545 E7.71013
G1 X105.289 Y93.628 E7.76969
G1 X105.432 Y93.577 E7.77474
G1 X106.967 Y93.34 E7.8264
G1 X113.166 Y93.3 E8.03258
G1 X114.672 Y93.669 E8.08415
G1 X116.297 Y94.511 E8.14503
G1 X117.449 Y95.745 E8.20117
G1 X118.411 Y97.357 E8.26361
G1 X118.645 Y98.781 E8.31161
G1 X118.7 Y121.168 E9.05621
G1 X118.329 Y122.678 E9.10792
G1 X117.489 Y124.297 E9.16859
G1 X116.249 Y125.455 E9.22502
G1 X114.711 Y126.372 E9.28457
G1 X114.568 Y126.423 E9.28962
G1 X113.033 Y126.66 E9.34128
G0 F9000 X113.03 Y126.26
G1 F1800 X106.883 Y126.3 E9.54574
G1 X105.467 Y125.953 E9.59423
G1 X103.948 Y125.166 E9.65113
G1 X102.872 Y124.013 E9.70358
G1 X101.972 Y122.505 E9.76199
G1 X101.75 Y121.154 E9.80753
G1 X101.7 Y98.879 E10.5484
G1 X102.048 Y97.464 E10.59686
G1 X102.834 Y95.948 E10.65366
G1 X103.99 Y94.869 E10.70626
G1 X105.494 Y93.972 E10.7645
G1 X106.97 Y93.74 E10.81419
G1 X113.117 Y93.7 E11.01865
G1 X114.533 Y94.047 E11.06714
G1 X116.052 Y94.834 E11.12404
G1 X117.128 Y95.987 E11.17649
G1 X118.028 Y97.495 E11.2349
G1 X118.25 Y98.846 E11.28044
G1 X118.3 Y121.121 E12.02131
G1 X117.952 Y122.536 E12.06978
G1 X117.166 Y124.052 E12.12657
G1 X116.01 Y125.131 E12.17917
G1 X114.506 Y126.028 E12.23741
G1 X113.03 Y126.26 E12.28711
G0 F9000 X113.027 Y125.86
G1 F1800 X106.932 Y125.9 E12.48983
G1 X105.606 Y125.575 E12.53524
G1 X104.193 Y124.843 E12.58817
G1 X103.193 Y123.771 E12.63693
G1 X102.355 Y122.367 E12.69131
G1 X102.145 Y121.089 E12.73439
G1 X102.1 Y98.925 E13.47157
G1 X102.424 Y97.607 E13.51671
G1 X103.157 Y96.193 E13.56968
G1 X104.229 Y95.193 E13.61844
G1 X105.634 Y94.355 E13.67285
G1 X106.973 Y94.14 E13.71796
G1 X113.068 Y94.1 E13.92068
G1 X114.394 Y94.425 E13.96609
G1 X115.807 Y95.157 E14.01902
G1 X116.807 Y96.229 E14.06778
G1 X117.645 Y97.633 E14.12216
G1 X117.855 Y98.911 E14.16524
G1 X117.9 Y121.075 E14.90242
G1 X117.576 Y122.393 E14.94756
G1 X116.843 Y123.807 E15.00053
G1 X115.771 Y124.807 E15.04929
G1 X114.366 Y125.645 E15.10371
G1 X113.027 Y125.86 E15.14881
G0 F9000 X114.229 Y125.262
G1 F1800 X113.024 Y125.46 E15.18943
G1 X106.977 Y125.5 E15.39056
G1 X105.749 Y125.199 E15.43261
G1 X104.44 Y124.521 E15.48164
G1 X103.512 Y123.526 E15.52689
G1 X102.738 Y122.229 E15.57713
G1 X102.54 Y121.024 E15.61774
G1 X102.5 Y98.971 E16.35123
G1 X102.8 Y97.75 E16.39305
G1 X103.479 Y96.44 E16.44213
G1 X104.474 Y95.512 E16.48738
G1 X105.771 Y94.738 E16.53761
G1 X106.976 Y94.54 E16.57823
G1 X113.023 Y94.5 E16.77936
G1 X114.251 Y94.801 E16.82141
G1 X115.56 Y95.479 E16.87044
G1 X116.488 Y96.474 E16.9157
G1 X117.262 Y97.771 E16.96593
G1 X117.46 Y98.976 E17.00655
G1 X117.5 Y121.029 E17.74003
G1 X117.2 Y122.25 E17.78185
G1 X116.521 Y123.56 E17.83093
G1 X115.526 Y124.488 E17.87618
G1 X114.229 Y125.262 E17.92642
G0 F9000 X114.089 Y124.879
G1 F1800 X112.959 Y125.065 E17.96451
G1 X107.022 Y125.1 E18.16198
G1 X105.892 Y124.823 E18.20067
G1 X104.687 Y124.199 E18.24581
G1 X103.834 Y123.284 E18.28741
G1 X103.121 Y122.089 E18.3337
G1 X102.935 Y120.959 E18.37179
G1 X102.9 Y99.017 E19.10158
G1 X103.176 Y97.893 E19.14008
G1 X103.801 Y96.687 E19.18525
G1 X104.716 Y95.834 E19.22686
G1 X105.911 Y95.121 E19.27314
G1 X107.041 Y94.935 E19.31123
G1 X112.978 Y94.9 E19.5087
G1 X114.108 Y95.177 E19.5474
G1 X115.313 Y95.801 E19.59253
G1 X116.166 Y96.716 E19.63414
G1 X116.879 Y97.911 E19.68042
G1 X117.065 Y99.041 E19.71851
G1 X117.1 Y120.983 E20.44831
G1 X116.824 Y122.107 E20.4868
G1 X116.199 Y123.313 E20.53198
G1 X115.284 Y124.166 E20.57358
G1 X114.089 Y124.879 E20.61987
G0 F9000 X113.949 Y124.496
G1 F1800 X112.894 Y124.67 E20.65543
G1 X107.067 Y124.7 E20.84924
G1 X106.035 Y124.447 E20.88458
G1 X104.934 Y123.877 E20.92582
G1 X104.156 Y123.042 E20.96378
G1 X103.504 Y121.949 E21.00611
G1 X103.33 Y120.894 E21.04167
G1 X103.3 Y99.064 E21.76774
G1 X103.553 Y98.035 E21.80298
G1 X104.123 Y96.934 E21.84422
G1 X104.958 Y96.156 E21.88218
G1 X106.051 Y95.504 E21.92451
G1 X107.106 Y95.33 E21.96007
G1 X112.933 Y95.3 E22.15388
G1 X113.965 Y95.553 E22.18922
G1 X115.066 Y96.123 E22.23046
G1 X115.844 Y96.958 E22.26842
G1 X116.496 Y98.051 E22.31075
G1 X116.67 Y99.106 E22.34631
G1 X116.7 Y120.936 E23.07238
G1 X116.447 Y121.965 E23.10762
G1 X115.877 Y123.066 E23.14886
G1 X115.042 Y123.844 E23.18682
G1 X113.949 Y124.496 E23.22915
G0 F9000 X113.809 Y124.113
G1 F1800 X112.829 Y124.275 E23.26219
G1 X107.112 Y124.3 E23.45234
G1 X106.178 Y124.071 E23.48432
G1 X105.181 Y123.555 E23.52166
G1 X104.478 Y122.8 E23.55597
G1 X103.887 Y121.809 E23.59435
G1 X103.725 Y120.829 E23.62738
G1 X103.7 Y99.11 E24.34976
G1 X103.929 Y98.178 E24.38168
G1 X104.445 Y97.181 E24.41902
G1 X105.2 Y96.478 E24.45333
G1 X106.191 Y95.887 E24.49171
G1 X107.171 Y95.725 E24.52475
G1 X112.888 Y95.7 E24.7149
G1 X113.822 Y95.929 E24.74688
G1 X114.819 Y96.445 E24.78422
G1 X115.522 Y97.2 E24.81853
G1 X116.113 Y98.191 E24.85691
G1 X116.275 Y99.171 E24.88995
G1 X116.3 Y120.89 E25.61232
G1 X116.071 Y121.822 E25.64424
G1 X115.555 Y122.819 E25.68158
G1 X114.8 Y123.522 E25.71589
G1 X113.809 Y124.113 E25.75427
G0 F9000 X113.669 Y123.73
G1 F1800 X112.764 Y123.88 E25.78478
G1 X107.157 Y123.9 E25.97127
G1 X106.321 Y123.695 E25.9999
G1 X105.426 Y123.232 E26.03342
G1 X104.802 Y122.561 E26.06389
G1 X104.27 Y121.669 E26.09844
G1 X104.12 Y120.764 E26.12895
G1 X104.1 Y99.156 E26.84763
G1 X104.305 Y98.321 E26.87623
G1 X104.768 Y97.426 E26.90975
G1 X105.439 Y96.802 E26.94022
G1 X106.331 Y96.27 E26.97477
G1 X107.236 Y96.12 E27.00528
G1 X112.843 Y96.1 E27.19177
G1 X113.679 Y96.305 E27.2204
G1 X114.574 Y96.768 E27.25391
G1 X115.198 Y97.439 E27.28439
G1 X115.73 Y98.331 E27.31893
G1 X115.88 Y99.236 E27.34944
G1 X115.9 Y120.844 E28.06813
G1 X115.695 Y121.679 E28.09673
G1 X115.232 Y122.574 E28.13024
G1 X114.561 Y123.198 E28.16072
G1 X113.669 Y123.73 E28.19526
G0 F9000 X113.529 Y123.347
G1 F1800 X112.698 Y123.485 E28.22328
G1 X107.202 Y123.5 E28.40608
G1 X106.464 Y123.319 E28.43135
G1 X105.671 Y122.909 E28.46104
G1 X105.126 Y122.322 E28.48769
G1 X104.653 Y121.529 E28.5184
G1 X104.515 Y120.698 E28.54641
G1 X104.5 Y99.202 E29.26137
G1 X104.681 Y98.464 E29.28665
G1 X105.091 Y97.671 E29.31634
G1 X105.678 Y97.126 E29.34298
G1 X106.471 Y96.653 E29.37369
G1 X107.302 Y96.515 E29.40171
G1 X112.798 Y96.5 E29.58451
G1 X113.536 Y96.681 E29.60978
G1 X114.329 Y97.091 E29.63947
G1 X114.874 Y97.678 E29.66611
G1 X115.347 Y98.471 E29.69682
G1 X115.485 Y99.302 E29.72484
G1 X115.5 Y120.798 E30.4398
G1 X115.319 Y121.536 E30.46508
G1 X114.909 Y122.329 E30.49477
G1 X114.322 Y122.874 E30.52141
G1 X113.529 Y123.347 E30.55212
G0 F9000 X113.389 Y122.964
G1 F1800 X112.632 Y123.09 E30.57764
G1 X107.252 Y123.1 E30.75658
G1 X106.603 Y122.941 E30.77881
G1 X105.916 Y122.586 E30.80453
G1 X105.45 Y122.083 E30.82733
G1 X105.036 Y121.389 E30.85421
G1 X104.91 Y120.632 E30.87974
G1 X104.9 Y99.252 E31.59084
G1 X105.059 Y98.603 E31.61306
G1 X105.414 Y97.916 E31.63878
G1 X105.917 Y97.45 E31.66159
G1 X106.611 Y97.036 E31.68847
G1 X107.368 Y96.91 E31.71399
G1 X112.748 Y96.9 E31.89293
G1 X113.397 Y97.059 E31.91515
G1 X114.084 Y97.414 E31.94087
G1 X114.55 Y97.917 E31.96368
G1 X114.964 Y98.611 E31.99056
G1 X115.09 Y99.368 E32.01608
G1 X115.1 Y120.748 E32.72718
G1 X114.941 Y121.397 E32.74941
G1 X114.586 Y122.084 E32.77513
G1 X114.083 Y122.55 E32.79793
G1 X113.389 Y122.964 E32.82481
G0 F9000 X113.249 Y122.581
G1 F1800 X112.566 Y122.695 E32.84784
G1 X107.302 Y122.7 E33.02292
G1 X106.742 Y122.563 E33.0421
G1 X106.162 Y122.263 E33.06382
G1 X105.774 Y121.844 E33.08281
G1 X105.419 Y121.249 E33.10586
G1 X105.305 Y120.566 E33.12889
G1 X105.3 Y99.302 E33.83613
G1 X105.437 Y98.742 E33.85531
G1 X105.737 Y98.162 E33.87702
G1 X106.156 Y97.774 E33.89602
G1 X106.751 Y97.419 E33.91906
G1 X107.434 Y97.305 E33.94209
G1 X112.698 Y97.3 E34.11717
G1 X113.258 Y97.437 E34.13635
G1 X113.838 Y97.737 E34.15807
G1 X114.226 Y98.156 E34.17706
G1 X114.581 Y98.751 E34.20011
G1 X114.695 Y99.434 E34.22314
G1 X114.7 Y120.698 E34.93038
G1 X114.563 Y121.258 E34.94956
G1 X114.263 Y121.838 E34.97127
G1 X113.844 Y122.226 E34.99027
G1 X113.249 Y122.581 E35.01331
G0 F9000 X113.111 Y122.198
G1 F1800 X112.5 Y122.3 E35.03391
G1 X107.352 Y122.3 E35.20514
G1 X106.881 Y122.185 E35.22126
G1 X106.408 Y121.94 E35.23898
G1 X106.095 Y121.602 E35.2543
G1 X105.802 Y121.111 E35.27332
G1 X105.7 Y120.5 E35.29392
G1 X105.7 Y99.352 E35.99731
G1 X105.815 Y98.881 E36.01343
G1 X106.06 Y98.408 E36.03115
G1 X106.398 Y98.095 E36.04647
G1 X106.889 Y97.802 E36.06549
G1 X107.5 Y97.7 E36.08609
G1 X112.648 Y97.7 E36.25732
G1 X113.119 Y97.815 E36.27344
G1 X113.592 Y98.06 E36.29116
G1 X113.905 Y98.398 E36.30648
G1 X114.198 Y98.889 E36.3255
G1 X114.3 Y99.5 E36.3461
G1 X114.3 Y120.648 E37.04949
G1 X114.185 Y121.119 E37.06561
G1 X113.94 Y121.592 E37.08333
G1 X113.602 Y121.905 E37.09865
G1 X113.111 Y122.198 E37.11767
G0 F9000 X112.973 Y121.815
G1 F1800 X112.5 Y121.9 E37.13365
G1 X107.402 Y121.9 E37.30321
G1 X107.02 Y121.807 E37.31629
G1 X106.654 Y121.617 E37.33001
G1 X106.416 Y121.36 E37.34166
G1 X106.185 Y120.973 E37.35665
G1 X106.1 Y120.5 E37.37263
G1 X106.1 Y99.402 E38.07435
G1 X106.193 Y99.02 E38.08743
G1 X106.383 Y98.654 E38.10115
G1 X106.64 Y98.416 E38.1128
G1 X107.027 Y98.185 E38.12779
G1 X107.5 Y98.1 E38.14377
G1 X112.598 Y98.1 E38.31333
G1 X112.98 Y98.193 E38.32641
G1 X113.346 Y98.383 E38.34012
G1 X113.584 Y98.64 E38.35177
G1 X113.815 Y99.027 E38.36676
G1 X113.9 Y99.5 E38.38275
G1 X113.9 Y120.598 E39.08447
G1 X113.807 Y120.98 E39.09755
G1 X113.617 Y121.346 E39.11126
G1 X113.36 Y121.584 E39.12291
G1 X112.973 Y121.815 E39.1379
G0 F9000 X112.828 Y121.435
G1 F1800 X113.155 Y121.24 E39.15057
G1 X113.293 Y121.101 E39.15708
G1 X113.43 Y120.838 E39.16694
G1 X113.5 Y120.549 E39.17683
G1 X113.5 Y99.5 E39.87693
G1 X113.435 Y99.172 E39.88805
G1 X113.24 Y98.845 E39.90071
G1 X113.101 Y98.707 E39.90723
G1 X112.838 Y98.57 E39.91709
G1 X112.549 Y98.5 E39.92698
G1 X107.5 Y98.5 E40.09491
G1 X107.172 Y98.565 E40.10603
G1 X106.845 Y98.76 E40.11869
G1 X106.707 Y98.899 E40.12521
G1 X106.57 Y99.162 E40.13507
G1 X106.5 Y99.451 E40.14496
G1 X106.5 Y120.5 E40.84505
G1 X106.565 Y120.828 E40.85618
G1 X106.76 Y121.155 E40.86884
G1 X106.899 Y121.293 E40.87535
G1 X107.162 Y121.43 E40.88522
G1 X107.451 Y121.5 E40.89511
G1 X112.5 Y121.5 E41.06304
G1 X112.828 Y121.435 E41.07416
G0 F9000 X112.7 Y120.5
G1 F1800 X112.661 Y120.619 E41.07832
G1 X112.5 Y120.7 E41.08432
G1 X107.5 Y120.7 E41.25062
G1 X107.381 Y120.661 E41.25478
G1 X107.3 Y120.5 E41.26078
G1 X107.3 Y99.5 E41.95924
G1 X107.339 Y99.381 E41.96341
G1 X107.5 Y99.3 E41.9694
G1 X112.5 Y99.3 E42.1357
G1 X112.619 Y99.339 E42.13987
G1 X112.7 Y99.5 E42.14586
G1 X112.7 Y120.5 E42.84432
G0 F9000 X112.68 Y121.057
G1 F1800 X112.5 Y121.1 E42.85048
G1 X107.5 Y121.1 E43.01678
G1 X107.256 Y121.041 E43.02513
G1 X107.104 Y120.95 E43.03102
G1 X106.943 Y120.68 E43.04148
G1 X106.9 Y120.5 E43.04763
G1 X106.9 Y99.5 E43.74609
G1 X106.959 Y99.256 E43.75444
G1 X107.05 Y99.104 E43.76034
G1 X107.32 Y98.943 E43.77079
G1 X107.5 Y98.9 E43.77695
G1 X112.5 Y98.9 E43.94325
G1 X112.744 Y98.959 E43.9516
G1 X112.896 Y99.05 E43.95749
G1 X113.057 Y99.32 E43.96794
G1 X113.1 Y99.5 E43.9741
G1 X113.1 Y120.5 E44.67256
G1 X113.041 Y120.744 E44.68091
G1 X112.95 Y120.896 E44.6868
G1 X112.68 Y121.057 E44.69726
G1 F2400 E43.89726
;MESH:cover.stl
G0 F9000 X112.076 Y120.076
G0 X110 Y119.5
;TYPE:WALL-INNER
G1 F2400 E44.69726
G1 F1800 X111.5 Y119.5 E44.74715
G1 X111.5 Y100.5 E45.37909
G1 X108.5 Y100.5 E45.47887
G1 X108.5 Y119.5 E46.11082
G1 X110 Y119.5 E46.16071
G0 F9000 X110 Y119.9
G1 F1800 X111.9 Y119.9 E46.2239
G1 X111.9 Y100.1 E46.88245
G1 X108.1 Y100.1 E47.00884
G1 X108.1 Y119.9 E47.66739
G1 X110 Y119.9 E47.73058
G0 F9000 X110 Y120.3
;TYPE:WALL-OUTER
G1 F1800 X112.3 Y120.3 E47.80708
G1 X112.3 Y99.7 E48.49224
G1 X107.7 Y99.7 E48.64524
G1 X107.7 Y120.3 E49.3304
G1 X110 Y120.3 E49.4069
G0 F9000 X110 Y119.59
G0 X110 Y119.14
;TYPE:SKIN
G1 F1800 X108.86 Y119.14 E49.44481
G1 X108.86 Y100.86 E50.05281
G1 X111.14 Y100.86 E50.12864
G1 X111.14 Y119.14 E50.73664
G1 X110 Y119.14 E50.77455
G0 F9000 X110 Y119.4
G0 X108.672 Y119.328
G0 X108.6 Y118.677
G0 X109.06 Y118.677
G1 F1800 X109.323 Y118.94 E50.78692
G0 F9000 X109.889 Y118.94
G1 F1800 X109.06 Y118.111 E50.82592
G0 F9000 X109.06 Y117.545
G1 F1800 X110.454 Y118.94 E50.89151
G0 F9000 X110.94 Y118.86
G1 F1800 X109.06 Y116.98 E50.97994
G0 F9000 X109.06 Y116.414
G1 F1800 X110.94 Y118.294 E51.06837
G0 F9000 X110.94 Y117.728
G1 F1800 X109.06 Y115.848 E51.1568
G0 F9000 X109.06 Y115.282
G1 F1800 X110.94 Y117.163 E51.24525
G0 F9000 X110.94 Y116.597
G1 F1800 X109.06 Y114.717 E51.33368
G0 F9000 X109.06 Y114.151
G1 F1800 X110.94 Y116.031 E51.42211
G0 F9000 X110.94 Y115.466
G1 F1800 X109.06 Y113.585 E51.51056
G0 F9000 X109.06 Y113.02
G1 F1800 X110.94 Y114.9 E51.59899
G0 F9000 X110.94 Y114.334
G1 F1800 X109.06 Y112.454 E51.68742
G0 F9000 X109.06 Y111.888
G1 F1800 X110.94 Y113.769 E51.77587
G0 F9000 X110.94 Y113.203
G1 F1800 X109.06 Y111.323 E51.8643
G0 F9000 X109.06 Y110.757
G1 F1800 X110.94 Y112.637 E51.95273
G0 F9000 X110.94 Y112.071
G1 F1800 X109.06 Y110.191 E52.04116
G0 F9000 X109.06 Y109.626
G1 F1800 X110.94 Y111.506 E52.12959
G0 F9000 X110.94 Y110.94
G1 F1800 X109.06 Y109.06 E52.21802
G0 F9000 X109.06 Y108.494
G1 F1800 X110.94 Y110.374 E52.30645
G0 F9000 X110.94 Y109.809
G1 F1800 X109.06 Y107.929 E52.39488
G0 F9000 X109.06 Y107.363
