;FLAVOR:Marlin
;TIME:4897
;Filament used: 4.47475m
;Layer height: 0.2
;MINX:87.48
;MINY:84.979
;MINZ:0.2
;MAXX:132.52
;MAXY:135.02
;MAXZ:33
;TARGET_MACHINE.NAME:Creality Ender-3 V3 SE
;Generated with Cura_SteamEngine 5.10.0
M220 S100 ;Reset Feedrate
M221 S100 ;Reset Flowrate

G28 ;Home

M420 S1; Use saved mesh leveling data

G92 E0 ;Reset Extruder
G1 Z2.0 F3000 ;Move Z Axis up
G1 X-3 Y20 Z0.28 F5000.0 ;Move to start position
M190 S60 ; Set bed temperature and wait
M109 S200 ; Set hotend temperature and wait
G1 X-3 Y100.0 Z0.28 F1500.0 E15 ;Draw the first line
G1 X-2 Y100.0 Z0.28 F5000.0 ;Move to side a little
G1 X-2 Y20 Z0.28 F1500.0 E30 ;Draw the second line
G92 E0 ;Reset Extruder
G1 E-1.0000 F1800 ;Retract a bit
G1 Z2.0 F3000 ;Move Z Axis up
G1 E0.0000 F1800 

M82 ;absolute extrusion mode
G92 E0
G92 E0
G1 F2400 E-0.8
;LAYER_COUNT:165
;LAYER:0
M107
G0 F9000 X91.087 Y87.742 Z0.2
;TYPE:SKIRT
G1 F2400 E0
G1 F1800 X93.349 Y86.269 E0.08978
G1 X94.777 Y85.546 E0.14302
G1 X97.657 Y84.98 E0.24064
G1 X122.398 Y84.979 E1.06353
G1 X125.097 Y85.581 E1.1555
G1 X126.332 Y86.013 E1.19902
G1 X128.76 Y87.714 E1.29762
G1 X129.771 Y88.608 E1.34251
G1 X131.231 Y90.849 E1.43147
G1 X131.954 Y92.277 E1.4847
G1 X132.52 Y95.157 E1.58232
G1 X132.517 Y124.88 E2.57091
G1 X132 Y127.454 E2.65824
G1 X131.34 Y129.043 E2.71546
G1 X129.828 Y131.215 E2.80349
G1 X128.913 Y132.258 E2.84963
G1 X126.651 Y133.731 E2.93941
G1 X125.223 Y134.454 E2.99265
G1 X122.343 Y135.02 E3.09027
G1 X97.62 Y135.017 E3.91256
G1 X95.046 Y134.5 E3.99988
G1 X93.457 Y133.84 E4.05711
G1 X91.285 Y132.328 E4.14513
G1 X90.242 Y131.413 E4.19128
G1 X88.769 Y129.151 E4.28106
G1 X88.046 Y127.723 E4.33429
G1 X87.48 Y124.843 E4.43192
G1 X87.483 Y95.12 E5.42051
G1 X88 Y92.546 E5.50783
G1 X88.66 Y90.957 E5.56506
G1 X90.172 Y88.785 E5.65308
G1 X91.087 Y87.742 E5.69923
G0 F9000 X91.352 Y88.047
G1 F1800 X93.53 Y86.626 E5.78572
G1 X94.908 Y85.928 E5.8371
G1 X97.698 Y85.38 E5.93167
G1 X122.351 Y85.379 E6.75163
G1 X124.965 Y85.959 E6.84068
G1 X126.149 Y86.373 E6.8824
G1 X128.495 Y88.014 E6.97763
G1 X129.465 Y88.872 E7.0207
G1 X130.874 Y91.03 E7.10642
G1 X131.572 Y92.408 E7.15779
G1 X132.12 Y95.198 E7.25236
G1 X132.117 Y124.841 E8.23829
G1 X131.616 Y127.337 E8.32297
G1 X130.988 Y128.848 E8.37739
G1 X129.527 Y130.951 E8.46256
G1 X128.648 Y131.953 E8.50689
G1 X126.47 Y133.374 E8.59339
G1 X125.092 Y134.072 E8.64476
G1 X122.302 Y134.62 E8.73933
G1 X97.659 Y134.617 E9.55896
G1 X95.163 Y134.116 E9.64364
G1 X93.652 Y133.488 E9.69806
G1 X91.549 Y132.027 E9.78323
G1 X90.547 Y131.148 E9.82756
G1 X89.126 Y128.97 E9.91406
G1 X88.428 Y127.592 E9.96543
G1 X87.88 Y124.802 E10.06
G1 X87.883 Y95.159 E11.04593
G1 X88.384 Y92.663 E11.13061
G1 X89.012 Y91.152 E11.18503
G1 X90.473 Y89.049 E11.2702
G1 X91.352 Y88.047 E11.31453
G0 F9000 X91.617 Y88.352
G1 F1800 X93.711 Y86.983 E11.39774
G1 X95.042 Y86.309 E11.44736
G1 X97.734 Y85.78 E11.53861
G1 X122.306 Y85.779 E12.35588
G1 X124.833 Y86.337 E12.44195
G1 X125.966 Y86.733 E12.48187
G1 X128.23 Y88.314 E12.57372
G1 X129.159 Y89.136 E12.61497
G1 X130.517 Y91.211 E12.69745
G1 X131.191 Y92.542 E12.74708
G1 X131.72 Y95.234 E12.83832
G1 X131.717 Y124.802 E13.82176
G1 X131.231 Y127.222 E13.90386
G1 X130.637 Y128.652 E13.95536
G1 X129.226 Y130.687 E14.03772
G1 X128.383 Y131.648 E14.08024
G1 X126.289 Y133.017 E14.16345
G1 X124.958 Y133.691 E14.21307
G1 X122.266 Y134.22 E14.30432
G1 X97.698 Y134.217 E15.12145
G1 X95.278 Y133.731 E15.20355
G1 X93.848 Y133.137 E15.25505
G1 X91.813 Y131.726 E15.33742
G1 X90.852 Y130.883 E15.37993
G1 X89.483 Y128.789 E15.46314
G1 X88.809 Y127.458 E15.51277
G1 X88.28 Y124.766 E15.60401
G1 X88.283 Y95.198 E16.58745
G1 X88.769 Y92.778 E16.66955
G1 X89.363 Y91.348 E16.72105
G1 X90.774 Y89.313 E16.80341
G1 X91.617 Y88.352 E16.84593
G0 F9000 X91.882 Y88.657
G1 F1800 X93.892 Y87.34 E16.92585
G1 X95.173 Y86.691 E16.97362
G1 X97.775 Y86.18 E17.06181
G1 X122.261 Y86.179 E17.87622
G1 X124.701 Y86.715 E17.95931
G1 X125.783 Y87.093 E17.99743
G1 X127.965 Y88.614 E18.0859
G1 X128.854 Y89.4 E18.12536
G1 X130.16 Y91.392 E18.20459
G1 X130.809 Y92.673 E18.25235
G1 X131.32 Y95.275 E18.34055
G1 X131.317 Y124.763 E19.32132
G1 X130.847 Y127.105 E19.40077
G1 X130.285 Y128.457 E19.44947
G1 X128.925 Y130.423 E19.52898
G1 X128.118 Y131.343 E19.56968
G1 X126.108 Y132.66 E19.64961
G1 X124.827 Y133.309 E19.69737
G1 X122.225 Y133.82 E19.78556
G1 X97.737 Y133.817 E20.60004
G1 X95.395 Y133.347 E20.67949
G1 X94.043 Y132.785 E20.72819
G1 X92.077 Y131.425 E20.8077
G1 X91.157 Y130.618 E20.8484
G1 X89.84 Y128.608 E20.92832
G1 X89.191 Y127.327 E20.97609
G1 X88.68 Y124.725 E21.06428
G1 X88.683 Y95.237 E22.04506
G1 X89.153 Y92.895 E22.12451
G1 X89.715 Y91.543 E22.1732
G1 X91.075 Y89.577 E22.25271
G1 X91.882 Y88.657 E22.29342
G0 F9000 X92.148 Y88.961
G1 F1800 X94.073 Y87.697 E22.37001
G1 X95.304 Y87.073 E22.41591
G1 X97.816 Y86.58 E22.50106
G1 X122.216 Y86.579 E23.31261
G1 X124.615 Y87.106 E23.3943
G1 X125.598 Y87.452 E23.42896
G1 X127.736 Y88.942 E23.51563
G1 X128.55 Y89.664 E23.55182
G1 X129.803 Y91.573 E23.62777
G1 X130.427 Y92.804 E23.67368
G1 X130.92 Y95.316 E23.75882
G1 X130.917 Y124.724 E24.73693
G1 X130.462 Y126.99 E24.81381
G1 X129.933 Y128.263 E24.85966
G1 X128.624 Y130.159 E24.93629
G1 X127.852 Y131.039 E24.97522
G1 X125.927 Y132.303 E25.05182
G1 X124.696 Y132.927 E25.09772
G1 X122.184 Y133.42 E25.18286
G1 X97.776 Y133.417 E25.99468
G1 X95.51 Y132.962 E26.07155
G1 X94.237 Y132.433 E26.1174
G1 X92.341 Y131.124 E26.19403
G1 X91.461 Y130.352 E26.23296
G1 X90.197 Y128.427 E26.30956
G1 X89.573 Y127.196 E26.35546
G1 X89.08 Y124.684 E26.4406
G1 X89.083 Y95.276 E27.41872
G1 X89.538 Y93.01 E27.49559
G1 X90.067 Y91.737 E27.54144
G1 X91.376 Y89.841 E27.61807
G1 X92.148 Y88.961 E27.65701
G0 F9000 X92.414 Y89.265
G1 F1800 X94.254 Y88.054 E27.73027
G1 X95.435 Y87.455 E27.77431
G1 X97.857 Y86.98 E27.85641
G1 X122.171 Y86.979 E28.66509
G1 X124.529 Y87.497 E28.74539
G1 X125.416 Y87.812 E28.7767
G1 X127.47 Y89.241 E28.85992
G1 X128.245 Y89.929 E28.89439
G1 X129.446 Y91.754 E28.96705
G1 X130.045 Y92.935 E29.0111
G1 X130.52 Y95.357 E29.09319
G1 X130.517 Y124.685 E30.06864
G1 X130.077 Y126.875 E30.14294
G1 X129.581 Y128.07 E30.18597
G1 X128.323 Y129.895 E30.25969
G1 X127.586 Y130.735 E30.29686
G1 X125.746 Y131.946 E30.37012
G1 X124.565 Y132.545 E30.41417
G1 X122.143 Y133.02 E30.49626
G1 X97.815 Y133.017 E31.30541
G1 X95.625 Y132.577 E31.37971
G1 X94.43 Y132.081 E31.42274
G1 X92.605 Y130.823 E31.49646
G1 X91.765 Y130.086 E31.53363
G1 X90.554 Y128.246 E31.60689
G1 X89.955 Y127.065 E31.65094
G1 X89.48 Y124.643 E31.73303
G1 X89.483 Y95.315 E32.70848
G1 X89.923 Y93.125 E32.78278
G1 X90.419 Y91.93 E32.82581
G1 X91.677 Y90.105 E32.89953
G1 X92.414 Y89.265 E32.9367
G0 F9000 X92.68 Y89.568
G1 F1800 X94.435 Y88.411 E33.00662
G1 X95.566 Y87.837 E33.0488
G1 X97.898 Y87.38 E33.12784
G1 X122.127 Y87.379 E33.9337
G1 X124.395 Y87.874 E34.01091
G1 X125.231 Y88.171 E34.04042
G1 X127.204 Y89.54 E34.12029
G1 X127.94 Y90.194 E34.15304
G1 X129.089 Y91.935 E34.22242
G1 X129.663 Y93.066 E34.2646
G1 X130.12 Y95.398 E34.34364
G1 X130.117 Y124.646 E35.31643
G1 X129.692 Y126.76 E35.38815
G1 X129.23 Y127.873 E35.42823
G1 X128.022 Y129.631 E35.49918
G1 X127.32 Y130.432 E35.5346
G1 X125.565 Y131.589 E35.60452
G1 X124.434 Y132.163 E35.6467
G1 X122.102 Y132.62 E35.72574
G1 X97.854 Y132.617 E36.53223
G1 X95.74 Y132.192 E36.60395
G1 X94.627 Y131.73 E36.64403
G1 X92.869 Y130.522 E36.71497
G1 X92.068 Y129.82 E36.7504
G1 X90.911 Y128.065 E36.82031
G1 X90.337 Y126.934 E36.8625
G1 X89.88 Y124.602 E36.94154
G1 X89.883 Y95.354 E37.91433
G1 X90.308 Y93.24 E37.98605
G1 X90.77 Y92.127 E38.02613
G1 X91.978 Y90.369 E38.09707
G1 X92.68 Y89.568 E38.1325
G0 F9000 X92.945 Y89.873
G1 F1800 X94.616 Y88.768 E38.19913
G1 X95.697 Y88.219 E38.23945
G1 X97.939 Y87.78 E38.31544
G1 X122.083 Y87.779 E39.11847
G1 X124.261 Y88.251 E39.1926
G1 X125.046 Y88.53 E39.2203
G1 X126.976 Y89.869 E39.29843
G1 X127.634 Y90.457 E39.32778
G1 X128.732 Y92.116 E39.39395
G1 X129.281 Y93.197 E39.43428
G1 X129.72 Y95.439 E39.51026
G1 X129.717 Y124.607 E40.48039
G1 X129.308 Y126.643 E40.54946
G1 X128.877 Y127.68 E40.58682
G1 X127.721 Y129.367 E40.65483
G1 X127.055 Y130.127 E40.68845
G1 X125.384 Y131.232 E40.75508
G1 X124.303 Y131.781 E40.7954
G1 X122.061 Y132.22 E40.87139
G1 X97.893 Y132.217 E41.67522
G1 X95.857 Y131.808 E41.74429
G1 X94.82 Y131.377 E41.78164
G1 X93.133 Y130.221 E41.84966
G1 X92.373 Y129.555 E41.88327
G1 X91.268 Y127.884 E41.9499
G1 X90.719 Y126.803 E41.99022
G1 X90.28 Y124.561 E42.06621
G1 X90.283 Y95.393 E43.03634
G1 X90.692 Y93.357 E43.10541
G1 X91.123 Y92.32 E43.14276
G1 X92.279 Y90.633 E43.21078
G1 X92.945 Y89.873 E43.24439
G0 F9000 X93.21 Y90.178
G1 F1800 X94.837 Y89.102 E43.30927
G1 X95.826 Y88.602 E43.34613
G1 X97.98 Y88.18 E43.41913
G1 X122.041 Y88.179 E44.2194
G1 X124.127 Y88.628 E44.29037
G1 X124.861 Y88.889 E44.31628
G1 X126.748 Y90.198 E44.39267
G1 X127.328 Y90.72 E44.41862
G1 X128.398 Y92.337 E44.48311
G1 X128.898 Y93.326 E44.51997
G1 X129.32 Y95.48 E44.59298
G1 X129.317 Y124.568 E45.56045
G1 X128.923 Y126.528 E45.62694
G1 X128.525 Y127.486 E45.66144
G1 X127.42 Y129.103 E45.72658
G1 X126.79 Y129.822 E45.75838
G1 X125.163 Y130.898 E45.82326
G1 X124.174 Y131.398 E45.86012
G1 X122.02 Y131.82 E45.93312
G1 X97.932 Y131.817 E46.73429
G1 X95.972 Y131.423 E46.80079
G1 X95.014 Y131.025 E46.83529
G1 X93.397 Y129.92 E46.90043
G1 X92.678 Y129.29 E46.93222
G1 X91.602 Y127.663 E46.9971
G1 X91.102 Y126.674 E47.03396
G1 X90.68 Y124.52 E47.10697
G1 X90.683 Y95.432 E48.07444
G1 X91.077 Y93.472 E48.14093
G1 X91.475 Y92.514 E48.17543
G1 X92.58 Y90.897 E48.24057
G1 X93.21 Y90.178 E48.27237
G0 F9000 X93.473 Y90.484
G1 F1800 X95.058 Y89.436 E48.33557
G1 X95.955 Y88.985 E48.36896
G1 X98.021 Y88.58 E48.43898
G1 X121.999 Y88.579 E49.2365
G1 X123.993 Y89.005 E49.30431
G1 X124.678 Y89.249 E49.3285
G1 X126.48 Y90.495 E49.40137
G1 X127.021 Y90.982 E49.42558
G1 X128.064 Y92.558 E49.48843
G1 X128.515 Y93.455 E49.52183
G1 X128.92 Y95.521 E49.59185
G1 X128.917 Y124.529 E50.55666
G1 X128.538 Y126.413 E50.62058
G1 X128.173 Y127.292 E50.65223
G1 X127.09 Y128.877 E50.71608
G1 X126.527 Y129.516 E50.74441
G1 X124.942 Y130.564 E50.80761
G1 X124.045 Y131.015 E50.841
G1 X121.979 Y131.42 E50.91102
G1 X97.971 Y131.417 E51.70953
G1 X96.087 Y131.038 E51.77345
G1 X95.208 Y130.673 E51.8051
G1 X93.623 Y129.59 E51.86895
G1 X92.984 Y129.027 E51.89728
G1 X91.936 Y127.442 E51.96048
G1 X91.485 Y126.545 E51.99387
G1 X91.08 Y124.479 E52.06389
G1 X91.083 Y95.471 E53.0287
G1 X91.462 Y93.587 E53.09262
G1 X91.827 Y92.708 E53.12428
G1 X92.91 Y91.123 E53.18813
G1 X93.473 Y90.484 E53.21645
G0 F9000 X93.735 Y90.791
G1 F1800 X95.279 Y89.77 E53.27802
G1 X96.085 Y89.368 E53.30797
G1 X98.062 Y88.98 E53.37498
G1 X121.958 Y88.979 E54.16977
G1 X123.859 Y89.382 E54.2344
G1 X124.495 Y89.609 E54.25686
G1 X126.212 Y90.792 E54.32621
G1 X126.714 Y91.244 E54.34868
G1 X127.73 Y92.779 E54.4099
G1 X128.132 Y93.585 E54.43986
G1 X128.52 Y95.562 E54.50687
G1 X128.517 Y124.49 E55.46902
G1 X128.153 Y126.298 E55.53036
G1 X127.821 Y127.098 E55.55917
G1 X126.76 Y128.651 E55.62173
G1 X126.265 Y129.209 E55.64654
G1 X124.721 Y130.23 E55.7081
G1 X123.915 Y130.632 E55.73806
G1 X121.938 Y131.02 E55.80507
G1 X98.01 Y131.017 E56.60092
G1 X96.202 Y130.653 E56.66226
G1 X95.402 Y130.321 E56.69107
G1 X93.849 Y129.26 E56.75362
G1 X93.291 Y128.765 E56.77843
G1 X92.27 Y127.221 E56.84
G1 X91.868 Y126.415 E56.86995
G1 X91.48 Y124.438 E56.93696
G1 X91.483 Y95.51 E57.89911
G1 X91.847 Y93.702 E57.96045
G1 X92.179 Y92.902 E57.98926
G1 X93.24 Y91.349 E58.05182
G1 X93.735 Y90.791 E58.07663
G0 F9000 X93.999 Y91.097
G1 F1800 X95.5 Y90.104 E58.13649
G1 X96.214 Y89.751 E58.16298
G1 X98.103 Y89.38 E58.22701
G1 X121.918 Y89.379 E59.0191
G1 X123.725 Y89.759 E59.08051
G1 X124.312 Y89.968 E59.10124
G1 X125.944 Y91.089 E59.16709
G1 X126.407 Y91.506 E59.18782
G1 X127.396 Y93 E59.24741
G1 X127.749 Y93.714 E59.2739
G1 X128.12 Y95.603 E59.33793
G1 X128.117 Y124.451 E60.29742
G1 X127.769 Y126.181 E60.35611
G1 X127.468 Y126.905 E60.38219
G1 X126.461 Y128.385 E60.44173
G1 X126.001 Y128.903 E60.46477
G1 X124.5 Y129.896 E60.52463
G1 X123.786 Y130.249 E60.55112
G1 X121.897 Y130.62 E60.61515
G1 X98.049 Y130.617 E61.40833
G1 X96.319 Y130.269 E61.46703
G1 X95.595 Y129.968 E61.49311
G1 X94.115 Y128.961 E61.55264
G1 X93.597 Y128.501 E61.57569
G1 X92.604 Y127 E61.63555
G1 X92.251 Y126.286 E61.66204
G1 X91.88 Y124.397 E61.72607
G1 X91.883 Y95.549 E62.68555
G1 X92.231 Y93.819 E62.74425
G1 X92.532 Y93.095 E62.77033
G1 X93.539 Y91.615 E62.82986
G1 X93.999 Y91.097 E62.85291
G0 F9000 X94.263 Y91.403
G1 F1800 X95.721 Y90.438 E62.91106
G1 X96.341 Y90.134 E62.93403
G1 X98.144 Y89.78 E62.99514
G1 X121.875 Y89.779 E63.78443
G1 X123.591 Y90.136 E63.84273
G1 X124.129 Y90.328 E63.86173
G1 X125.676 Y91.386 E63.92407
G1 X126.1 Y91.768 E63.94305
G1 X127.062 Y93.221 E64.00101
G1 X127.366 Y93.841 E64.02397
G1 X127.72 Y95.644 E64.08509
G1 X127.717 Y124.412 E65.04191
G1 X127.385 Y126.064 E65.09796
G1 X127.114 Y126.715 E65.12141
G1 X126.162 Y128.119 E65.17783
G1 X125.737 Y128.597 E65.19911
G1 X124.279 Y129.562 E65.25726
G1 X123.659 Y129.866 E65.28023
G1 X121.856 Y130.22 E65.34134
G1 X98.088 Y130.217 E66.13187
G1 X96.436 Y129.885 E66.18791
G1 X95.785 Y129.614 E66.21136
G1 X94.381 Y128.662 E66.26778
G1 X93.903 Y128.237 E66.28906
G1 X92.938 Y126.779 E66.34721
G1 X92.634 Y126.159 E66.37018
G1 X92.28 Y124.356 E66.43129
G1 X92.283 Y95.588 E67.38812
G1 X92.615 Y93.936 E67.44416
G1 X92.886 Y93.285 E67.46761
G1 X93.838 Y91.881 E67.52403
G1 X94.263 Y91.403 E67.54531
G0 F9000 X94.527 Y91.709
G1 F1800 X95.942 Y90.772 E67.60175
G1 X96.468 Y90.517 E67.6212
G1 X98.185 Y90.18 E67.67939
G1 X121.832 Y90.179 E68.4659
G1 X123.456 Y90.513 E68.52104
G1 X123.946 Y90.688 E68.53835
G1 X125.408 Y91.683 E68.59717
G1 X125.793 Y92.03 E68.61441
G1 X126.728 Y93.442 E68.67073
G1 X126.983 Y93.968 E68.69017
G1 X127.32 Y95.685 E68.74837
G1 X127.317 Y124.373 E69.70254
G1 X127 Y125.949 E69.75601
G1 X126.763 Y126.52 E69.77657
G1 X125.863 Y127.853 E69.83006
G1 X125.473 Y128.291 E69.84957
G1 X124.058 Y129.228 E69.90602
G1 X123.532 Y129.483 E69.92546
G1 X121.815 Y129.82 E69.98365
G1 X98.127 Y129.817 E70.77152
G1 X96.551 Y129.5 E70.82499
G1 X95.98 Y129.263 E70.84555
G1 X94.647 Y128.363 E70.89905
G1 X94.209 Y127.973 E70.91855
G1 X93.272 Y126.558 E70.975
G1 X93.017 Y126.032 E70.99444
G1 X92.68 Y124.315 E71.05264
G1 X92.683 Y95.627 E72.0068
G1 X93 Y94.051 E72.06027
G1 X93.237 Y93.48 E72.08084
G1 X94.137 Y92.147 E72.13433
G1 X94.527 Y91.709 E72.15384
G0 F9000 X94.791 Y92.014
G1 F1800 X96.116 Y91.132 E72.20678
G1 X96.597 Y90.899 E72.22455
G1 X98.221 Y90.58 E72.2796
G1 X121.791 Y90.579 E73.06354
G1 X123.321 Y90.89 E73.11547
G1 X123.766 Y91.049 E73.13119
G1 X125.14 Y91.98 E73.18639
G1 X125.487 Y92.293 E73.20193
G1 X126.368 Y93.616 E73.2548
G1 X126.601 Y94.097 E73.27257
G1 X126.92 Y95.721 E73.32762
G1 X126.917 Y124.334 E74.27929
G1 X126.615 Y125.834 E74.33018
G1 X126.41 Y126.328 E74.34797
G1 X125.564 Y127.587 E74.39842
G1 X125.209 Y127.986 E74.41619
G1 X123.884 Y128.868 E74.46913
G1 X123.403 Y129.101 E74.4869
G1 X121.779 Y129.42 E74.54195
G1 X98.166 Y129.417 E75.32732
G1 X96.666 Y129.115 E75.37821
G1 X96.172 Y128.91 E75.396
G1 X94.913 Y128.064 E75.44645
G1 X94.514 Y127.709 E75.46422
G1 X93.632 Y126.384 E75.51716
G1 X93.399 Y125.903 E75.53493
G1 X93.08 Y124.279 E75.58998
G1 X93.083 Y95.666 E76.54165
G1 X93.385 Y94.166 E76.59254
G1 X93.59 Y93.672 E76.61033
G1 X94.436 Y92.413 E76.66078
G1 X94.791 Y92.014 E76.67855
G0 F9000 X95.056 Y92.318
G1 F1800 X96.29 Y91.492 E76.72793
G1 X96.726 Y91.281 E76.74405
G1 X98.257 Y90.98 E76.79594
G1 X121.751 Y90.979 E77.57735
G1 X123.186 Y91.267 E77.62603
G1 X123.585 Y91.41 E77.64013
G1 X124.872 Y92.277 E77.69174
G1 X125.182 Y92.557 E77.70564
G1 X126.008 Y93.79 E77.755
G1 X126.219 Y94.226 E77.77111
G1 X126.52 Y95.757 E77.82301
G1 X126.517 Y124.295 E78.77218
G1 X126.231 Y125.714 E78.82033
G1 X126.055 Y126.139 E78.83563
G1 X125.265 Y127.321 E78.88292
G1 X124.944 Y127.682 E78.89898
