;FLAVOR:Marlin
;TIME:941
;Filament used: 0.653306m
;Layer height: 0.16
;MINX:91.026
;MINY:71.912
;MINZ:0.2
;MAXX:130.558
;MAXY:148.998
;MAXZ:4.4
;TARGET_MACHINE.NAME:Creality Ender-3 V3 SE
;Generated with Cura_SteamEngine 5.9.1
M82 ;absolute extrusion mode
M220 S100 ;Reset Feedrate
M221 S100 ;Reset Flowrate

G28 ;Home

M420 S1; Use saved mesh leveling data

G92 E0 ;Reset Extruder
G1 Z2.0 F3000 ;Move Z Axis up
G1 X-3 Y20 Z0.28 F5000.0 ;Move to start position
M190 S60 ; Set bed temperature and wait
M109 S200 ; Set hotend temperature and wait
G1 X-3 Y100.0 Z0.28 F1500.0 E15 ;Draw the first line
G1 X-2 Y100.0 Z0.28 F5000.0 ;Move to side a little
G1 X-2 Y20 Z0.28 F1500.0 E30 ;Draw the second line
G92 E0 ;Reset Extruder
G1 E-1.0000 F1800 ;Retract a bit
G1 Z2.0 F3000 ;Move Z Axis up
G1 E0.0000 F1800 

G92 E0
G92 E0
G1 F2400 E-0.8
;LAYER_COUNT:22
;LAYER:0
M107
G0 F9000 X115.93 Y148.89 Z0.2
;TYPE:SKIRT
G1 F2400 E0
G1 F1800 X114.286 Y148.81 E0.05474
G1 X113.706 Y148.998 E0.07502
G1 X111.663 Y148.94 E0.143
G1 X111.347 Y148.893 E0.15363
G1 X110.925 Y148.847 E0.16775
G1 X107.924 Y148.129 E0.27038
G1 X106.554 Y147.595 E0.31928
G1 X105.145 Y146.908 E0.37142
G1 X104.241 Y146.144 E0.41079
G1 X103.928 Y146.028 E0.42189
G1 X102.409 Y145.106 E0.48099
G1 X100.768 Y143.434 E0.55891
G1 X99.704 Y142.165 E0.61399
G1 X98.899 Y140.981 E0.66161
G1 X98.664 Y140.536 E0.67835
G1 X98.061 Y139.566 E0.71633
G1 X97.874 Y139.142 E0.73175
G1 X97.686 Y138.094 E0.76716
G1 X97.286 Y137.542 E0.78983
G1 X96.896 Y136.261 E0.83437
G1 X96.295 Y135.599 E0.86411
G1 X95.29 Y133.319 E0.94698
G1 X95.081 Y132.564 E0.97304
G1 X95.031 Y130.708 E1.03479
G1 X95.29 Y128.396 E1.11217
G1 X95.708 Y126.605 E1.17334
G1 X96.68 Y124.923 E1.23795
G1 X97.193 Y124.235 E1.2665
G1 X91.026 Y79.18 E2.77901
G1 X91.18 Y77.579 E2.8325
G1 X91.425 Y76.466 E2.87041
G1 X92.289 Y74.89 E2.93018
G1 X93.482 Y73.521 E2.99058
G1 X95.178 Y72.503 E3.05637
G1 X97.003 Y71.912 E3.12017
G1 X98.986 Y71.944 E3.18614
G1 X100.902 Y72.432 E3.2519
G1 X102.963 Y73.803 E3.33423
G1 X104.119 Y75.376 E3.39916
G1 X127.153 Y123.884 E5.18519
G1 X127.408 Y124.042 E5.19517
G1 X128.333 Y124.98 E5.23899
G1 X129.218 Y126.109 E5.2867
G1 X129.868 Y127.654 E5.34245
G1 X129.95 Y127.949 E5.35263
G1 X130.108 Y128.261 E5.36427
G1 X130.558 Y130.019 E5.42462
G1 X130.517 Y131.992 E5.49026
G1 X130.396 Y132.366 E5.50333
G1 X130.345 Y133.401 E5.5378
G1 X130.125 Y135.121 E5.59547
G1 X129.604 Y136.423 E5.64211
G1 X129.468 Y137.548 E5.6798
G1 X128.678 Y139.445 E5.74815
G1 X128.309 Y140.153 E5.77471
G1 X127.204 Y141.925 E5.84416
G1 X126.227 Y143.164 E5.89664
G1 X125.983 Y143.412 E5.90821
G1 X125.117 Y144.336 E5.95034
G1 X124.022 Y145.036 E5.99356
G1 X123.668 Y145.569 E6.01484
G1 X121.932 Y146.716 E6.08405
G1 X121.133 Y147.116 E6.11377
G1 X120.724 Y147.338 E6.12924
G1 X118.54 Y148.227 E6.20767
G1 X117.386 Y148.55 E6.24753
G1 X116.967 Y148.62 E6.26166
G1 X115.93 Y148.89 E6.2973
G0 F9000 X115.89 Y148.487
G1 F1800 X114.233 Y148.407 E6.35247
G1 X113.648 Y148.596 E6.37292
G1 X111.722 Y148.544 E6.437
G1 X111.4 Y148.496 E6.44783
G1 X110.968 Y148.449 E6.46229
G1 X108.017 Y147.74 E6.56323
G1 X106.729 Y147.235 E6.60924
G1 X105.365 Y146.57 E6.65971
G1 X104.442 Y145.79 E6.69991
G1 X104.135 Y145.686 E6.71069
G1 X102.658 Y144.79 E6.76815
G1 X101.075 Y143.177 E6.84331
G1 X100.011 Y141.908 E6.89839
G1 X99.253 Y140.794 E6.94321
G1 X99.014 Y140.342 E6.96022
G1 X98.427 Y139.405 E6.99699
G1 X98.26 Y139.026 E7.01077
G1 X98.064 Y137.934 E7.04767
G1 X97.65 Y137.362 E7.07115
G1 X97.253 Y136.059 E7.11646
G1 X96.635 Y135.379 E7.14702
G1 X95.676 Y133.212 E7.22584
G1 X95.48 Y132.503 E7.2503
G1 X95.431 Y130.697 E7.31039
G1 X95.68 Y128.487 E7.38436
G1 X96.084 Y126.754 E7.44355
G1 X97.001 Y125.162 E7.50465
G1 X97.611 Y124.343 E7.53862
G1 X91.428 Y79.173 E9.05499
G1 X91.571 Y77.665 E9.10537
G1 X91.804 Y76.607 E9.1414
G1 X92.618 Y75.122 E9.19773
G1 X93.743 Y73.831 E9.25468
G1 X95.344 Y72.87 E9.31679
G1 X97.064 Y72.313 E9.37692
G1 X98.931 Y72.343 E9.43902
G1 X100.738 Y72.803 E9.50104
G1 X102.683 Y74.098 E9.57876
G1 X103.774 Y75.582 E9.64002
G1 X126.847 Y124.172 E11.42908
G1 X127.124 Y124.323 E11.43957
G1 X128.018 Y125.227 E11.48186
G1 X128.87 Y126.314 E11.5278
G1 X129.499 Y127.809 E11.58174
G1 X129.575 Y128.092 E11.59149
G1 X129.732 Y128.404 E11.6031
G1 X130.157 Y130.063 E11.66007
G1 X130.118 Y131.927 E11.72208
G1 X129.998 Y132.297 E11.73501
G1 X129.945 Y133.381 E11.77111
G1 X129.734 Y135.021 E11.82611
G1 X129.213 Y136.323 E11.87275
G1 X129.078 Y137.445 E11.91034
G1 X128.325 Y139.256 E11.97557
G1 X128.096 Y139.684 E11.99171
G1 X127.969 Y139.942 E12.00128
G1 X126.889 Y141.678 E12.06928
G1 X125.942 Y142.883 E12.12025
G1 X125.698 Y143.131 E12.13183
G1 X124.857 Y144.028 E12.17272
G1 X123.736 Y144.744 E12.21696
G1 X123.38 Y145.28 E12.23836
G1 X121.712 Y146.382 E12.30486
G1 X120.942 Y146.764 E12.33345
G1 X120.533 Y146.986 E12.34892
G1 X118.432 Y147.842 E12.42438
G1 X117.32 Y148.155 E12.4628
G1 X116.889 Y148.227 E12.47734
G1 X115.89 Y148.487 E12.51167
G0 F9000 X115.85 Y148.084
G1 F1800 X114.18 Y148.003 E12.56728
G1 X113.59 Y148.194 E12.58791
G1 X111.781 Y148.148 E12.64809
G1 X111.45 Y148.099 E12.65922
G1 X111.012 Y148.051 E12.67388
G1 X108.163 Y147.367 E12.77133
G1 X106.904 Y146.875 E12.81629
G1 X105.585 Y146.232 E12.86509
G1 X104.636 Y145.43 E12.90642
G1 X104.343 Y145.344 E12.91657
G1 X102.906 Y144.472 E12.97248
G1 X101.382 Y142.92 E13.04483
G1 X100.318 Y141.651 E13.09991
G1 X99.607 Y140.607 E13.14192
G1 X99.368 Y140.155 E13.15892
G1 X98.793 Y139.244 E13.19475
G1 X98.646 Y138.91 E13.20689
G1 X98.442 Y137.773 E13.24531
G1 X98.013 Y137.181 E13.26963
G1 X97.61 Y135.857 E13.31566
G1 X96.974 Y135.157 E13.34712
G1 X96.062 Y133.106 E13.42177
G1 X95.879 Y132.443 E13.44465
G1 X95.831 Y130.686 E13.50311
G1 X96.07 Y128.578 E13.57367
G1 X96.461 Y126.901 E13.63094
G1 X97.322 Y125.401 E13.68847
G1 X98.029 Y124.451 E13.72786
G1 X91.83 Y79.165 E15.24812
G1 X91.962 Y77.751 E15.29535
G1 X92.183 Y76.748 E15.32951
G1 X92.947 Y75.354 E15.38239
G1 X94.004 Y74.141 E15.4359
G1 X95.51 Y73.237 E15.49432
G1 X97.125 Y72.714 E15.55078
G1 X98.876 Y72.742 E15.60903
G1 X100.574 Y73.174 E15.6673
G1 X102.403 Y74.393 E15.74041
G1 X103.429 Y75.788 E15.798
G1 X126.541 Y124.461 E17.59011
G1 X126.879 Y124.645 E17.60291
G1 X127.703 Y125.474 E17.64179
G1 X128.522 Y126.519 E17.68595
G1 X129.13 Y127.964 E17.73809
G1 X129.199 Y128.238 E17.74749
G1 X129.345 Y128.503 E17.75755
G1 X129.756 Y130.107 E17.81262
G1 X129.719 Y131.859 E17.87091
G1 X129.601 Y132.225 E17.8837
G1 X129.545 Y133.361 E17.92153
G1 X129.343 Y134.921 E17.97385
G1 X128.871 Y136.111 E18.01643
G1 X128.824 Y136.205 E18.01992
G1 X128.688 Y137.344 E18.05807
G1 X127.972 Y139.067 E18.12013
G1 X127.743 Y139.495 E18.13628
G1 X127.61 Y139.765 E18.14629
G1 X126.55 Y141.466 E18.21295
G1 X125.657 Y142.602 E18.26101
G1 X125.413 Y142.85 E18.27258
G1 X124.597 Y143.72 E18.31225
G1 X123.45 Y144.452 E18.35751
G1 X123.093 Y144.989 E18.37896
G1 X121.491 Y146.048 E18.44283
G1 X120.751 Y146.412 E18.47026
G1 X120.342 Y146.634 E18.48574
G1 X118.323 Y147.457 E18.55825
G1 X117.254 Y147.76 E18.59521
G1 X116.811 Y147.834 E18.61015
G1 X115.85 Y148.084 E18.64317
G0 F9000 X115.81 Y147.681
G1 F1800 X114.317 Y147.609 E18.69289
G1 X114.169 Y147.586 E18.69787
G1 X113.531 Y147.792 E18.72017
G1 X111.839 Y147.752 E18.77646
G1 X111.494 Y147.701 E18.78806
G1 X111.056 Y147.653 E18.80272
G1 X108.308 Y146.994 E18.89671
G1 X107.079 Y146.515 E18.94058
G1 X105.802 Y145.893 E18.98782
G1 X104.828 Y145.069 E19.03025
G1 X104.505 Y144.975 E19.04144
G1 X103.155 Y144.156 E19.09396
G1 X101.688 Y142.663 E19.16358
G1 X100.648 Y141.425 E19.21736
G1 X99.961 Y140.42 E19.25785
G1 X99.718 Y139.96 E19.27515
G1 X99.159 Y139.082 E19.30977
G1 X99.031 Y138.792 E19.32031
G1 X98.82 Y137.612 E19.36018
G1 X98.377 Y137.001 E19.38528
G1 X97.967 Y135.655 E19.43208
G1 X97.313 Y134.935 E19.46443
G1 X96.427 Y132.943 E19.53694
G1 X96.278 Y132.386 E19.55612
G1 X96.229 Y130.731 E19.61119
G1 X96.46 Y128.669 E19.6802
G1 X96.838 Y127.048 E19.73556
G1 X97.644 Y125.639 E19.78955
G1 X98.322 Y124.722 E19.82748
G1 X98.452 Y124.594 E19.83355
G1 X92.232 Y79.157 E21.35889
G1 X92.353 Y77.837 E21.40297
G1 X92.562 Y76.889 E21.43526
G1 X93.276 Y75.586 E21.48468
G1 X94.265 Y74.451 E21.53475
G1 X95.676 Y73.604 E21.58949
G1 X97.186 Y73.115 E21.64228
G1 X98.821 Y73.141 E21.69666
G1 X100.409 Y73.545 E21.75116
G1 X102.123 Y74.688 E21.81969
G1 X103.084 Y75.994 E21.87362
G1 X126.235 Y124.749 E23.66874
G1 X126.635 Y124.967 E23.6839
G1 X127.388 Y125.721 E23.71934
G1 X128.174 Y126.724 E23.76172
G1 X128.761 Y128.119 E23.81206
G1 X128.821 Y128.38 E23.82097
G1 X128.971 Y128.652 E23.8313
G1 X129.355 Y130.151 E23.88277
G1 X129.32 Y131.792 E23.93736
G1 X129.204 Y132.155 E23.95003
G1 X129.145 Y133.341 E23.98953
G1 X128.953 Y134.82 E24.03913
G1 X128.499 Y135.963 E24.08004
G1 X128.435 Y136.087 E24.08468
G1 X128.298 Y137.239 E24.12326
G1 X127.619 Y138.878 E24.18227
G1 X127.39 Y139.306 E24.19842
G1 X127.251 Y139.588 E24.20887
G1 X126.211 Y141.254 E24.27419
G1 X125.372 Y142.321 E24.31934
G1 X125.128 Y142.569 E24.33091
G1 X124.34 Y143.41 E24.36924
G1 X123.164 Y144.16 E24.41563
G1 X122.805 Y144.7 E24.4372
G1 X121.314 Y145.689 E24.49671
G1 X120.56 Y146.06 E24.52466
G1 X120.151 Y146.282 E24.54014
G1 X118.213 Y147.072 E24.60975
G1 X117.188 Y147.365 E24.6452
G1 X116.733 Y147.441 E24.66055
G1 X115.81 Y147.681 E24.69227
G0 F9000 X115.77 Y147.278
G1 F1800 X114.336 Y147.209 E24.74002
G1 X114.141 Y147.174 E24.74661
G1 X113.472 Y147.39 E24.76999
G1 X111.897 Y147.356 E24.82238
G1 X111.538 Y147.303 E24.83445
G1 X111.1 Y147.255 E24.84911
G1 X108.453 Y146.621 E24.93964
G1 X107.254 Y146.155 E24.98242
G1 X106.022 Y145.555 E25.028
G1 X105.125 Y144.8 E25.067
G1 X105.043 Y144.715 E25.07093
G1 X104.667 Y144.606 E25.08395
G1 X103.404 Y143.84 E25.13308
G1 X101.994 Y142.406 E25.19997
G1 X100.978 Y141.198 E25.25246
G1 X100.315 Y140.233 E25.29141
G1 X100.069 Y139.767 E25.30893
G1 X99.525 Y138.921 E25.34239
G1 X99.417 Y138.676 E25.35129
G1 X99.198 Y137.451 E25.39268
G1 X98.741 Y136.821 E25.41857
G1 X98.324 Y135.453 E25.46613
G1 X97.652 Y134.713 E25.49938
G1 X96.792 Y132.78 E25.56975
G1 X96.677 Y132.331 E25.58516
G1 X96.629 Y130.719 E25.6388
G1 X96.85 Y128.76 E25.70437
G1 X97.215 Y127.196 E25.75779
G1 X97.966 Y125.877 E25.80827
G1 X98.644 Y124.96 E25.8462
G1 X98.876 Y124.748 E25.85666
G1 X92.634 Y79.148 E27.38746
G1 X92.744 Y77.923 E27.42837
G1 X92.941 Y77.03 E27.45878
G1 X93.605 Y75.818 E27.50475
G1 X94.526 Y74.761 E27.55138
G1 X95.842 Y73.971 E27.60243
G1 X97.247 Y73.516 E27.65155
G1 X98.766 Y73.54 E27.70208
G1 X100.244 Y73.916 E27.7528
G1 X101.843 Y74.983 E27.81674
G1 X102.739 Y76.2 E27.867
G1 X125.93 Y125.038 E29.6652
G1 X126.392 Y125.29 E29.6827
G1 X127.105 Y126.004 E29.71626
G1 X127.825 Y126.927 E29.7552
G1 X128.371 Y128.209 E29.80154
G1 X128.443 Y128.522 E29.81222
G1 X128.597 Y128.801 E29.82282
G1 X128.954 Y130.195 E29.87068
G1 X128.921 Y131.726 E29.92162
G1 X128.806 Y132.084 E29.93412
G1 X128.748 Y133.289 E29.97425
G1 X128.562 Y134.719 E30.02221
G1 X128.127 Y135.815 E30.06143
G1 X128.047 Y135.965 E30.06708
G1 X127.908 Y137.135 E30.10627
G1 X127.266 Y138.689 E30.1622
G1 X127.037 Y139.117 E30.17834
G1 X126.892 Y139.411 E30.18924
G1 X125.872 Y141.042 E30.25323
G1 X125.087 Y142.04 E30.29546
G1 X124.843 Y142.288 E30.30703
G1 X124.082 Y143.1 E30.34404
G1 X122.997 Y143.797 E30.38693
G1 X122.895 Y143.843 E30.39066
G1 X122.518 Y144.41 E30.4133
G1 X121.137 Y145.33 E30.46849
G1 X120.369 Y145.708 E30.49696
G1 X119.96 Y145.93 E30.51244
G1 X118.102 Y146.688 E30.57918
G1 X117.122 Y146.97 E30.6131
G1 X116.655 Y147.048 E30.62885
G1 X115.77 Y147.278 E30.65926
G0 F9000 X115.73 Y146.875
G1 F1800 X114.355 Y146.809 E30.70505
G1 X114.117 Y146.761 E30.71312
G1 X113.412 Y146.989 E30.73777
G1 X111.956 Y146.96 E30.7862
G1 X111.591 Y146.906 E30.79848
G1 X111.143 Y146.857 E30.81347
G1 X108.598 Y146.248 E30.9005
G1 X107.429 Y145.795 E30.9422
G1 X106.242 Y145.217 E30.98611
G1 X105.383 Y144.494 E31.02346
G1 X105.262 Y144.362 E31.02941
G1 X104.828 Y144.236 E31.04444
G1 X103.653 Y143.524 E31.09014
G1 X102.3 Y142.148 E31.15432
G1 X101.308 Y140.971 E31.20552
G1 X100.645 Y140.006 E31.24446
G1 X100.42 Y139.574 E31.26066
G1 X99.861 Y138.705 E31.29503
G1 X99.803 Y138.559 E31.30025
G1 X99.576 Y137.29 E31.34313
G1 X99.105 Y136.641 E31.3698
G1 X98.681 Y135.252 E31.4181
G1 X97.992 Y134.492 E31.45222
G1 X97.18 Y132.681 E31.51823
G1 X97.076 Y132.274 E31.53221
G1 X97.029 Y130.707 E31.58435
G1 X97.24 Y128.851 E31.64648
G1 X97.592 Y127.343 E31.69798
G1 X98.314 Y126.075 E31.74651
G1 X98.965 Y125.198 E31.78284
G1 X99.302 Y124.91 E31.79758
G1 X93.037 Y79.142 E33.33403
G1 X93.135 Y78.009 E33.37185
G1 X93.32 Y77.171 E33.4004
G1 X93.934 Y76.05 E33.44291
G1 X94.787 Y75.071 E33.4861
G1 X96.008 Y74.338 E33.53346
G1 X97.308 Y73.917 E33.57891
G1 X98.711 Y73.939 E33.62558
G1 X100.079 Y74.287 E33.67253
G1 X101.563 Y75.278 E33.73188
G1 X102.394 Y76.406 E33.77848
G1 X125.625 Y125.327 E35.57974
G1 X126.149 Y125.613 E35.59959
G1 X126.822 Y126.287 E35.63127
G1 X127.477 Y127.131 E35.66681
G1 X128.003 Y128.366 E35.71145
G1 X128.063 Y128.663 E35.72153
G1 X128.223 Y128.952 E35.73252
G1 X128.553 Y130.239 E35.77671
G1 X128.522 Y131.658 E35.82392
G1 X128.408 Y132.012 E35.83629
G1 X128.351 Y133.238 E35.87711
G1 X128.172 Y134.617 E35.92336
G1 X127.755 Y135.667 E35.96093
G1 X127.659 Y135.838 E35.96746
G1 X127.518 Y137.032 E36.00744
G1 X126.913 Y138.5 E36.06025
G1 X126.684 Y138.928 E36.0764
G1 X126.533 Y139.234 E36.08775
G1 X125.533 Y140.83 E36.15039
G1 X124.802 Y141.759 E36.18971
G1 X124.558 Y142.007 E36.20128
G1 X123.823 Y142.791 E36.23702
G1 X122.832 Y143.432 E36.27628
G1 X122.626 Y143.525 E36.2838
G1 X122.228 Y144.123 E36.30769
G1 X120.961 Y144.971 E36.3584
G1 X120.178 Y145.356 E36.38742
G1 X119.769 Y145.578 E36.40289
G1 X117.991 Y146.304 E36.46677
G1 X117.057 Y146.575 E36.49912
G1 X116.575 Y146.655 E36.51537
G1 X115.73 Y146.875 E36.54441
G0 F9000 X115.69 Y146.472
G1 F1800 X114.374 Y146.409 E36.58823
G1 X114.101 Y146.346 E36.59755
G1 X113.355 Y146.588 E36.62363
G1 X112.015 Y146.564 E36.66821
G1 X111.644 Y146.509 E36.68068
G1 X111.186 Y146.459 E36.69601
G1 X108.742 Y145.875 E36.77958
G1 X107.604 Y145.435 E36.82016
G1 X106.462 Y144.879 E36.86241
G1 X105.641 Y144.188 E36.8981
G1 X105.488 Y144.011 E36.90588
G1 X104.989 Y143.866 E36.92317
G1 X103.905 Y143.209 E36.96532
G1 X102.606 Y141.89 E37.0269
G1 X101.638 Y140.744 E37.07679
G1 X100.975 Y139.779 E37.11573
G1 X100.771 Y139.382 E37.13058
G1 X100.197 Y138.489 E37.16589
G1 X99.954 Y137.129 E37.21184
G1 X99.469 Y136.461 E37.23929
G1 X99.038 Y135.05 E37.28836
G1 X98.331 Y134.271 E37.32335
G1 X97.545 Y132.517 E37.38728
G1 X97.475 Y132.22 E37.39743
G1 X97.427 Y130.752 E37.44628
G1 X97.63 Y128.942 E37.50686
G1 X97.969 Y127.49 E37.55645
G1 X98.662 Y126.273 E37.60303
G1 X99.26 Y125.472 E37.63628
G1 X99.728 Y125.073 E37.65673
G1 X93.439 Y79.135 E39.19889
G1 X93.526 Y78.095 E39.2336
G1 X93.699 Y77.312 E39.26027
G1 X94.263 Y76.282 E39.29933
G1 X95.048 Y75.381 E39.33908
G1 X96.174 Y74.705 E39.38276
G1 X97.369 Y74.318 E39.42454
G1 X98.656 Y74.338 E39.46735
G1 X99.914 Y74.658 E39.51052
G1 X101.283 Y75.573 E39.56529
G1 X102.049 Y76.612 E39.60822
G1 X125.319 Y125.616 E41.41253
G1 X125.905 Y125.935 E41.43472
G1 X126.539 Y126.57 E41.46457
G1 X127.129 Y127.335 E41.4967
G1 X127.619 Y128.486 E41.5383
G1 X127.683 Y128.804 E41.54909
G1 X127.849 Y129.103 E41.56047
G1 X128.152 Y130.283 E41.60099
G1 X128.123 Y131.59 E41.64447
G1 X128.01 Y131.941 E41.65673
G1 X127.954 Y133.186 E41.69818
G1 X127.781 Y134.516 E41.74279
G1 X127.383 Y135.519 E41.77868
G1 X127.259 Y135.728 E41.78677
G1 X127.259 Y135.862 E41.79122
G1 X127.127 Y136.93 E41.82702
G1 X126.56 Y138.311 E41.87667
G1 X126.331 Y138.739 E41.89281
G1 X126.174 Y139.057 E41.90461
G1 X125.218 Y140.583 E41.9645
G1 X124.517 Y141.478 E42.00231
G1 X124.273 Y141.726 E42.01388
G1 X123.563 Y142.483 E42.0484
G1 X122.615 Y143.096 E42.08595
G1 X122.36 Y143.202 E42.09514
G1 X121.94 Y143.835 E42.1204
G1 X120.784 Y144.612 E42.16673
G1 X119.987 Y145.004 E42.19627
