;FLAVOR:Marlin
;TIME:9501
;Filament used: 7.02756m
;Layer height: 0.16
;MINX:75.859
;MINY:72.557
;MINZ:0.2
;MAXX:139.242
;MAXY:147.256
;MAXZ:34.96
;TARGET_MACHINE.NAME:Creality Ender-3 V3 SE
;Generated with Cura_SteamEngine 5.9.1
M82 ;absolute extrusion mode
M220 S100 ;Reset Feedrate
M221 S100 ;Reset Flowrate

G28 ;Home

M420 S1; Use saved mesh leveling data

G92 E0 ;Reset Extruder
G1 Z2.0 F3000 ;Move Z Axis up
G1 X-3 Y20 Z0.28 F5000.0 ;Move to start position
M190 S60 ; Set bed temperature and wait
M109 S200 ; Set hotend temperature and wait
G1 X-3 Y100.0 Z0.28 F1500.0 E15 ;Draw the first line
G1 X-2 Y100.0 Z0.28 F5000.0 ;Move to side a little
G1 X-2 Y20 Z0.28 F1500.0 E30 ;Draw the second line
G92 E0 ;Reset Extruder
G1 E-1.0000 F1800 ;Retract a bit
G1 Z2.0 F3000 ;Move Z Axis up
G1 E0.0000 F1800 

G92 E0
G92 E0
G1 F2400 E-0.8
;LAYER_COUNT:242
;LAYER:0
M107
G0 F9000 X91.661 Y144.875 Z0.2
;TYPE:SKIRT
G1 F2400 E0
G1 F1800 X91.026 Y145.099 E0.0224
G1 X89.032 Y145.063 E0.08873
G1 X87.866 Y144.911 E0.12784
G1 X87.737 Y144.914 E0.13213
G1 X86.193 Y144.828 E0.18356
G1 X84.98 Y144.609 E0.22456
G1 X83.316 Y143.793 E0.2862
G1 X80.755 Y141.627 E0.39776
G1 X79.807 Y140.279 E0.45257
G1 X79.308 Y139.359 E0.48738
G1 X78.467 Y135.762 E0.61024
G1 X78.469 Y134.022 E0.66812
G1 X78.704 Y133.148 E0.69822
G1 X78.704 Y118.268 E1.19313
G1 X78.528 Y118.023 E1.20316
G1 X77.744 Y116.202 E1.2691
G1 X77.465 Y115.225 E1.3029
G1 X77.427 Y113.259 E1.3683
G1 X76.465 Y111.478 E1.43563
G1 X76.237 Y110.275 E1.47635
G1 X76.139 Y109.875 E1.49005
G1 X75.879 Y108.384 E1.54039
G1 X75.912 Y107.266 E1.57759
G1 X75.859 Y104.986 E1.65344
G1 X76.214 Y103.649 E1.69945
G1 X76.289 Y103.33 E1.71035
G1 X76.829 Y101.488 E1.77419
G1 X77.439 Y100.613 E1.80967
G1 X77.435 Y98.882 E1.86724
G1 X77.924 Y97.286 E1.92276
G1 X78.54 Y95.917 E1.97269
G1 X78.701 Y95.699 E1.98171
G1 X78.701 Y86.844 E2.27623
G1 X78.552 Y86.344 E2.29358
G1 X78.417 Y85.427 E2.32441
G1 X78.625 Y83.491 E2.38917
G1 X79.244 Y80.836 E2.47984
G1 X80.092 Y79.239 E2.53998
G1 X80.674 Y78.431 E2.5731
G1 X83.159 Y76.322 E2.68151
G1 X84.475 Y75.645 E2.73073
G1 X85.758 Y75.165 E2.77629
G1 X87.713 Y75.071 E2.84139
G1 X87.98 Y75.085 E2.85028
G1 X89.764 Y74.843 E2.91016
G1 X91.359 Y75.018 E2.96353
G1 X91.662 Y75.124 E2.97421
G1 X114.473 Y75.125 E3.7329
G1 X114.711 Y74.885 E3.74415
G1 X116.153 Y74.027 E3.79996
G1 X118.321 Y73.081 E3.87863
G1 X119.765 Y72.672 E3.92855
G1 X122.068 Y72.557 E4.00524
G1 X124.09 Y72.824 E4.07308
G1 X125.752 Y73.475 E4.13244
G1 X127.047 Y74.171 E4.18134
G1 X128.003 Y74.795 E4.21931
G1 X129.204 Y74.503 E4.26042
G1 X131.686 Y74.545 E4.34298
G1 X134.367 Y75.51 E4.43776
G1 X136.605 Y77.269 E4.53243
G1 X138.086 Y79.359 E4.61763
G1 X138.876 Y81.811 E4.70331
G1 X139.242 Y83.472 E4.75988
G1 X139.006 Y86.347 E4.85583
G1 X138.193 Y87.996 E4.91698
G1 X137.957 Y89.01 E4.9516
G1 X137.333 Y90.663 E5.01037
G1 X136.471 Y92.293 E5.0717
G1 X134.574 Y93.956 E5.1556
G1 X132.698 Y94.958 E5.22634
G1 X132.238 Y95.127 E5.24264
G1 X130.524 Y95.33 E5.30005
G1 X129.905 Y95.46 E5.32108
G1 X128.447 Y95.447 E5.36958
G1 X128.255 Y95.419 E5.37603
G1 X127.985 Y95.437 E5.38503
G1 X126.822 Y96.323 E5.43366
G1 X124.502 Y97.158 E5.51567
G1 X122.724 Y97.412 E5.57541
G1 X121.194 Y97.335 E5.62636
G1 X119.008 Y97.296 E5.69908
G1 X116.686 Y96.514 E5.78057
G1 X116.046 Y96.202 E5.80425
G1 X114.425 Y94.827 E5.87495
G1 X113.718 Y94.068 E5.90945
G1 X102.048 Y94.078 E6.2976
G1 X102.048 Y99.102 E6.46469
G1 X102.584 Y99.539 E6.4877
G1 X104.309 Y102.074 E6.58968
G1 X105.143 Y104.072 E6.66169
G1 X105.436 Y106.102 E6.72991
G1 X105.514 Y107.977 E6.79232
G1 X105.054 Y110.361 E6.87308
G1 X104.305 Y111.874 E6.92923
G1 X102.474 Y114.542 E7.03686
G1 X102.048 Y114.993 E7.05749
G1 X102.048 Y125.92 E7.42092
G1 X113.454 Y125.932 E7.80029
G1 X113.64 Y125.717 E7.80974
G1 X114.726 Y124.655 E7.86026
G1 X116.424 Y123.723 E7.92469
G1 X117.925 Y123.259 E7.97694
G1 X119.444 Y122.756 E8.03016
G1 X120.303 Y122.58 E8.05933
G1 X123.383 Y122.798 E8.16202
G1 X124.326 Y123.007 E8.19415
G1 X126.957 Y123.819 E8.28573
G1 X127.995 Y124.607 E8.32908
G1 X129.414 Y124.485 E8.37645
G1 X132.408 Y124.951 E8.47723
G1 X134.323 Y125.882 E8.54805
G1 X136.101 Y127.323 E8.62417
G1 X137.374 Y129.282 E8.70187
G1 X138.147 Y131.501 E8.78003
G1 X138.225 Y132.039 E8.79811
G1 X138.375 Y132.35 E8.80959
G1 X138.882 Y133.625 E8.85523
G1 X139.151 Y135.409 E8.91523
G1 X139.207 Y136.824 E8.96233
G1 X138.634 Y139.036 E9.03833
G1 X138.015 Y140.81 E9.10083
G1 X136.547 Y142.748 E9.18169
G1 X134.98 Y144.06 E9.24966
G1 X133.297 Y144.959 E9.31313
G1 X130.854 Y145.591 E9.39706
G1 X128.557 Y145.322 E9.47398
G1 X128.402 Y145.288 E9.47925
G1 X126.459 Y146.36 E9.55306
G1 X124.267 Y146.971 E9.62875
G1 X122.948 Y147.256 E9.67363
G1 X119.904 Y147.255 E9.77487
G1 X118.591 Y146.949 E9.81971
G1 X116.101 Y146.162 E9.90657
G1 X114.231 Y145.003 E9.97974
G1 X114.091 Y144.875 E9.98605
G1 X91.661 Y144.875 E10.73208
G0 F9000 X91.593 Y144.475
G1 F1800 X90.962 Y144.698 E10.75434
G1 X89.084 Y144.666 E10.81681
G1 X87.889 Y144.51 E10.85689
G1 X87.727 Y144.514 E10.86228
G1 X86.264 Y144.434 E10.91101
G1 X85.104 Y144.225 E10.95022
G1 X83.535 Y143.455 E11.00835
G1 X81.055 Y141.357 E11.11639
G1 X80.159 Y140.088 E11.16806
G1 X79.684 Y139.212 E11.2012
G1 X78.867 Y135.718 E11.32055
G1 X78.869 Y134.074 E11.37523
G1 X79.104 Y133.2 E11.40533
G1 X79.104 Y118.129 E11.90659
G1 X78.895 Y117.864 E11.91782
G1 X78.129 Y116.092 E11.98202
G1 X77.864 Y115.164 E12.01412
G1 X77.825 Y113.154 E12.08099
G1 X76.846 Y111.342 E12.14949
G1 X76.626 Y110.18 E12.18883
G1 X76.528 Y109.78 E12.20252
G1 X76.28 Y108.356 E12.2506
G1 X76.312 Y107.278 E12.28647
G1 X76.26 Y105.035 E12.36109
G1 X76.601 Y103.752 E12.40525
G1 X76.673 Y103.443 E12.4158
G1 X77.195 Y101.663 E12.47749
G1 X77.839 Y100.738 E12.51498
G1 X77.835 Y98.942 E12.57472
G1 X78.289 Y97.45 E12.62659
G1 X78.905 Y96.081 E12.67652
G1 X79.101 Y95.84 E12.68685
G1 X79.101 Y86.786 E12.98799
G1 X78.948 Y86.286 E13.00538
G1 X78.82 Y85.419 E13.03453
G1 X79.015 Y83.582 E13.09597
G1 X79.622 Y80.977 E13.18493
G1 X80.417 Y79.473 E13.24152
G1 X80.971 Y78.704 E13.27304
G1 X83.385 Y76.655 E13.37835
G1 X84.615 Y76.02 E13.42439
G1 X85.839 Y75.562 E13.46786
G1 X87.732 Y75.471 E13.53089
G1 X87.996 Y75.486 E13.53969
G1 X89.766 Y75.246 E13.5991
G1 X91.27 Y75.411 E13.64942
G1 X91.593 Y75.524 E13.6608
G1 X114.652 Y75.525 E14.42775
G1 X114.916 Y75.229 E14.44094
G1 X116.358 Y74.371 E14.49675
G1 X118.43 Y73.466 E14.57195
G1 X119.829 Y73.07 E14.62031
G1 X122.052 Y72.959 E14.69434
G1 X123.99 Y73.215 E14.75936
G1 X125.563 Y73.828 E14.81551
G1 X126.828 Y74.506 E14.86324
G1 X127.93 Y75.225 E14.90701
G1 X129.25 Y74.904 E14.95219
G1 X131.615 Y74.944 E15.03086
G1 X134.171 Y75.864 E15.12121
G1 X136.312 Y77.547 E15.21179
G1 X137.723 Y79.538 E15.29296
G1 X138.485 Y81.897 E15.37541
G1 X138.838 Y83.499 E15.42997
G1 X138.613 Y86.239 E15.52141
G1 X137.814 Y87.86 E15.58152
G1 X137.583 Y88.869 E15.61594
G1 X136.979 Y90.476 E15.67304
G1 X136.152 Y92.041 E15.73192
G1 X134.343 Y93.626 E15.81191
G1 X132.51 Y94.605 E15.88103
G1 X132.143 Y94.736 E15.89399
G1 X130.462 Y94.935 E15.95029
G1 X129.868 Y95.06 E15.97048
G1 X128.451 Y95.047 E16.01761
G1 X128.268 Y95.016 E16.02378
G1 X128.014 Y95.038 E16.03226
G1 X127.86 Y95.029 E16.03739
G1 X126.627 Y95.969 E16.08896
G1 X124.408 Y96.767 E16.16739
G1 X122.703 Y97.011 E16.22468
G1 X121.201 Y96.935 E16.2747
G1 X119.076 Y96.897 E16.34539
G1 X116.861 Y96.154 E16.4231
G1 X116.264 Y95.863 E16.44519
G1 X114.718 Y94.554 E16.51256
G1 X113.893 Y93.668 E16.55283
G1 X101.648 Y93.678 E16.9601
G1 X101.648 Y99.292 E17.14682
G1 X102.286 Y99.812 E17.1742
G1 X103.956 Y102.267 E17.27295
G1 X104.754 Y104.178 E17.34183
G1 X105.036 Y106.119 E17.40707
G1 X105.112 Y107.947 E17.46792
G1 X104.671 Y110.232 E17.54532
G1 X103.946 Y111.697 E17.59969
G1 X102.183 Y114.267 E17.70334
G1 X101.648 Y114.834 E17.72927
G1 X101.648 Y126.32 E18.1113
G1 X113.637 Y126.332 E18.51005
G1 X113.92 Y126.003 E18.52449
G1 X114.967 Y124.979 E18.5732
G1 X116.582 Y124.093 E18.63447
G1 X118.051 Y123.639 E18.6856
G1 X119.57 Y123.136 E18.73882
G1 X120.329 Y122.983 E18.76458
G1 X123.296 Y123.189 E18.8635
G1 X124.239 Y123.398 E18.89562
G1 X126.77 Y124.18 E18.98373
G1 X127.855 Y125.004 E19.02904
G1 X128.235 Y124.989 E19.04169
G1 X129.403 Y124.888 E19.08069
G1 X132.285 Y125.336 E19.17769
G1 X134.107 Y126.222 E19.24508
G1 X135.801 Y127.595 E19.3176
G1 X137.012 Y129.458 E19.39151
G1 X137.756 Y131.596 E19.4668
G1 X137.838 Y132.157 E19.48566
G1 X138.003 Y132.498 E19.49826
G1 X138.494 Y133.734 E19.54249
G1 X138.751 Y135.425 E19.59938
G1 X138.805 Y136.783 E19.64458
G1 X138.256 Y138.904 E19.71745
G1 X137.658 Y140.618 E19.77783
G1 X136.255 Y142.47 E19.85511
G1 X134.753 Y143.728 E19.92027
G1 X133.15 Y144.584 E19.98071
G1 X130.826 Y145.185 E20.06055
G1 X128.643 Y144.931 E20.13365
G1 X128.278 Y144.851 E20.14608
G1 X128.116 Y144.989 E20.15316
G1 X126.306 Y145.988 E20.22192
G1 X124.182 Y146.58 E20.29526
G1 X122.905 Y146.856 E20.33871
G1 X119.952 Y146.855 E20.43693
G1 X118.682 Y146.559 E20.4803
G1 X116.271 Y145.796 E20.56441
G1 X114.442 Y144.663 E20.63597
G1 X114.26 Y144.475 E20.64467
G1 X91.593 Y144.475 E21.39858
G0 F9000 X91.525 Y144.075
G1 F1800 X90.897 Y144.297 E21.42073
G1 X89.136 Y144.269 E21.47931
G1 X87.906 Y144.108 E21.52057
G1 X87.749 Y144.115 E21.5258
G1 X86.286 Y144.035 E21.57453
G1 X85.231 Y143.842 E21.6102
G1 X83.754 Y143.117 E21.66492
G1 X81.352 Y141.085 E21.76957
G1 X80.511 Y139.897 E21.81798
G1 X80.06 Y139.065 E21.84946
G1 X79.267 Y135.674 E21.96528
G1 X79.269 Y134.126 E22.01677
G1 X79.504 Y133.252 E22.04687
G1 X79.504 Y117.977 E22.55492
G1 X79.262 Y117.705 E22.56703
G1 X78.514 Y115.982 E22.62951
G1 X78.263 Y115.103 E22.65991
G1 X78.223 Y113.049 E22.72824
G1 X77.227 Y111.206 E22.79792
G1 X77.015 Y110.085 E22.83586
G1 X76.917 Y109.685 E22.84956
G1 X76.681 Y108.328 E22.89537
G1 X76.712 Y107.29 E22.92991
G1 X76.661 Y105.084 E23.0033
G1 X76.988 Y103.855 E23.0456
G1 X77.063 Y103.534 E23.05656
G1 X77.56 Y101.838 E23.11535
G1 X78.236 Y100.867 E23.1547
G1 X78.242 Y100.58 E23.16424
G1 X78.235 Y99.002 E23.21673
G1 X78.672 Y97.566 E23.26665
G1 X79.269 Y96.246 E23.31484
G1 X79.501 Y95.998 E23.32613
G1 X79.501 Y86.725 E23.63456
G1 X79.331 Y86.169 E23.65389
G1 X79.223 Y85.412 E23.67933
G1 X79.405 Y83.673 E23.73748
G1 X80.001 Y81.116 E23.82481
G1 X80.742 Y79.707 E23.87776
G1 X81.268 Y78.977 E23.90768
G1 X83.61 Y76.989 E24.00986
G1 X84.755 Y76.395 E24.05276
G1 X85.92 Y75.959 E24.09413
G1 X87.751 Y75.871 E24.1551
G1 X88.01 Y75.887 E24.16373
G1 X89.768 Y75.649 E24.22274
G1 X91.185 Y75.804 E24.27015
G1 X91.527 Y75.924 E24.2822
G1 X114.849 Y75.925 E25.0579
G1 X115.121 Y75.573 E25.07269
G1 X116.563 Y74.715 E25.1285
G1 X118.539 Y73.851 E25.20023
G1 X119.893 Y73.468 E25.24703
G1 X122.072 Y73.359 E25.3196
G1 X123.888 Y73.605 E25.38055
G1 X125.418 Y74.201 E25.43516
G1 X126.609 Y74.841 E25.48013
G1 X127.857 Y75.655 E25.52969
G1 X129.296 Y75.305 E25.57894
G1 X131.544 Y75.343 E25.65372
G1 X133.975 Y76.218 E25.73966
G1 X136.019 Y77.825 E25.82614
G1 X137.36 Y79.717 E25.90327
G1 X138.094 Y81.983 E25.98249
G1 X138.434 Y83.526 E26.03504
G1 X138.22 Y86.131 E26.12198
G1 X137.435 Y87.724 E26.18104
G1 X137.208 Y88.729 E26.21531
G1 X136.625 Y90.289 E26.2707
G1 X135.833 Y91.789 E26.32712
G1 X134.111 Y93.297 E26.40325
G1 X132.376 Y94.228 E26.46874
G1 X132.05 Y94.344 E26.48025
G1 X130.398 Y94.54 E26.53558
G1 X129.829 Y94.66 E26.55492
G1 X128.517 Y94.652 E26.59856
G1 X128.284 Y94.613 E26.60642
G1 X127.98 Y94.639 E26.61657
G1 X127.746 Y94.613 E26.6244
G1 X126.434 Y95.613 E26.67926
G1 X124.312 Y96.377 E26.75428
G1 X122.682 Y96.61 E26.80904
G1 X121.208 Y96.535 E26.85813
G1 X119.144 Y96.498 E26.92679
G1 X117.036 Y95.794 E27.00071
G1 X116.484 Y95.525 E27.02113
G1 X115.011 Y94.281 E27.08526
G1 X114.264 Y93.479 E27.12171
G1 X114.1 Y93.268 E27.1306
G1 X101.248 Y93.278 E27.55806
G1 X101.248 Y99.482 E27.76441
G1 X101.988 Y100.085 E27.79616
G1 X103.603 Y102.46 E27.89168
G1 X104.365 Y104.284 E27.95743
G1 X104.636 Y106.136 E28.01968
G1 X104.71 Y107.917 E28.07897
G1 X104.288 Y110.103 E28.15302
G1 X103.587 Y111.52 E28.2056
G1 X101.892 Y113.992 E28.30529
G1 X101.248 Y114.674 E28.33649
G1 X101.248 Y126.72 E28.73714
G1 X113.821 Y126.732 E29.15532
G1 X114.2 Y126.289 E29.17471
G1 X115.208 Y125.303 E29.22161
G1 X116.74 Y124.463 E29.27972
G1 X118.177 Y124.019 E29.32975
G1 X119.696 Y123.516 E29.38297
G1 X120.354 Y123.386 E29.40527
G1 X123.209 Y123.58 E29.50045
G1 X124.152 Y123.789 E29.53258
G1 X126.583 Y124.541 E29.61721
G1 X127.727 Y125.409 E29.66497
G1 X128.25 Y125.389 E29.68238
G1 X129.388 Y125.29 E29.72038
G1 X132.163 Y125.722 E29.81378
G1 X133.891 Y126.562 E29.87769
G1 X135.501 Y127.867 E29.94662
G1 X136.649 Y129.633 E30.01668
G1 X137.366 Y131.692 E30.08919
G1 X137.451 Y132.276 E30.10882
G1 X137.631 Y132.646 E30.12251
G1 X138.106 Y133.842 E30.16531
G1 X138.351 Y135.441 E30.21911
G1 X138.403 Y136.742 E30.26242
G1 X137.878 Y138.772 E30.33216
G1 X137.301 Y140.426 E30.39042
G1 X135.963 Y142.192 E30.46411
G1 X134.528 Y143.394 E30.52637
G1 X133.001 Y144.21 E30.58396
G1 X130.798 Y144.779 E30.65963
G1 X128.729 Y144.54 E30.72891
G1 X128.152 Y144.413 E30.74856
G1 X127.923 Y144.639 E30.75926
G1 X126.154 Y145.615 E30.82646
G1 X124.097 Y146.189 E30.89749
G1 X122.862 Y146.456 E30.93951
G1 X120 Y146.455 E31.0347
G1 X118.773 Y146.169 E31.07661
G1 X116.441 Y145.43 E31.15797
G1 X114.653 Y144.323 E31.22791
G1 X114.449 Y144.075 E31.23859
G1 X91.525 Y144.075 E32.00105
G0 F9000 X91.457 Y143.675
G1 F1800 X90.832 Y143.896 E32.0231
G1 X89.188 Y143.872 E32.07778
G1 X87.922 Y143.706 E32.12025
G1 X87.73 Y143.715 E32.12665
G1 X86.358 Y143.642 E32.17234
G1 X85.358 Y143.459 E32.20616
G1 X83.973 Y142.779 E32.25747
G1 X81.651 Y140.814 E32.35865
G1 X80.863 Y139.706 E32.40387
G1 X80.436 Y138.918 E32.43368
G1 X79.667 Y135.63 E32.54599
G1 X79.669 Y134.178 E32.59428
G1 X79.904 Y133.304 E32.62438
G1 X79.904 Y117.824 E33.13925
G1 X79.604 Y117.487 E33.15426
G1 X78.899 Y115.872 E33.21287
G1 X78.662 Y115.042 E33.24158
G1 X78.621 Y112.91 E33.3125
G1 X78.468 Y112.66 E33.32225
G1 X77.609 Y111.071 E33.38233
G1 X77.404 Y109.99 E33.41892
G1 X77.306 Y109.59 E33.43262
G1 X77.082 Y108.301 E33.47613
G1 X77.112 Y107.302 E33.50938
G1 X77.062 Y105.13 E33.58164
G1 X77.378 Y103.946 E33.62239
G1 X77.453 Y103.625 E33.63336
G1 X77.926 Y102.011 E33.6893
G1 X78.633 Y100.995 E33.73047
G1 X78.642 Y100.589 E33.74397
G1 X78.635 Y99.062 E33.79476
G1 X79.055 Y97.683 E33.84271
G1 X79.607 Y96.47 E33.88703
G1 X79.901 Y96.155 E33.90137
G1 X79.901 Y86.664 E34.21704
G1 X79.714 Y86.052 E34.23832
G1 X79.626 Y85.406 E34.26001
G1 X79.795 Y83.764 E34.31491
G1 X80.38 Y81.253 E34.40066
G1 X81.066 Y79.941 E34.4499
G1 X81.563 Y79.252 E34.47816
G1 X83.834 Y77.324 E34.57724
G1 X84.895 Y76.77 E34.61705
G1 X86.001 Y76.356 E34.65633
G1 X87.77 Y76.271 E34.71524
G1 X88.021 Y76.289 E34.72361
G1 X89.77 Y76.052 E34.78231
G1 X91.098 Y76.197 E34.82674
G1 X91.459 Y76.324 E34.83947
G1 X115.046 Y76.325 E35.62398
G1 X115.39 Y75.879 E35.64271
G1 X116.768 Y75.059 E35.69604
G1 X118.648 Y74.236 E35.7643
G1 X119.961 Y73.865 E35.80968
G1 X122.054 Y73.76 E35.87938
G1 X123.785 Y73.994 E35.93748
G1 X125.229 Y74.554 E35.98899
G1 X126.39 Y75.176 E36.0328
G1 X127.57 Y75.946 E36.07966
G1 X127.719 Y76.1 E36.08679
G1 X129.341 Y75.706 E36.14231
G1 X131.472 Y75.742 E36.21319
G1 X133.777 Y76.572 E36.29468
G1 X135.728 Y78.105 E36.3772
G1 X136.998 Y79.898 E36.45028
G1 X137.703 Y82.069 E36.5262
G1 X138.03 Y83.553 E36.57675
G1 X137.827 Y86.023 E36.65917
G1 X137.054 Y87.591 E36.71732
G1 X136.833 Y88.589 E36.75132
G1 X136.25 Y90.149 E36.80671
G1 X135.515 Y91.537 E36.85895
G1 X133.883 Y92.965 E36.93107
G1 X132.242 Y93.851 E36.9931
G1 X131.957 Y93.952 E37.00316
G1 X130.334 Y94.145 E37.05752
G1 X129.79 Y94.26 E37.07601
G1 X128.583 Y94.257 E37.11616
G1 X128.3 Y94.21 E37.1257
G1 X127.946 Y94.24 E37.13751
G1 X127.608 Y94.187 E37.14889
G1 X127.395 Y94.377 E37.15839
G1 X126.239 Y95.259 E37.20675
G1 X124.218 Y95.986 E37.27818
G1 X122.661 Y96.209 E37.3305
G1 X121.215 Y96.135 E37.37866
G1 X119.213 Y96.099 E37.44525
