;FLAVOR:Marlin
;TIME:137
;Filament used: 0.110654m
;Layer height: 0.16
;MINX:95.5
;MINY:88.012
;MINZ:0.2
;MAXX:124.5
;MAXY:131.988
;MAXZ:0.92
;TARGET_MACHINE.NAME:Creality Ender-3 V3 SE
;Generated with Cura_SteamEngine 5.9.1
M82 ;absolute extrusion mode
M220 S100 ;Reset Feedrate
M221 S100 ;Reset Flowrate

G28 ;Home

M420 S1; Use saved mesh leveling data

G92 E0 ;Reset Extruder
G1 Z2.0 F3000 ;Move Z Axis up
G1 X-3 Y20 Z0.28 F5000.0 ;Move to start position
M190 S60 ; Set bed temperature and wait
M109 S200 ; Set hotend temperature and wait
G1 X-3 Y100.0 Z0.28 F1500.0 E15 ;Draw the first line
G1 X-2 Y100.0 Z0.28 F5000.0 ;Move to side a little
G1 X-2 Y20 Z0.28 F1500.0 E30 ;Draw the second line
G92 E0 ;Reset Extruder
G1 E-1.0000 F1800 ;Retract a bit
G1 Z2.0 F3000 ;Move Z Axis up
G1 E0.0000 F1800 

G92 E0
G92 E0
G1 F2400 E-0.8
;LAYER_COUNT:5
;LAYER:0
M107
G0 F9000 X111.826 Y131.986 Z0.2
;TYPE:SKIRT
G1 F2400 E0
G1 F1800 X109.747 Y131.988 E0.06915
G1 X105.236 Y131.033 E0.22251
G1 X104.23 Y130.673 E0.25805
G1 X100.69 Y128.281 E0.40015
G1 X99.504 Y127.272 E0.45194
G1 X96.941 Y123.428 E0.6056
G1 X96.377 Y122.067 E0.6546
G1 X95.5 Y117.638 E0.80477
G1 X95.506 Y102.098 E1.32163
G1 X96.792 Y96.867 E1.5008
G1 X97.517 Y95.331 E1.55729
G1 X101.11 Y91.259 E1.73791
G1 X102.528 Y90.185 E1.79708
G1 X108.174 Y88.014 E1.99827
G1 X110.253 Y88.012 E2.06741
G1 X114.764 Y88.967 E2.22078
G1 X115.77 Y89.327 E2.25631
G1 X119.31 Y91.719 E2.39841
G1 X120.496 Y92.728 E2.45021
G1 X123.059 Y96.572 E2.60387
G1 X123.623 Y97.933 E2.65287
G1 X124.5 Y102.362 E2.80304
G1 X124.494 Y117.902 E3.3199
G1 X123.208 Y123.133 E3.49907
G1 X122.483 Y124.669 E3.55556
G1 X118.89 Y128.741 E3.73618
G1 X117.472 Y129.815 E3.79534
G1 X111.826 Y131.986 E3.99653
G0 F9000 X111.752 Y131.586
G1 F1800 X109.787 Y131.588 E4.06189
G1 X105.371 Y130.656 E4.212
G1 X104.413 Y130.313 E4.24585
G1 X100.949 Y127.976 E4.38483
G1 X99.806 Y127.004 E4.43473
G1 X97.296 Y123.239 E4.58523
G1 X96.761 Y121.947 E4.63174
G1 X95.9 Y117.6 E4.77913
G1 X95.906 Y102.144 E5.2932
G1 X97.169 Y97.006 E5.46918
G1 X97.855 Y95.553 E5.52262
G1 X101.385 Y91.552 E5.70009
G1 X102.724 Y90.538 E5.75595
G1 X108.248 Y88.414 E5.95279
G1 X110.213 Y88.412 E6.01815
G1 X114.629 Y89.344 E6.16826
G1 X115.587 Y89.687 E6.20211
G1 X119.051 Y92.024 E6.34109
G1 X120.194 Y92.996 E6.39099
G1 X122.704 Y96.761 E6.54149
G1 X123.239 Y98.053 E6.588
G1 X124.1 Y102.4 E6.73539
G1 X124.094 Y117.856 E7.24946
G1 X122.831 Y122.994 E7.42544
G1 X122.145 Y124.447 E7.47888
G1 X118.615 Y128.448 E7.65635
G1 X117.276 Y129.462 E7.71221
G1 X111.752 Y131.586 E7.90905
G0 F9000 X111.678 Y131.186
G1 F1800 X109.826 Y131.188 E7.97065
G1 X105.506 Y130.279 E8.11748
G1 X104.595 Y129.953 E8.14966
G1 X101.173 Y127.644 E8.28696
G1 X100.108 Y126.736 E8.33351
G1 X97.651 Y123.05 E8.48085
G1 X97.145 Y121.827 E8.52487
G1 X96.3 Y117.562 E8.66948
G1 X96.306 Y102.19 E9.18076
G1 X97.546 Y97.145 E9.35355
G1 X98.193 Y95.775 E9.40394
G1 X101.66 Y91.845 E9.57825
G1 X102.92 Y90.891 E9.63081
G1 X108.322 Y88.814 E9.82331
G1 X110.174 Y88.812 E9.88491
G1 X114.494 Y89.721 E10.03174
G1 X115.405 Y90.047 E10.06392
G1 X118.827 Y92.356 E10.20122
G1 X119.892 Y93.264 E10.24777
G1 X122.349 Y96.95 E10.39511
G1 X122.855 Y98.173 E10.43913
G1 X123.7 Y102.438 E10.58374
G1 X123.694 Y117.81 E11.09501
G1 X122.454 Y122.855 E11.2678
G1 X121.807 Y124.225 E11.3182
G1 X118.34 Y128.155 E11.4925
G1 X117.08 Y129.109 E11.54507
G1 X111.678 Y131.186 E11.73756
G0 F9000 X111.604 Y130.786
G1 F1800 X109.865 Y130.788 E11.7954
G1 X105.641 Y129.902 E11.93895
G1 X104.778 Y129.593 E11.96944
G1 X101.397 Y127.312 E12.10509
G1 X100.411 Y126.468 E12.14826
G1 X98.006 Y122.861 E12.29245
G1 X97.529 Y121.707 E12.33398
G1 X96.7 Y117.524 E12.47581
G1 X96.706 Y102.237 E12.98426
G1 X97.924 Y97.283 E13.15394
G1 X98.531 Y95.997 E13.20124
G1 X101.935 Y92.138 E13.37239
G1 X103.116 Y91.244 E13.42165
G1 X108.396 Y89.214 E13.6098
G1 X110.135 Y89.212 E13.66764
G1 X114.359 Y90.098 E13.81118
G1 X115.222 Y90.407 E13.84167
G1 X118.603 Y92.688 E13.97732
G1 X119.589 Y93.532 E14.02049
G1 X121.994 Y97.139 E14.16468
G1 X122.471 Y98.293 E14.20622
G1 X123.3 Y102.476 E14.34805
G1 X123.294 Y117.763 E14.8565
G1 X122.076 Y122.717 E15.02617
G1 X121.469 Y124.003 E15.07347
G1 X118.065 Y127.862 E15.24462
G1 X116.884 Y128.756 E15.29389
G1 X111.604 Y130.786 E15.48203
G0 F9000 X111.53 Y130.386
G1 F1800 X109.909 Y130.388 E15.53595
G1 X105.776 Y129.525 E15.67638
G1 X104.96 Y129.233 E15.7052
G1 X101.621 Y126.98 E15.83917
G1 X100.714 Y126.201 E15.87894
G1 X98.361 Y122.673 E16.01999
G1 X97.913 Y121.587 E16.05906
G1 X97.1 Y117.486 E16.19811
G1 X97.106 Y102.283 E16.70377
G1 X98.301 Y97.422 E16.87026
G1 X98.869 Y96.219 E16.91451
G1 X102.21 Y92.431 E17.0825
G1 X103.312 Y91.597 E17.12846
G1 X108.47 Y89.614 E17.31226
G1 X110.091 Y89.612 E17.36618
G1 X114.224 Y90.475 E17.50661
G1 X115.04 Y90.767 E17.53543
G1 X118.379 Y93.02 E17.6694
G1 X119.286 Y93.799 E17.70917
G1 X121.639 Y97.327 E17.85022
G1 X122.087 Y98.413 E17.88929
G1 X122.9 Y102.514 E18.02834
G1 X122.894 Y117.717 E18.534
G1 X121.699 Y122.578 E18.70049
G1 X121.131 Y123.781 E18.74474
G1 X117.79 Y127.569 E18.91273
G1 X116.688 Y128.403 E18.95869
G1 X111.53 Y130.386 E19.14249
G0 F9000 X111.456 Y129.986
G1 F1800 X109.951 Y129.988 E19.19255
G1 X105.911 Y129.148 E19.32979
G1 X105.143 Y128.873 E19.35692
G1 X101.845 Y126.648 E19.48925
G1 X101.017 Y125.934 E19.52561
G1 X98.715 Y122.483 E19.66358
G1 X98.297 Y121.469 E19.70006
G1 X97.5 Y117.448 E19.8364
G1 X97.506 Y102.329 E20.33926
G1 X98.678 Y97.561 E20.50257
G1 X99.207 Y96.441 E20.54377
G1 X102.485 Y92.724 E20.7086
G1 X103.508 Y91.95 E20.75127
G1 X108.544 Y90.014 E20.93072
G1 X110.049 Y90.012 E20.98077
G1 X114.089 Y90.852 E21.11802
G1 X114.857 Y91.127 E21.14515
G1 X118.155 Y93.352 E21.27747
G1 X118.983 Y94.066 E21.31384
G1 X121.285 Y97.517 E21.45181
G1 X121.703 Y98.531 E21.48829
G1 X122.5 Y102.552 E21.62463
G1 X122.494 Y117.671 E22.12749
G1 X121.322 Y122.439 E22.29079
G1 X120.793 Y123.559 E22.33199
G1 X117.515 Y127.276 E22.49683
G1 X116.492 Y128.05 E22.53949
G1 X111.456 Y129.986 E22.71894
G0 F9000 X111.382 Y129.586
G1 F1800 X109.993 Y129.588 E22.76514
G1 X106.046 Y128.771 E22.8992
G1 X105.325 Y128.513 E22.92467
G1 X102.069 Y126.316 E23.05531
G1 X101.321 Y125.668 E23.08823
G1 X99.069 Y122.293 E23.22318
G1 X98.681 Y121.351 E23.25706
G1 X97.9 Y117.41 E23.39069
G1 X97.906 Y102.376 E23.89072
G1 X99.056 Y97.699 E24.05091
G1 X99.545 Y96.663 E24.08902
G1 X102.76 Y93.017 E24.25069
G1 X103.704 Y92.303 E24.29006
G1 X108.618 Y90.414 E24.46516
G1 X110.007 Y90.412 E24.51136
G1 X113.954 Y91.229 E24.64542
G1 X114.675 Y91.487 E24.67089
G1 X117.931 Y93.684 E24.80153
G1 X118.679 Y94.332 E24.83445
G1 X120.931 Y97.707 E24.9694
G1 X121.319 Y98.649 E25.00328
G1 X122.1 Y102.59 E25.13691
G1 X122.094 Y117.624 E25.63694
G1 X120.944 Y122.301 E25.79713
G1 X120.455 Y123.337 E25.83524
G1 X117.24 Y126.983 E25.99691
G1 X116.296 Y127.697 E26.03628
G1 X111.382 Y129.586 E26.21138
G0 F9000 X111.308 Y129.186
G1 F1800 X110.035 Y129.188 E26.25372
G1 X106.181 Y128.394 E26.3846
G1 X105.508 Y128.153 E26.40837
G1 X102.293 Y125.984 E26.53737
G1 X101.623 Y125.4 E26.56693
G1 X99.423 Y122.103 E26.69876
G1 X99.065 Y121.233 E26.73005
G1 X98.3 Y117.372 E26.86096
G1 X98.306 Y102.422 E27.3582
G1 X99.433 Y97.838 E27.51521
G1 X99.883 Y96.885 E27.55026
G1 X103.035 Y93.31 E27.70878
G1 X103.9 Y92.656 E27.74485
G1 X108.692 Y90.814 E27.9156
G1 X109.965 Y90.812 E27.95794
G1 X113.819 Y91.606 E28.08882
G1 X114.492 Y91.847 E28.11259
G1 X117.707 Y94.016 E28.24158
G1 X118.377 Y94.6 E28.27114
G1 X120.577 Y97.897 E28.40297
G1 X120.935 Y98.767 E28.43426
G1 X121.7 Y102.628 E28.56518
G1 X121.694 Y117.578 E29.06242
G1 X120.567 Y122.162 E29.21942
G1 X120.117 Y123.115 E29.25448
G1 X116.965 Y126.69 E29.413
G1 X116.1 Y127.344 E29.44906
G1 X111.308 Y129.186 E29.61982
G0 F9000 X111.234 Y128.786
G1 F1800 X110.076 Y128.788 E29.65833
G1 X106.316 Y128.017 E29.78599
G1 X105.688 Y127.792 E29.80818
G1 X102.556 Y125.682 E29.93378
G1 X101.926 Y125.133 E29.96158
G1 X99.777 Y121.913 E30.09034
G1 X99.449 Y121.115 E30.11903
G1 X98.7 Y117.334 E30.24723
G1 X98.706 Y102.468 E30.74168
G1 X99.81 Y97.977 E30.8955
G1 X100.221 Y97.107 E30.9275
G1 X103.31 Y93.603 E31.08286
G1 X104.096 Y93.009 E31.11563
G1 X108.766 Y91.214 E31.28203
G1 X109.924 Y91.212 E31.32055
G1 X113.684 Y91.983 E31.44821
G1 X114.312 Y92.208 E31.4704
G1 X117.444 Y94.318 E31.596
G1 X118.074 Y94.867 E31.6238
G1 X120.223 Y98.087 E31.75255
G1 X120.551 Y98.885 E31.78125
G1 X121.3 Y102.666 E31.90945
G1 X121.294 Y117.532 E32.4039
G1 X120.19 Y122.023 E32.55771
G1 X119.779 Y122.893 E32.58972
G1 X116.69 Y126.397 E32.74508
G1 X115.904 Y126.991 E32.77785
G1 X111.234 Y128.786 E32.94425
G0 F9000 X111.161 Y128.386
G1 F1800 X110.117 Y128.388 E32.97898
G1 X106.451 Y127.64 E33.10342
G1 X105.87 Y127.432 E33.12395
G1 X102.78 Y125.35 E33.24787
G1 X102.229 Y124.866 E33.27226
G1 X100.131 Y121.723 E33.39795
G1 X99.833 Y120.997 E33.42405
G1 X99.1 Y117.296 E33.54954
G1 X99.106 Y102.514 E34.04119
G1 X100.187 Y98.116 E34.19182
G1 X100.56 Y97.327 E34.22085
G1 X103.582 Y93.898 E34.37287
G1 X104.293 Y93.361 E34.4025
G1 X108.839 Y91.614 E34.56448
G1 X109.883 Y91.612 E34.59921
G1 X113.549 Y92.36 E34.72365
G1 X114.13 Y92.568 E34.74418
G1 X117.22 Y94.65 E34.8681
G1 X117.771 Y95.134 E34.8925
G1 X119.869 Y98.277 E35.01818
G1 X120.167 Y99.003 E35.04428
G1 X120.9 Y102.704 E35.16977
G1 X120.894 Y117.486 E35.66142
G1 X119.813 Y121.884 E35.81205
G1 X119.44 Y122.673 E35.84108
G1 X116.418 Y126.102 E35.9931
G1 X115.707 Y126.639 E36.02274
G1 X111.161 Y128.386 E36.18472
G0 F9000 X111.088 Y127.986
G1 F1800 X110.157 Y127.988 E36.21568
G1 X106.586 Y127.263 E36.33688
G1 X106.052 Y127.072 E36.35574
G1 X103.004 Y125.018 E36.47799
G1 X102.533 Y124.6 E36.49893
G1 X100.485 Y121.533 E36.62159
G1 X100.217 Y120.88 E36.64507
G1 X99.5 Y117.258 E36.76788
G1 X99.506 Y102.561 E37.2567
G1 X100.565 Y98.254 E37.40422
G1 X100.899 Y97.547 E37.43023
G1 X103.854 Y94.193 E37.5789
G1 X104.49 Y93.713 E37.6054
G1 X108.912 Y92.014 E37.76296
G1 X109.843 Y92.012 E37.79393
G1 X113.414 Y92.737 E37.91512
G1 X113.948 Y92.928 E37.93398
G1 X116.996 Y94.982 E38.05623
G1 X117.467 Y95.4 E38.07718
G1 X119.515 Y98.467 E38.19984
G1 X119.783 Y99.12 E38.22331
G1 X120.5 Y102.742 E38.34612
G1 X120.494 Y117.439 E38.83494
G1 X119.435 Y121.746 E38.98246
G1 X119.101 Y122.453 E39.00847
G1 X116.146 Y125.807 E39.15714
G1 X115.51 Y126.287 E39.18364
G1 X111.088 Y127.986 E39.3412
G0 F9000 X111.015 Y127.586
G1 F1800 X110.196 Y127.588 E39.36844
G1 X106.721 Y126.886 E39.48636
G1 X106.234 Y126.712 E39.50356
G1 X103.228 Y124.686 E39.62413
G1 X102.837 Y124.335 E39.6416
G1 X100.839 Y121.343 E39.76127
G1 X100.601 Y120.763 E39.78212
G1 X99.9 Y117.22 E39.90224
G1 X99.906 Y102.607 E40.38827
G1 X100.942 Y98.393 E40.5326
G1 X101.238 Y97.767 E40.55564
G1 X104.127 Y94.488 E40.70099
G1 X104.687 Y94.065 E40.72433
G1 X108.985 Y92.414 E40.87747
G1 X109.804 Y92.412 E40.90471
G1 X113.279 Y93.114 E41.02262
G1 X113.766 Y93.288 E41.03982
G1 X116.772 Y95.314 E41.16039
G1 X117.163 Y95.665 E41.17786
G1 X119.161 Y98.657 E41.29753
G1 X119.399 Y99.237 E41.31838
G1 X120.1 Y102.78 E41.4385
G1 X120.094 Y117.393 E41.92453
G1 X119.058 Y121.607 E42.06887
G1 X118.762 Y122.233 E42.0919
G1 X115.873 Y125.512 E42.23725
G1 X115.313 Y125.935 E42.26059
G1 X111.015 Y127.586 E42.41373
G0 F9000 X110.942 Y127.186
G1 F1800 X110.235 Y127.188 E42.43724
G1 X106.856 Y126.509 E42.55187
G1 X106.414 Y126.351 E42.56749
G1 X103.495 Y124.388 E42.68448
G1 X103.142 Y124.071 E42.70026
G1 X101.193 Y121.153 E42.81698
G1 X100.985 Y120.646 E42.8352
G1 X100.3 Y117.183 E42.95261
G1 X100.306 Y102.653 E43.43588
G1 X101.319 Y98.532 E43.57703
G1 X101.577 Y97.987 E43.59708
G1 X104.4 Y94.783 E43.73911
G1 X104.884 Y94.417 E43.7593
G1 X109.058 Y92.814 E43.90801
G1 X109.765 Y92.812 E43.93152
G1 X113.144 Y93.491 E44.04616
G1 X113.586 Y93.649 E44.06177
G1 X116.505 Y95.612 E44.17877
G1 X116.858 Y95.929 E44.19455
G1 X118.807 Y98.847 E44.31126
G1 X119.015 Y99.354 E44.32948
G1 X119.7 Y102.817 E44.4469
G1 X119.694 Y117.347 E44.93017
G1 X118.681 Y121.468 E45.07131
G1 X118.423 Y122.013 E45.09137
G1 X115.6 Y125.217 E45.23339
G1 X115.116 Y125.583 E45.25358
G1 X110.942 Y127.186 E45.40229
G0 F9000 X110.869 Y126.786
G1 F1800 X110.273 Y126.788 E45.42211
G1 X106.991 Y126.132 E45.53343
G1 X106.594 Y125.99 E45.54746
G1 X103.762 Y124.09 E45.66088
G1 X103.447 Y123.807 E45.67497
G1 X101.547 Y120.963 E45.78873
G1 X101.369 Y120.529 E45.80433
G1 X100.7 Y117.146 E45.91903
G1 X100.706 Y102.699 E46.39954
G1 X101.697 Y98.667 E46.53763
G1 X101.914 Y98.209 E46.55449
G1 X104.673 Y95.078 E46.69329
G1 X105.081 Y94.769 E46.71031
G1 X109.131 Y93.214 E46.8546
G1 X109.727 Y93.212 E46.87443
G1 X113.009 Y93.868 E46.98574
G1 X113.406 Y94.01 E46.99977
G1 X116.238 Y95.91 E47.1132
G1 X116.553 Y96.193 E47.12728
G1 X118.453 Y99.037 E47.24104
G1 X118.631 Y99.471 E47.25664
G1 X119.3 Y102.854 E47.37134
G1 X119.294 Y117.301 E47.85185
G1 X118.303 Y121.333 E47.98994
G1 X118.086 Y121.791 E48.0068
G1 X115.327 Y124.922 E48.1456
G1 X114.919 Y125.231 E48.16262
G1 X110.869 Y126.786 E48.30691
G0 F9000 X110.796 Y126.386
G1 F1800 X110.31 Y126.388 E48.32308
G1 X107.126 Y125.755 E48.43105
G1 X106.774 Y125.629 E48.44349
G1 X103.985 Y123.758 E48.55519
G1 X103.753 Y123.544 E48.56569
G1 X101.901 Y120.773 E48.67654
G1 X101.753 Y120.412 E48.68952
G1 X101.1 Y117.109 E48.8015
G1 X101.106 Y102.746 E49.27922
G1 X102.075 Y98.805 E49.4142
G1 X102.253 Y98.429 E49.42804
G1 X104.944 Y95.375 E49.56342
G1 X105.28 Y95.12 E49.57745
G1 X109.204 Y93.614 E49.71724
G1 X109.69 Y93.612 E49.73341
G1 X112.874 Y94.245 E49.84138
G1 X113.226 Y94.371 E49.85381
G1 X116.015 Y96.242 E49.96552
G1 X116.247 Y96.456 E49.97601
G1 X118.099 Y99.227 E50.08687
G1 X118.247 Y99.588 E50.09985
G1 X118.9 Y102.891 E50.21183
G1 X118.894 Y117.254 E50.68955
G1 X117.925 Y121.195 E50.82453
G1 X117.747 Y121.571 E50.83836
G1 X115.056 Y124.625 E50.97375
G1 X114.72 Y124.88 E50.98778
G1 X110.796 Y126.386 E51.12757
G0 F9000 X110.722 Y125.986
G1 F1800 X110.347 Y125.988 E51.14004
G1 X107.204 Y125.363 E51.24663
G1 X106.955 Y125.269 E51.25548
G1 X104.256 Y123.464 E51.36347
G1 X104.06 Y123.283 E51.37235
G1 X102.255 Y120.583 E51.48037
G1 X102.137 Y120.295 E51.49072
G1 X101.5 Y117.072 E51.59999
G1 X101.506 Y102.793 E52.07491
G1 X102.453 Y98.943 E52.20678
G1 X102.592 Y98.649 E52.2176
G1 X105.218 Y95.669 E52.3497
G1 X105.477 Y95.472 E52.36053
G1 X109.278 Y94.014 E52.49593
G1 X109.653 Y94.012 E52.5084
G1 X112.796 Y94.637 E52.61499
G1 X113.045 Y94.731 E52.62384
G1 X115.744 Y96.536 E52.73183
G1 X115.94 Y96.717 E52.74071
G1 X117.745 Y99.417 E52.84873
G1 X117.863 Y99.705 E52.85908
G1 X118.5 Y102.928 E52.96835
G1 X118.494 Y117.207 E53.44327
G1 X117.547 Y121.057 E53.57514
G1 X117.408 Y121.351 E53.58596
G1 X114.782 Y124.331 E53.71806
G1 X114.523 Y124.528 E53.72889
G1 X110.722 Y125.986 E53.86429
G0 F9000 X110.572 Y125.187
G1 F1800 X110.461 Y125.196 E53.86799
G1 X107.36 Y124.579 E53.97316
G1 X104.7 Y122.8 E54.07959
G1 X102.921 Y120.139 E54.18605
G1 X102.3 Y116.998 E54.29254
G1 X102.306 Y102.887 E54.76188
G1 X103.229 Y99.135 E54.89039
G1 X105.818 Y96.197 E55.02064
G1 X109.428 Y94.813 E55.14923
G1 X109.539 Y94.804 E55.15293
G1 X112.64 Y95.421 E55.25809
G1 X115.3 Y97.2 E55.36453
G1 X117.079 Y99.861 E55.47099
G1 X117.7 Y103.002 E55.57748
G1 X117.694 Y117.113 E56.04682
G1 X116.771 Y120.865 E56.17533
G1 X114.182 Y123.803 E56.30557
G1 X110.572 Y125.187 E56.43416
G0 F9000 X110.648 Y125.586
G1 F1800 X110.383 Y125.588 E56.44298
G1 X107.282 Y124.971 E56.54814
G1 X107.138 Y124.911 E56.55333
G1 X104.478 Y123.132 E56.65976
G1 X104.367 Y123.022 E56.66496
G1 X102.588 Y120.361 E56.77142
G1 X102.529 Y120.217 E56.7766
G1 X101.9 Y117.035 E56.88448
G1 X101.906 Y102.84 E57.35661
G1 X102.841 Y99.039 E57.4868
G1 X102.929 Y98.871 E57.49311
G1 X105.518 Y95.933 E57.62335
G1 X105.675 Y95.824 E57.62971
G1 X109.352 Y94.414 E57.76069
G1 X109.617 Y94.412 E57.7695
G1 X112.718 Y95.029 E57.87467
G1 X112.862 Y95.089 E57.87985
G1 X115.522 Y96.868 E57.98629
G1 X115.633 Y96.978 E57.99149
G1 X117.412 Y99.639 E58.09795
