;FLAVOR:Marlin
;TIME:913
;Filament used: 0.633926m
;Layer height: 0.16
;MINX:89.78
;MINY:70.924
;MINZ:0.2
;MAXX:129.172
;MAXY:148.013
;MAXZ:4.32
;TARGET_MACHINE.NAME:Creality Ender-3 V3 SE
;Generated with Cura_SteamEngine 5.9.1
M82 ;absolute extrusion mode
M220 S100 ;Reset Feedrate
M221 S100 ;Reset Flowrate

G28 ;Home

M420 S1; Use saved mesh leveling data

G92 E0 ;Reset Extruder
G1 Z2.0 F3000 ;Move Z Axis up
G1 X-3 Y20 Z0.28 F5000.0 ;Move to start position
M190 S60 ; Set bed temperature and wait
M109 S200 ; Set hotend temperature and wait
G1 X-3 Y100.0 Z0.28 F1500.0 E15 ;Draw the first line
G1 X-2 Y100.0 Z0.28 F5000.0 ;Move to side a little
G1 X-2 Y20 Z0.28 F1500.0 E30 ;Draw the second line
G92 E0 ;Reset Extruder
G1 E-1.0000 F1800 ;Retract a bit
G1 Z2.0 F3000 ;Move Z Axis up
G1 E0.0000 F1800 

G92 E0
G92 E0
G1 F2400 E-0.8
;LAYER_COUNT:22
;LAYER:0
M107
G0 F9000 X123.323 Y148.013 Z0.2
;TYPE:SKIRT
G1 F2400 E0
G1 F1800 X121.262 Y148.012 E0.06855
G1 X119.294 Y147.507 E0.13613
G1 X117.233 Y146.132 E0.21853
G1 X116.079 Y144.566 E0.28323
G1 X93.707 Y97.49 E2.0168
G1 X93.154 Y97.121 E2.03891
G1 X92.344 Y96.438 E2.07415
G1 X91.215 Y94.784 E2.14076
G1 X90.596 Y93.066 E2.20149
G1 X90.217 Y91.637 E2.25067
G1 X90.001 Y90.503 E2.28906
G1 X89.943 Y89.972 E2.30683
G1 X89.78 Y89.103 E2.33623
G1 X89.932 Y87.466 E2.39092
G1 X90.042 Y86.966 E2.40794
G1 X89.963 Y85.643 E2.45203
G1 X90.529 Y83.051 E2.54027
G1 X90.744 Y82.449 E2.56153
G1 X90.874 Y82.035 E2.57596
G1 X91.397 Y80.759 E2.62183
G1 X91.883 Y79.82 E2.65699
G1 X92.006 Y79.611 E2.66506
G1 X92.272 Y79.051 E2.68568
G1 X93.505 Y77.444 E2.75305
G1 X93.9 Y77.185 E2.76876
G1 X94.431 Y76.321 E2.80249
G1 X95.675 Y75.113 E2.86016
G1 X96.654 Y74.303 E2.90242
G1 X96.932 Y74.119 E2.91351
G1 X97.421 Y73.768 E2.93353
G1 X98.167 Y73.288 E2.96304
G1 X99.35 Y72.658 E3.00762
G1 X99.797 Y72.464 E3.02382
G1 X100.524 Y72.096 E3.05092
G1 X101.781 Y71.78 E3.09403
G1 X102.57 Y71.694 E3.12043
G1 X103.237 Y71.379 E3.14496
G1 X104.935 Y71 E3.20283
G1 X105.679 Y70.978 E3.22759
G1 X106.596 Y70.924 E3.25814
G1 X106.958 Y70.94 E3.27019
G1 X107.509 Y70.938 E3.28852
G1 X108.392 Y70.981 E3.31792
G1 X109.876 Y71.184 E3.36774
G1 X110.206 Y71.261 E3.37901
G1 X110.758 Y71.33 E3.39751
G1 X112.692 Y71.996 E3.46554
G1 X113.088 Y72.313 E3.48242
G1 X114.073 Y72.485 E3.51567
G1 X115.281 Y73.194 E3.56226
G1 X116.392 Y73.792 E3.60422
G1 X116.99 Y74.293 E3.63017
G1 X117.567 Y74.727 E3.65419
G1 X118.577 Y75.595 E3.69848
G1 X119.045 Y76.091 E3.72116
G1 X120.12 Y77.096 E3.77011
G1 X121.002 Y78.868 E3.83594
G1 X121.695 Y79.613 E3.86978
G1 X122.905 Y82.124 E3.96249
G1 X123.063 Y82.79 E3.98526
G1 X123.16 Y83.099 E3.99603
G1 X123.541 Y84.463 E4.04313
G1 X123.663 Y85.132 E4.06575
G1 X123.753 Y85.936 E4.09266
G1 X123.921 Y86.795 E4.12177
G1 X123.758 Y88.5 E4.17874
G1 X123.486 Y89.739 E4.22093
G1 X122.435 Y91.606 E4.29219
G1 X129.172 Y140.76 E5.94234
G1 X129.024 Y142.322 E5.99452
G1 X128.771 Y143.467 E6.03353
G1 X127.93 Y145.015 E6.09212
G1 X126.686 Y146.438 E6.15498
G1 X124.961 Y147.456 E6.2216
G1 X123.323 Y148.013 E6.27915
G0 F9000 X123.256 Y147.613
G1 F1800 X121.31 Y147.612 E6.34387
G1 X119.461 Y147.138 E6.40736
G1 X117.513 Y145.837 E6.48527
G1 X116.424 Y144.36 E6.54631
G1 X94.02 Y97.217 E8.28234
G1 X93.412 Y96.815 E8.30659
G1 X92.641 Y96.165 E8.34013
G1 X91.575 Y94.602 E8.40305
G1 X90.983 Y92.963 E8.46101
G1 X90.604 Y91.534 E8.51019
G1 X90.399 Y90.459 E8.54658
G1 X90.34 Y89.92 E8.56462
G1 X90.183 Y89.083 E8.59294
G1 X90.323 Y87.552 E8.64408
G1 X90.445 Y87 E8.66288
G1 X90.365 Y85.676 E8.707
G1 X90.906 Y83.186 E8.79175
G1 X91.121 Y82.584 E8.81301
G1 X91.256 Y82.155 E8.82797
G1 X91.752 Y80.943 E8.87152
G1 X92.228 Y80.022 E8.906
G1 X92.36 Y79.797 E8.91468
G1 X92.616 Y79.259 E8.9345
G1 X93.779 Y77.743 E8.99805
G1 X94.194 Y77.471 E9.01455
G1 X94.745 Y76.574 E9.04956
G1 X95.954 Y75.4 E9.10561
G1 X96.875 Y74.637 E9.14539
G1 X97.153 Y74.453 E9.15648
G1 X97.654 Y74.093 E9.177
G1 X98.383 Y73.625 E9.20581
G1 X99.509 Y73.025 E9.24825
G1 X99.972 Y72.824 E9.26504
G1 X100.664 Y72.474 E9.29083
G1 X101.824 Y72.178 E9.33065
G1 X102.68 Y72.085 E9.35929
G1 X103.371 Y71.759 E9.3847
G1 X104.982 Y71.399 E9.4396
G1 X105.691 Y71.378 E9.46319
G1 X106.578 Y71.324 E9.49275
G1 X106.941 Y71.34 E9.50484
G1 X107.49 Y71.338 E9.5231
G1 X108.373 Y71.381 E9.5525
G1 X109.785 Y71.574 E9.5999
G1 X110.132 Y71.655 E9.61175
G1 X110.669 Y71.722 E9.62975
G1 X112.496 Y72.351 E9.69402
G1 X112.918 Y72.689 E9.712
G1 X113.932 Y72.866 E9.74624
G1 X115.078 Y73.539 E9.79044
G1 X116.163 Y74.122 E9.8314
G1 X116.736 Y74.602 E9.85627
G1 X117.306 Y75.03 E9.87997
G1 X118.316 Y75.898 E9.92427
G1 X118.762 Y76.374 E9.94596
G1 X119.794 Y77.339 E9.99296
G1 X120.67 Y79.098 E10.05831
G1 X121.361 Y79.841 E10.09206
G1 X122.526 Y82.259 E10.18133
G1 X122.677 Y82.897 E10.20314
G1 X122.775 Y83.207 E10.21395
G1 X123.147 Y84.535 E10.25982
G1 X123.269 Y85.204 E10.28244
G1 X123.357 Y85.995 E10.30891
G1 X123.517 Y86.817 E10.33676
G1 X123.367 Y88.414 E10.39011
G1 X123.107 Y89.597 E10.4304
G1 X122.123 Y91.355 E10.49741
G1 X122.016 Y91.489 E10.50311
G1 X128.77 Y140.768 E12.15746
G1 X128.633 Y142.236 E12.2065
G1 X128.392 Y143.328 E12.24369
G1 X127.6 Y144.785 E12.29885
G1 X126.427 Y146.127 E12.35813
G1 X124.797 Y147.089 E12.42108
G1 X123.256 Y147.613 E12.47522
G0 F9000 X123.189 Y147.213
G1 F1800 X121.358 Y147.212 E12.53612
G1 X119.628 Y146.769 E12.59551
G1 X117.793 Y145.542 E12.66893
G1 X116.769 Y144.154 E12.7263
G1 X94.333 Y96.944 E14.46481
G1 X93.633 Y96.481 E14.49273
G1 X92.939 Y95.893 E14.52298
G1 X91.936 Y94.422 E14.5822
G1 X91.635 Y93.573 E14.61216
G1 X91.37 Y92.86 E14.63746
G1 X90.991 Y91.431 E14.68663
G1 X90.797 Y90.416 E14.721
G1 X90.737 Y89.867 E14.73937
G1 X90.586 Y89.063 E14.76657
G1 X90.714 Y87.638 E14.81416
G1 X90.847 Y87.034 E14.83473
G1 X90.767 Y85.708 E14.87892
G1 X91.283 Y83.321 E14.96014
G1 X91.498 Y82.719 E14.9814
G1 X91.626 Y82.307 E14.99575
G1 X92.122 Y81.095 E15.03931
G1 X92.31 Y80.746 E15.05249
G1 X92.585 Y80.203 E15.07274
G1 X92.711 Y79.99 E15.08097
G1 X92.96 Y79.467 E15.10023
G1 X94.053 Y78.042 E15.15997
G1 X94.488 Y77.757 E15.17726
G1 X95.059 Y76.827 E15.21356
G1 X96.21 Y75.708 E15.26695
G1 X97.096 Y74.971 E15.30528
G1 X97.376 Y74.786 E15.31644
G1 X97.87 Y74.43 E15.3367
G1 X98.599 Y73.962 E15.36551
G1 X99.668 Y73.392 E15.4058
G1 X100.147 Y73.184 E15.42317
G1 X100.805 Y72.851 E15.4477
G1 X101.923 Y72.566 E15.48607
G1 X102.79 Y72.476 E15.51507
G1 X103.505 Y72.139 E15.54136
G1 X105.029 Y71.798 E15.5933
G1 X105.703 Y71.778 E15.61573
G1 X106.56 Y71.724 E15.64429
G1 X106.924 Y71.74 E15.6564
G1 X107.471 Y71.738 E15.6746
G1 X108.354 Y71.781 E15.704
G1 X109.695 Y71.964 E15.74902
G1 X110.061 Y72.049 E15.76151
G1 X110.58 Y72.114 E15.77891
G1 X112.3 Y72.706 E15.83941
G1 X112.749 Y73.065 E15.85853
G1 X113.792 Y73.248 E15.89375
G1 X114.876 Y73.884 E15.93555
G1 X115.934 Y74.453 E15.97551
G1 X116.482 Y74.912 E15.99928
G1 X117.046 Y75.334 E16.02271
G1 X118.024 Y76.172 E16.06555
G1 X118.472 Y76.65 E16.08734
G1 X119.468 Y77.582 E16.13271
G1 X120.338 Y79.328 E16.19759
G1 X121.027 Y80.069 E16.23124
G1 X122.147 Y82.394 E16.31708
G1 X122.292 Y83.008 E16.33806
G1 X122.39 Y83.315 E16.34878
G1 X122.753 Y84.607 E16.39342
G1 X122.875 Y85.276 E16.41603
G1 X122.961 Y86.053 E16.44203
G1 X123.113 Y86.839 E16.46866
G1 X122.976 Y88.328 E16.51839
G1 X122.728 Y89.455 E16.55678
G1 X121.774 Y91.16 E16.62176
G1 X121.595 Y91.359 E16.63066
G1 X128.368 Y140.776 E18.28964
G1 X128.242 Y142.15 E18.33553
G1 X128.013 Y143.186 E18.37082
G1 X127.268 Y144.558 E18.42275
G1 X126.168 Y145.816 E18.47833
G1 X124.633 Y146.722 E18.53761
G1 X123.189 Y147.213 E18.58834
G0 F9000 X123.122 Y146.813
G1 F1800 X121.406 Y146.812 E18.64542
G1 X119.793 Y146.399 E18.7008
G1 X118.074 Y145.249 E18.76958
G1 X117.114 Y143.948 E18.82336
G1 X94.646 Y96.67 E20.56437
G1 X93.892 Y96.176 E20.59435
G1 X93.237 Y95.621 E20.62291
G1 X92.296 Y94.241 E20.67846
G1 X92.01 Y93.433 E20.70697
G1 X91.757 Y92.757 E20.73097
G1 X91.378 Y91.328 E20.78015
G1 X91.195 Y90.373 E20.81249
G1 X91.134 Y89.814 E20.83119
G1 X90.989 Y89.042 E20.85732
G1 X91.105 Y87.724 E20.90132
G1 X91.249 Y87.068 E20.92366
G1 X91.169 Y85.739 E20.96794
G1 X91.66 Y83.456 E21.04561
G1 X91.875 Y82.854 E21.06687
G1 X92.008 Y82.426 E21.08178
G1 X92.474 Y81.285 E21.12277
G1 X92.662 Y80.936 E21.13596
G1 X92.93 Y80.406 E21.15571
G1 X93.062 Y80.182 E21.16436
G1 X93.304 Y79.675 E21.18304
G1 X94.327 Y78.341 E21.23896
G1 X94.782 Y78.043 E21.25705
G1 X95.373 Y77.08 E21.29463
G1 X96.489 Y75.995 E21.3464
G1 X97.317 Y75.305 E21.38225
G1 X97.597 Y75.12 E21.39341
G1 X98.086 Y74.767 E21.41347
G1 X98.815 Y74.299 E21.44228
G1 X99.827 Y73.759 E21.48043
G1 X100.315 Y73.547 E21.49813
G1 X100.944 Y73.229 E21.52157
G1 X102.022 Y72.954 E21.55857
G1 X102.898 Y72.867 E21.58785
G1 X103.637 Y72.519 E21.61502
G1 X105.076 Y72.197 E21.66407
G1 X105.715 Y72.178 E21.68533
G1 X106.542 Y72.124 E21.71289
G1 X106.907 Y72.14 E21.72504
G1 X107.452 Y72.138 E21.74317
G1 X108.335 Y72.181 E21.77257
G1 X109.604 Y72.354 E21.81517
G1 X109.987 Y72.443 E21.82825
G1 X110.491 Y72.506 E21.84514
G1 X112.104 Y73.061 E21.90188
G1 X112.579 Y73.441 E21.92211
G1 X113.651 Y73.629 E21.95831
G1 X114.673 Y74.229 E21.99773
G1 X115.705 Y74.784 E22.0367
G1 X116.225 Y75.219 E22.05925
G1 X116.786 Y75.638 E22.08254
G1 X117.732 Y76.445 E22.1239
G1 X118.189 Y76.933 E22.14613
G1 X119.142 Y77.825 E22.18955
G1 X120.006 Y79.558 E22.25395
G1 X120.693 Y80.297 E22.28751
G1 X121.768 Y82.529 E22.36991
G1 X121.908 Y83.123 E22.39021
G1 X122.005 Y83.424 E22.40073
G1 X122.359 Y84.679 E22.4441
G1 X122.481 Y85.348 E22.46672
G1 X122.565 Y86.111 E22.49225
G1 X122.71 Y86.861 E22.51765
G1 X122.585 Y88.242 E22.56377
G1 X122.349 Y89.313 E22.60025
G1 X121.425 Y90.965 E22.66321
G1 X121.172 Y91.215 E22.67504
G1 X127.966 Y140.785 E24.33915
G1 X127.851 Y142.064 E24.38187
G1 X127.634 Y143.047 E24.41535
G1 X126.938 Y144.328 E24.46384
G1 X125.909 Y145.505 E24.51584
G1 X124.469 Y146.355 E24.57145
G1 X123.122 Y146.813 E24.61877
G0 F9000 X123.055 Y146.413
G1 F1800 X121.458 Y146.412 E24.67189
G1 X119.957 Y146.028 E24.72342
G1 X118.354 Y144.955 E24.78758
G1 X117.459 Y143.742 E24.83772
G1 X94.959 Y96.396 E26.58122
G1 X94.111 Y95.841 E26.61493
G1 X93.535 Y95.349 E26.64013
G1 X92.656 Y94.06 E26.69202
G1 X92.387 Y93.3 E26.71883
G1 X92.144 Y92.654 E26.74179
G1 X91.765 Y91.225 E26.79096
G1 X91.593 Y90.33 E26.82127
G1 X91.531 Y89.761 E26.84031
G1 X91.393 Y89.024 E26.86525
G1 X91.496 Y87.81 E26.90577
G1 X91.651 Y87.102 E26.92988
G1 X91.571 Y85.77 E26.97426
G1 X92.037 Y83.591 E27.04837
G1 X92.252 Y82.989 E27.06963
G1 X92.379 Y82.576 E27.08401
G1 X92.826 Y81.475 E27.12353
G1 X93.014 Y81.126 E27.13671
G1 X93.287 Y80.587 E27.15681
G1 X93.415 Y80.371 E27.16516
G1 X93.648 Y79.883 E27.18315
G1 X94.601 Y78.64 E27.23524
G1 X95.076 Y78.329 E27.25412
G1 X95.687 Y77.333 E27.29299
G1 X96.746 Y76.302 E27.34215
G1 X97.538 Y75.639 E27.3765
G1 X97.818 Y75.454 E27.38766
G1 X98.302 Y75.104 E27.40753
G1 X99.031 Y74.636 E27.43634
G1 X99.986 Y74.126 E27.47235
G1 X100.483 Y73.91 E27.49037
G1 X101.083 Y73.607 E27.51273
G1 X102.121 Y73.342 E27.54836
G1 X103.005 Y73.258 E27.5779
G1 X103.769 Y72.899 E27.60597
G1 X105.123 Y72.596 E27.65212
G1 X105.727 Y72.578 E27.67222
G1 X106.525 Y72.524 E27.69882
G1 X106.891 Y72.54 E27.711
G1 X107.433 Y72.538 E27.72903
G1 X108.316 Y72.581 E27.75844
G1 X109.513 Y72.744 E27.79862
G1 X109.913 Y72.837 E27.81227
G1 X110.402 Y72.898 E27.82866
G1 X111.906 Y73.416 E27.88157
G1 X112.408 Y73.817 E27.90294
G1 X113.51 Y74.01 E27.94015
G1 X114.47 Y74.574 E27.97718
G1 X115.481 Y75.118 E28.01537
G1 X115.986 Y75.54 E28.03726
G1 X116.527 Y75.943 E28.05969
G1 X117.44 Y76.718 E28.09953
G1 X117.906 Y77.216 E28.12221
G1 X118.815 Y78.067 E28.16363
G1 X119.623 Y79.677 E28.22354
G1 X119.656 Y79.769 E28.22679
G1 X120.359 Y80.525 E28.26113
G1 X121.389 Y82.664 E28.34009
G1 X121.525 Y83.238 E28.35971
G1 X121.62 Y83.533 E28.37002
G1 X121.965 Y84.751 E28.41212
G1 X122.087 Y85.42 E28.43474
G1 X122.169 Y86.169 E28.4598
G1 X122.307 Y86.884 E28.48402
G1 X122.194 Y88.156 E28.52649
G1 X121.97 Y89.171 E28.56106
G1 X121.076 Y90.77 E28.622
G1 X120.746 Y91.054 E28.63648
G1 X127.564 Y140.795 E30.30634
G1 X127.46 Y141.978 E30.34584
G1 X127.255 Y142.908 E30.37751
G1 X126.608 Y144.098 E30.42256
G1 X125.65 Y145.194 E30.47098
G1 X124.305 Y145.988 E30.52293
G1 X123.055 Y146.413 E30.56684
G0 F9000 X122.988 Y146.013
G1 F1800 X121.51 Y146.012 E30.616
G1 X120.121 Y145.657 E30.66368
G1 X118.634 Y144.661 E30.72321
G1 X117.804 Y143.536 E30.76971
G1 X95.272 Y96.123 E32.51568
G1 X94.371 Y95.537 E32.55143
G1 X93.836 Y95.08 E32.57483
G1 X93.016 Y93.877 E32.62326
G1 X92.764 Y93.166 E32.64835
G1 X92.531 Y92.551 E32.67022
G1 X92.152 Y91.122 E32.71939
G1 X92.071 Y90.669 E32.7347
G1 X91.991 Y90.287 E32.74768
G1 X91.928 Y89.707 E32.76708
G1 X91.796 Y89.006 E32.79081
G1 X91.895 Y87.844 E32.8296
G1 X92.058 Y87.114 E32.85448
G1 X92.045 Y87.027 E32.8574
G1 X91.973 Y85.801 E32.89825
G1 X92.414 Y83.726 E32.9688
G1 X92.629 Y83.124 E32.99007
G1 X92.75 Y82.726 E33.0039
G1 X93.178 Y81.665 E33.04195
G1 X93.366 Y81.316 E33.05514
G1 X93.631 Y80.791 E33.0747
G1 X93.768 Y80.56 E33.08363
G1 X93.992 Y80.091 E33.10092
G1 X94.875 Y78.939 E33.14919
G1 X95.37 Y78.615 E33.16887
G1 X96.001 Y77.586 E33.20902
G1 X97.025 Y76.589 E33.25655
G1 X97.759 Y75.973 E33.28842
G1 X98.039 Y75.788 E33.29959
G1 X98.518 Y75.441 E33.31926
G1 X99.247 Y74.973 E33.34807
G1 X100.174 Y74.479 E33.38301
G1 X100.663 Y74.268 E33.40072
G1 X101.224 Y73.984 E33.42164
G1 X102.22 Y73.73 E33.45582
G1 X102.976 Y73.657 E33.48109
G1 X103.085 Y73.662 E33.48471
G1 X103.901 Y73.279 E33.5147
G1 X105.17 Y72.995 E33.55795
G1 X105.742 Y72.978 E33.57698
G1 X106.508 Y72.924 E33.60252
G1 X106.875 Y72.94 E33.61474
G1 X107.414 Y72.938 E33.63267
G1 X108.297 Y72.981 E33.66207
G1 X109.422 Y73.134 E33.69983
G1 X109.838 Y73.231 E33.71404
G1 X110.313 Y73.29 E33.72996
G1 X111.71 Y73.771 E33.7791
G1 X112.238 Y74.193 E33.80158
G1 X113.37 Y74.392 E33.83981
G1 X114.28 Y74.926 E33.8749
G1 X115.254 Y75.45 E33.91169
G1 X115.729 Y75.847 E33.93228
G1 X116.269 Y76.248 E33.95465
G1 X117.148 Y76.991 E33.99293
G1 X117.632 Y77.508 E34.01649
G1 X118.49 Y78.312 E34.05559
G1 X119.246 Y79.811 E34.11143
G1 X119.306 Y79.98 E34.1174
G1 X120.026 Y80.754 E34.15256
G1 X121.009 Y82.796 E34.22793
G1 X121.141 Y83.351 E34.24691
G1 X121.235 Y83.643 E34.25711
G1 X121.571 Y84.823 E34.29792
G1 X121.693 Y85.492 E34.32054
G1 X121.773 Y86.226 E34.34509
G1 X121.903 Y86.903 E34.36802
G1 X121.803 Y88.07 E34.40698
G1 X121.591 Y89.029 E34.43964
G1 X120.762 Y90.512 E34.49615
G1 X120.423 Y90.796 E34.51086
G1 X120.334 Y90.993 E34.51805
G1 X127.161 Y140.801 E36.19016
G1 X127.069 Y141.892 E36.22658
G1 X126.876 Y142.766 E36.25635
G1 X126.276 Y143.871 E36.29817
G1 X125.391 Y144.883 E36.34288
G1 X124.141 Y145.621 E36.39116
G1 X122.988 Y146.013 E36.43167
G0 F9000 X122.921 Y145.613
G1 F1800 X121.562 Y145.612 E36.47687
G1 X120.284 Y145.285 E36.52074
G1 X118.915 Y144.369 E36.57553
G1 X118.149 Y143.33 E36.61846
G1 X95.584 Y95.849 E38.36695
G1 X94.631 Y95.233 E38.4047
G1 X94.135 Y94.809 E38.4264
G1 X93.376 Y93.696 E38.47121
G1 X93.138 Y93.023 E38.49495
G1 X92.918 Y92.448 E38.51543
G1 X92.546 Y91.052 E38.56348
G1 X92.465 Y90.599 E38.57878
G1 X92.383 Y90.205 E38.59217
G1 X92.325 Y89.652 E38.61066
G1 X92.199 Y88.987 E38.63317
G1 X92.286 Y87.93 E38.66845
G1 X92.438 Y87.238 E38.69201
G1 X92.47 Y87.14 E38.69544
G1 X92.444 Y87.003 E38.70008
G1 X92.375 Y85.831 E38.73913
G1 X92.791 Y83.861 E38.8061
G1 X93.006 Y83.259 E38.82736
G1 X93.121 Y82.875 E38.84069
G1 X93.53 Y81.855 E38.87724
G1 X93.718 Y81.506 E38.89043
G1 X93.975 Y80.995 E38.90945
G1 X94.121 Y80.749 E38.91896
G1 X94.336 Y80.299 E38.93555
G1 X95.151 Y79.236 E38.9801
G1 X95.706 Y78.872 E39.00218
G1 X95.771 Y78.726 E39.00749
G1 X96.315 Y77.839 E39.0421
G1 X97.304 Y76.876 E39.08801
G1 X97.98 Y76.307 E39.1174
G1 X98.26 Y76.122 E39.12856
G1 X98.734 Y75.778 E39.14804
G1 X99.463 Y75.31 E39.17686
G1 X100.333 Y74.846 E39.20965
G1 X100.83 Y74.631 E39.22766
G1 X101.366 Y74.36 E39.24764
G1 X102.261 Y74.128 E39.27839
