;FLAVOR:Marlin
;TIME:1802
;Filament used: 1.8638m
;Layer height: 0.16
;MINX:95.5
;MINY:60.5
;MINZ:0.2
;MAXX:124.5
;MAXY:159.503
;MAXZ:12.96
;TARGET_MACHINE.NAME:Creality Ender-3 V3 SE
;Generated with Cura_SteamEngine 5.9.1
M82 ;absolute extrusion mode
M220 S100 ;Reset Feedrate
M221 S100 ;Reset Flowrate

G28 ;Home

M420 S1; Use saved mesh leveling data

G92 E0 ;Reset Extruder
G1 Z2.0 F3000 ;Move Z Axis up
G1 X-3 Y20 Z0.28 F5000.0 ;Move to start position
M190 S60 ; Set bed temperature and wait
M109 S200 ; Set hotend temperature and wait
G1 X-3 Y100.0 Z0.28 F1500.0 E15 ;Draw the first line
G1 X-2 Y100.0 Z0.28 F5000.0 ;Move to side a little
G1 X-2 Y20 Z0.28 F1500.0 E30 ;Draw the second line
G92 E0 ;Reset Extruder
G1 E-1.0000 F1800 ;Retract a bit
G1 Z2.0 F3000 ;Move Z Axis up
G1 E0.0000 F1800 

G92 E0
G92 E0
G1 F2400 E-0.8
;LAYER_COUNT:68
;LAYER:0
M107
G0 F9000 X108.5 Y141.5 Z0.2
;TYPE:SKIRT
G1 F2400 E0
G1 F1800 X102.822 Y141.5 E0.18885
G1 X101.324 Y141.145 E0.24005
G1 X99.638 Y140.527 E0.29978
G1 X98.083 Y139.202 E0.36773
G1 X97.11 Y138.157 E0.41522
G1 X96.271 Y136.361 E0.48115
G1 X95.819 Y135 E0.52885
G1 X95.843 Y132.892 E0.59897
G1 X96.004 Y131.624 E0.64148
G1 X96.518 Y130.48 E0.68319
G1 X95.814 Y129.073 E0.73552
G1 X95.57 Y127.587 E0.78561
G1 X95.5 Y67.046 E2.79921
G1 X95.918 Y65.182 E2.86275
G1 X96.757 Y63.647 E2.92093
G1 X97.784 Y62.468 E2.97293
G1 X99.304 Y61.333 E3.03603
G1 X101.595 Y60.5 E3.11711
G1 X118.26 Y60.5 E3.67139
G1 X119.964 Y60.919 E3.72975
G1 X121.787 Y61.865 E3.79806
G1 X123.091 Y63.261 E3.8616
G1 X124.177 Y65.081 E3.93209
G1 X124.435 Y66.651 E3.98501
G1 X124.5 Y153.26 E6.86564
G1 X124.081 Y154.964 E6.924
G1 X123.135 Y156.787 E6.99231
G1 X121.724 Y158.106 E7.05655
G1 X120.253 Y158.982 E7.1135
G1 X119.652 Y159.222 E7.13502
G1 X118.085 Y159.459 E7.18773
G1 X115.07 Y159.503 E7.28802
G1 X113.18 Y159.08 E7.35244
G1 X111.647 Y158.243 E7.41053
G1 X110.468 Y157.216 E7.46254
G1 X109.333 Y155.696 E7.52563
G1 X108.5 Y153.405 E7.60671
G1 X108.5 Y141.5 E8.00267
G0 F9000 X108.9 Y141.1
G1 F1800 X102.868 Y141.1 E8.2033
G1 X101.462 Y140.769 E8.25134
G1 X99.842 Y140.175 E8.30873
G1 X98.376 Y138.929 E8.37272
G1 X97.445 Y137.929 E8.41816
G1 X96.651 Y136.235 E8.48039
G1 X96.22 Y134.937 E8.52588
G1 X96.24 Y132.943 E8.5922
G1 X96.394 Y131.733 E8.63277
G1 X96.98 Y130.429 E8.68032
G1 X96.805 Y130.158 E8.69105
G1 X96.199 Y128.948 E8.73606
G1 X95.965 Y127.522 E8.78412
G1 X95.9 Y67.088 E10.79417
G1 X96.295 Y65.326 E10.85423
G1 X97.086 Y63.879 E10.90908
G1 X98.059 Y62.762 E10.95835
G1 X99.496 Y61.689 E11.01799
G1 X101.666 Y60.9 E11.09479
G1 X118.214 Y60.9 E11.64518
G1 X119.821 Y61.295 E11.70022
G1 X121.542 Y62.188 E11.76471
G1 X122.77 Y63.503 E11.82455
G1 X123.794 Y65.219 E11.89101
G1 X124.04 Y66.716 E11.94147
G1 X124.1 Y153.214 E14.81841
G1 X123.705 Y154.821 E14.87345
G1 X122.812 Y156.542 E14.93794
G1 X121.485 Y157.782 E14.99834
G1 X120.048 Y158.638 E15.05398
G1 X119.548 Y158.833 E15.07183
G1 X118.025 Y159.063 E15.12305
G1 X115.109 Y159.102 E15.22005
G1 X113.324 Y158.703 E15.28088
G1 X111.879 Y157.914 E15.33564
G1 X110.762 Y156.941 E15.38491
G1 X109.689 Y155.504 E15.44456
G1 X108.9 Y153.334 E15.52136
G1 X108.9 Y141.1 E15.92826
G0 F9000 X109.3 Y140.7
G1 F1800 X102.912 Y140.7 E16.14073
G1 X101.6 Y140.393 E16.18555
G1 X100.046 Y139.823 E16.2406
G1 X98.669 Y138.656 E16.30063
G1 X97.78 Y137.701 E16.34403
G1 X97.031 Y136.109 E16.40255
G1 X96.621 Y134.873 E16.44586
G1 X96.637 Y132.993 E16.50839
G1 X96.783 Y131.843 E16.54695
G1 X97.435 Y130.393 E16.59983
G1 X97.163 Y129.979 E16.6163
G1 X96.584 Y128.823 E16.6593
G1 X96.36 Y127.457 E16.70534
G1 X96.3 Y67.13 E18.71183
G1 X96.672 Y65.47 E18.76841
G1 X97.415 Y64.111 E18.81992
G1 X98.334 Y63.056 E18.86646
G1 X99.688 Y62.045 E18.92266
G1 X101.737 Y61.3 E18.99518
G1 X118.168 Y61.3 E19.54167
G1 X119.678 Y61.671 E19.59339
G1 X121.297 Y62.511 E19.65406
G1 X122.449 Y63.745 E19.7102
G1 X123.411 Y65.357 E19.77264
G1 X123.645 Y66.781 E19.82064
G1 X123.7 Y153.168 E22.69388
G1 X123.329 Y154.678 E22.7456
G1 X122.489 Y156.297 E22.80626
G1 X121.246 Y157.458 E22.86283
G1 X119.843 Y158.294 E22.91715
G1 X119.448 Y158.443 E22.9312
G1 X117.965 Y158.667 E22.98108
G1 X115.149 Y158.701 E23.07475
G1 X113.468 Y158.326 E23.13203
G1 X112.111 Y157.585 E23.18346
G1 X111.056 Y156.666 E23.22999
G1 X110.045 Y155.312 E23.2862
G1 X109.3 Y153.263 E23.35871
G1 X109.3 Y140.7 E23.77656
G0 F9000 X109.7 Y140.3
G1 F1800 X102.959 Y140.3 E24.00076
G1 X101.738 Y140.017 E24.04245
G1 X100.25 Y139.471 E24.09517
G1 X98.962 Y138.383 E24.15125
G1 X98.115 Y137.474 E24.19257
G1 X97.411 Y135.983 E24.24741
G1 X97.022 Y134.809 E24.28855
G1 X97.034 Y133.044 E24.34725
G1 X97.173 Y131.952 E24.38387
G1 X97.891 Y130.355 E24.4421
G1 X97.521 Y129.8 E24.46429
G1 X96.968 Y128.696 E24.50536
G1 X96.76 Y127.457 E24.54714
G1 X96.7 Y67.172 E26.55223
G1 X97.049 Y65.614 E26.60533
G1 X97.744 Y64.343 E26.65352
G1 X98.609 Y63.35 E26.69732
G1 X99.88 Y62.401 E26.75007
G1 X101.808 Y61.7 E26.81831
G1 X118.121 Y61.7 E27.36088
G1 X119.536 Y62.048 E27.40934
G1 X121.052 Y62.834 E27.46614
G1 X122.128 Y63.987 E27.51859
G1 X123.028 Y65.495 E27.577
G1 X123.25 Y66.846 E27.62254
G1 X123.3 Y153.121 E30.49206
G1 X122.952 Y154.536 E30.54053
G1 X122.166 Y156.052 E30.59732
G1 X121.007 Y157.134 E30.65006
G1 X119.638 Y157.95 E30.70307
G1 X119.349 Y158.053 E30.71327
G1 X117.905 Y158.271 E30.76184
G1 X115.189 Y158.3 E30.85218
G1 X113.612 Y157.949 E30.90592
G1 X112.343 Y157.256 E30.95401
G1 X111.35 Y156.391 E30.99781
G1 X110.401 Y155.12 E31.05057
G1 X109.7 Y153.192 E31.1188
G1 X109.7 Y140.3 E31.54759
G0 F9000 X110.1 Y139.9
G1 F1800 X103.006 Y139.9 E31.78354
G1 X101.828 Y139.627 E31.82375
G1 X100.456 Y139.121 E31.87239
G1 X99.22 Y138.077 E31.9262
G1 X98.449 Y137.246 E31.96391
G1 X97.791 Y135.857 E32.01503
G1 X97.422 Y134.745 E32.054
G1 X97.431 Y133.094 E32.10891
G1 X97.562 Y132.062 E32.14351
G1 X98.261 Y130.508 E32.20018
G1 X98.362 Y130.34 E32.2067
G1 X97.854 Y129.578 E32.23716
G1 X97.353 Y128.573 E32.27451
G1 X97.155 Y127.391 E32.31437
G1 X97.1 Y67.214 E34.31587
G1 X97.426 Y65.758 E34.36549
G1 X98.073 Y64.575 E34.41034
G1 X98.884 Y63.644 E34.45141
G1 X100.072 Y62.757 E34.50072
G1 X101.879 Y62.1 E34.56467
G1 X118.075 Y62.1 E35.10335
G1 X119.393 Y62.424 E35.14849
G1 X120.807 Y63.157 E35.20147
G1 X121.807 Y64.229 E35.25023
G1 X122.645 Y65.633 E35.30461
G1 X122.855 Y66.911 E35.34769
G1 X122.9 Y153.075 E38.21351
G1 X122.576 Y154.393 E38.25865
G1 X121.843 Y155.807 E38.31163
G1 X120.768 Y156.81 E38.36053
G1 X119.433 Y157.606 E38.41222
G1 X119.289 Y157.657 E38.41731
G1 X117.845 Y157.875 E38.46588
G1 X115.229 Y157.9 E38.55289
G1 X113.756 Y157.572 E38.60308
G1 X112.575 Y156.927 E38.64784
G1 X111.644 Y156.116 E38.6889
G1 X110.757 Y154.928 E38.73822
G1 X110.1 Y153.121 E38.80217
G1 X110.1 Y139.9 E39.2419
G0 F9000 X110.5 Y139.5
G1 F1800 X103.053 Y139.5 E39.48959
G1 X101.918 Y139.237 E39.52834
G1 X100.661 Y138.77 E39.57294
G1 X99.478 Y137.771 E39.62444
G1 X98.784 Y137.019 E39.65847
G1 X98.171 Y135.731 E39.70592
G1 X97.822 Y134.68 E39.74275
G1 X97.828 Y133.145 E39.7938
G1 X97.952 Y132.171 E39.82646
G1 X98.626 Y130.672 E39.88112
G1 X98.838 Y130.333 E39.89442
G1 X98.187 Y129.356 E39.93347
G1 X97.738 Y128.45 E39.9671
G1 X97.55 Y127.325 E40.00504
G1 X97.5 Y67.257 E42.00291
G1 X97.804 Y65.901 E42.04913
G1 X98.402 Y64.807 E42.0906
G1 X99.159 Y63.938 E42.12893
G1 X100.264 Y63.113 E42.1748
G1 X101.95 Y62.5 E42.23446
G1 X118.029 Y62.5 E42.76925
G1 X119.25 Y62.8 E42.81107
G1 X120.56 Y63.479 E42.86015
G1 X121.488 Y64.474 E42.9054
G1 X122.262 Y65.771 E42.95564
G1 X122.46 Y66.976 E42.99625
G1 X122.5 Y153.029 E45.85839
G1 X122.2 Y154.25 E45.90021
G1 X121.521 Y155.56 E45.94928
G1 X120.526 Y156.488 E45.99453
G1 X119.228 Y157.262 E46.0448
G1 X117.841 Y157.475 E46.09147
G1 X115.269 Y157.5 E46.17702
G1 X113.9 Y157.195 E46.22367
G1 X112.807 Y156.598 E46.26509
G1 X111.938 Y155.841 E46.30342
G1 X111.113 Y154.736 E46.34929
G1 X110.5 Y153.05 E46.40896
G1 X110.5 Y139.5 E46.85963
G0 F9000 X110.9 Y139.1
G1 F1800 X103.099 Y139.1 E47.1191
G1 X102.057 Y138.862 E47.15465
G1 X100.867 Y138.42 E47.19687
G1 X99.736 Y137.465 E47.2461
G1 X99.12 Y136.793 E47.27642
G1 X98.551 Y135.605 E47.32023
G1 X98.222 Y134.615 E47.35493
G1 X98.225 Y133.196 E47.40213
G1 X98.342 Y132.279 E47.43287
G1 X98.965 Y130.885 E47.48366
G1 X99.315 Y130.327 E47.50557
G1 X98.52 Y129.134 E47.55325
G1 X98.124 Y128.328 E47.58312
G1 X97.945 Y127.259 E47.61917
G1 X97.9 Y67.299 E49.61345
G1 X98.181 Y66.045 E49.65619
G1 X98.731 Y65.039 E49.69432
G1 X99.434 Y64.232 E49.72992
G1 X100.456 Y63.469 E49.77234
G1 X102.021 Y62.9 E49.82772
G1 X117.983 Y62.9 E50.35862
G1 X119.107 Y63.176 E50.39712
G1 X120.313 Y63.801 E50.4423
G1 X121.166 Y64.716 E50.4839
G1 X121.879 Y65.911 E50.53019
G1 X122.065 Y67.041 E50.56827
G1 X122.1 Y152.983 E53.42672
G1 X121.824 Y154.107 E53.46521
G1 X121.199 Y155.313 E53.51039
G1 X120.284 Y156.166 E53.552
G1 X119.089 Y156.879 E53.59828
G1 X117.837 Y157.075 E53.64043
G1 X115.309 Y157.1 E53.72451
G1 X114.044 Y156.818 E53.76762
G1 X113.039 Y156.269 E53.80571
G1 X112.232 Y155.566 E53.84131
G1 X111.469 Y154.544 E53.88373
G1 X110.9 Y152.979 E53.93911
G1 X110.9 Y139.1 E54.40073
G0 F9000 X111.3 Y138.7
G1 F1800 X103.143 Y138.7 E54.67203
G1 X102.196 Y138.487 E54.70432
G1 X101.071 Y138.069 E54.74423
G1 X100.031 Y137.195 E54.78942
G1 X99.456 Y136.568 E54.81771
G1 X98.912 Y135.432 E54.85961
G1 X98.622 Y134.551 E54.89045
G1 X98.622 Y133.247 E54.93383
G1 X98.732 Y132.388 E54.96263
G1 X99.304 Y131.098 E55.00956
G1 X99.625 Y130.587 E55.02963
G1 X99.917 Y130.316 E55.04289
G1 X99.633 Y130.09 E55.05496
G1 X98.879 Y128.957 E55.10022
G1 X98.509 Y128.205 E55.1281
G1 X98.34 Y127.193 E55.16222
G1 X98.3 Y67.341 E57.15291
G1 X98.558 Y66.189 E57.19217
G1 X99.06 Y65.271 E57.22697
G1 X99.709 Y64.526 E57.25984
G1 X100.648 Y63.825 E57.29881
G1 X102.092 Y63.3 E57.34991
G1 X117.936 Y63.3 E57.87689
G1 X118.965 Y63.553 E57.91213
G1 X120.066 Y64.123 E57.95337
G1 X120.844 Y64.958 E57.99133
G1 X121.496 Y66.051 E58.03366
G1 X121.67 Y67.106 E58.06922
G1 X121.7 Y152.936 E60.92394
G1 X121.447 Y153.965 E60.95918
G1 X120.877 Y155.066 E61.00042
G1 X120.042 Y155.844 E61.03838
G1 X118.949 Y156.496 E61.08071
G1 X117.833 Y156.675 E61.1183
G1 X115.349 Y156.7 E61.20092
G1 X114.188 Y156.441 E61.24049
G1 X113.271 Y155.94 E61.27524
G1 X112.526 Y155.291 E61.3081
G1 X111.825 Y154.352 E61.34708
G1 X111.3 Y152.908 E61.39818
G1 X111.3 Y138.7 E61.87074
G0 F9000 X111.7 Y138.3
G1 F1800 X103.189 Y138.3 E62.15382
G1 X102.335 Y138.112 E62.1829
G1 X101.275 Y137.718 E62.22051
G1 X100.326 Y136.925 E62.26165
G1 X99.791 Y136.341 E62.28799
G1 X99.292 Y135.307 E62.32618
G1 X99.022 Y134.487 E62.35489
G1 X99.019 Y133.298 E62.39444
G1 X99.122 Y132.495 E62.42136
G1 X99.643 Y131.311 E62.46439
G1 X99.937 Y130.843 E62.48277
G1 X100.53 Y130.293 E62.50967
G1 X99.93 Y129.815 E62.53518
G1 X99.238 Y128.781 E62.57657
G1 X98.895 Y128.083 E62.60243
G1 X98.735 Y127.127 E62.63467
G1 X98.7 Y67.383 E64.62177
G1 X98.935 Y66.333 E64.65755
G1 X99.389 Y65.503 E64.68902
G1 X99.984 Y64.82 E64.71915
G1 X100.84 Y64.181 E64.75468
G1 X102.163 Y63.7 E64.8015
G1 X117.89 Y63.7 E65.32458
G1 X118.822 Y63.929 E65.3565
G1 X119.819 Y64.445 E65.39384
G1 X120.522 Y65.2 E65.42815
G1 X121.113 Y66.191 E65.46653
G1 X121.275 Y67.171 E65.49956
G1 X121.3 Y152.89 E68.35059
G1 X121.071 Y153.822 E68.38251
G1 X120.555 Y154.819 E68.41985
G1 X119.8 Y155.522 E68.45416
G1 X118.809 Y156.113 E68.49254
G1 X117.829 Y156.275 E68.52557
G1 X115.389 Y156.3 E68.60673
G1 X114.332 Y156.064 E68.64275
G1 X113.503 Y155.611 E68.67418
G1 X112.82 Y155.016 E68.7043
G1 X112.181 Y154.16 E68.73983
G1 X111.7 Y152.837 E68.78665
G1 X111.7 Y138.3 E69.27016
G0 F9000 X112.1 Y137.9
G1 F1800 X103.234 Y137.9 E69.56504
G1 X102.421 Y137.721 E69.59273
G1 X101.479 Y137.367 E69.6262
G1 X100.621 Y136.655 E69.66328
G1 X100.126 Y136.115 E69.68765
G1 X99.672 Y135.182 E69.72216
G1 X99.422 Y134.422 E69.74877
G1 X99.416 Y133.349 E69.78446
G1 X99.512 Y132.604 E69.80944
G1 X99.982 Y131.524 E69.84861
G1 X100.249 Y131.099 E69.86531
G1 X100.986 Y130.415 E69.89875
G1 X101.25 Y130.256 E69.909
G1 X100.727 Y129.945 E69.92924
G1 X100.228 Y129.542 E69.95057
G1 X99.597 Y128.604 E69.98817
G1 X99.28 Y127.96 E70.01205
G1 X99.13 Y127.061 E70.04236
G1 X99.1 Y67.426 E72.02583
G1 X99.313 Y66.476 E72.05821
G1 X99.718 Y65.735 E72.0863
G1 X100.259 Y65.114 E72.11369
G1 X101.032 Y64.537 E72.14577
G1 X102.234 Y64.1 E72.18831
G1 X117.844 Y64.1 E72.7075
G1 X118.679 Y64.305 E72.7361
G1 X119.574 Y64.768 E72.76962
G1 X120.198 Y65.439 E72.80009
G1 X120.73 Y66.331 E72.83464
G1 X120.88 Y67.236 E72.86515
G1 X120.9 Y152.844 E75.71248
G1 X120.695 Y153.679 E75.74108
G1 X120.232 Y154.574 E75.77459
G1 X119.561 Y155.198 E75.80507
G1 X118.669 Y155.73 E75.83961
G1 X117.764 Y155.88 E75.87012
G1 X115.429 Y155.9 E75.94779
G1 X114.476 Y155.687 E75.98027
G1 X113.735 Y155.282 E76.00836
G1 X113.114 Y154.741 E76.03575
G1 X112.537 Y153.968 E76.06783
G1 X112.1 Y152.766 E76.11037
G1 X112.1 Y137.9 E76.60482
G0 F9000 X112.5 Y137.5
G1 F1800 X103.279 Y137.5 E76.91151
G1 X102.507 Y137.33 E76.9378
G1 X101.684 Y137.017 E76.96708
G1 X100.877 Y136.347 E77.00197
G1 X100.461 Y135.888 E77.02257
G1 X100.052 Y135.057 E77.05338
G1 X99.822 Y134.357 E77.07789
G1 X99.813 Y133.4 E77.10972
G1 X99.902 Y132.709 E77.13289
G1 X100.321 Y131.737 E77.16809
G1 X100.561 Y131.355 E77.1831
G1 X101.258 Y130.708 E77.21473
G1 X102.145 Y130.222 E77.24837
G1 X101.81 Y130.124 E77.25998
G1 X100.932 Y129.601 E77.29397
G1 X100.525 Y129.268 E77.31146
G1 X99.956 Y128.428 E77.34521
G1 X99.666 Y127.838 E77.36707
G1 X99.525 Y126.995 E77.3955
G1 X99.5 Y67.468 E79.37538
G1 X99.69 Y66.62 E79.40428
G1 X100.047 Y65.967 E79.42903
G1 X100.534 Y65.408 E79.45369
G1 X101.224 Y64.893 E79.48233
G1 X102.305 Y64.5 E79.52058
G1 X117.798 Y64.5 E80.03588
G1 X118.536 Y64.681 E80.06116
G1 X119.329 Y65.091 E80.09085
G1 X119.874 Y65.678 E80.11749
G1 X120.347 Y66.471 E80.1482
G1 X120.485 Y67.302 E80.17622
G1 X120.5 Y152.798 E83.01983
G1 X120.319 Y153.536 E83.0451
G1 X119.909 Y154.329 E83.07479
G1 X119.322 Y154.874 E83.10143
G1 X118.529 Y155.347 E83.13214
G1 X117.698 Y155.485 E83.16016
G1 X115.47 Y155.5 E83.23427
G1 X114.62 Y155.31 E83.26324
G1 X113.967 Y154.953 E83.28799
G1 X113.408 Y154.466 E83.31265
G1 X112.893 Y153.776 E83.34128
G1 X112.5 Y152.695 E83.37954
G1 X112.5 Y137.5 E83.88493
G0 F9000 X112.9 Y137.1
G1 F1800 X103.324 Y137.1 E84.20343
G1 X102.593 Y136.939 E84.22832
G1 X101.89 Y136.668 E84.25338
G1 X101.133 Y136.039 E84.28612
G1 X100.794 Y135.66 E84.30303
G1 X100.432 Y134.932 E84.33007
G1 X100.221 Y134.291 E84.35252
G1 X100.21 Y133.451 E84.38046
G1 X100.292 Y132.815 E84.40179
G1 X100.66 Y131.95 E84.43305
G1 X100.873 Y131.611 E84.44637
G1 X101.493 Y131.036 E84.47449
G1 X102.544 Y130.459 E84.51437
G1 X103.242 Y130.244 E84.53866
G1 X105.079 Y130.212 E84.59977
G1 X105.222 Y130.133 E84.6052
G1 X105.304 Y130.008 E84.61018
G1 X105.324 Y129.816 E84.6166
G1 X105.257 Y129.638 E84.62292
G1 X104.99 Y129.579 E84.63202
G1 X104.224 Y129.788 E84.65843
G1 X103.71 Y129.947 E84.67632
G1 X103.291 Y129.985 E84.69031
G1 X102.333 Y129.86 E84.72245
G1 X101.972 Y129.755 E84.73495
G1 X101.185 Y129.291 E84.76534
G1 X100.823 Y128.995 E84.78089
G1 X100.315 Y128.251 E84.81086
G1 X100.051 Y127.715 E84.83073
G1 X99.92 Y126.929 E84.85723
G1 X99.9 Y67.51 E86.83351
G1 X100.067 Y66.764 E86.85894
G1 X100.376 Y66.199 E86.88036
G1 X100.809 Y65.702 E86.90228
G1 X101.416 Y65.249 E86.92748
G1 X102.376 Y64.9 E86.96145
G1 X117.748 Y64.9 E87.47272
G1 X118.397 Y65.059 E87.49495
G1 X119.084 Y65.414 E87.52067
G1 X119.55 Y65.917 E87.54347
G1 X119.964 Y66.611 E87.57035
G1 X120.09 Y67.368 E87.59588
G1 X120.1 Y152.748 E90.43563
G1 X119.941 Y153.397 E90.45785
G1 X119.586 Y154.084 E90.48357
G1 X119.083 Y154.55 E90.50638
G1 X118.389 Y154.964 E90.53325
G1 X117.632 Y155.09 E90.55878
G1 X115.511 Y155.1 E90.62932
G1 X114.764 Y154.933 E90.65478
G1 X114.199 Y154.624 E90.6762
G1 X113.702 Y154.191 E90.69813
G1 X113.249 Y153.584 E90.72332
G1 X112.9 Y152.624 E90.75729
G1 X112.9 Y137.1 E91.27362
G0 F9000 X113.3 Y136.7
G1 F1800 X103.369 Y136.7 E91.60393
