;FLAVOR:Marlin
;TIME:1774
;Filament used: 0.96316m
;Layer height: 0.2
;MINX:83.638
;MINY:79.671
;MINZ:0.2
;MAXX:137.213
;MAXY:139.739
;MAXZ:13.4
;TARGET_MACHINE.NAME:Creality Ender-3 V3 SE
;Generated with Cura_SteamEngine 5.10.0
M220 S100 ;Reset Feedrate
M221 S100 ;Reset Flowrate

G28 ;Home

M420 S1; Use saved mesh leveling data

G92 E0 ;Reset Extruder
G1 Z2.0 F3000 ;Move Z Axis up
G1 X-3 Y20 Z0.28 F5000.0 ;Move to start position
M190 S60 ; Set bed temperature and wait
M109 S200 ; Set hotend temperature and wait
G1 X-3 Y100.0 Z0.28 F1500.0 E15 ;Draw the first line
G1 X-2 Y100.0 Z0.28 F5000.0 ;Move to side a little
G1 X-2 Y20 Z0.28 F1500.0 E30 ;Draw the second line
G92 E0 ;Reset Extruder
G1 E-1.0000 F1800 ;Retract a bit
G1 Z2.0 F3000 ;Move Z Axis up
G1 E0.0000 F1800 

M82 ;absolute extrusion mode
G92 E0
G92 E0
G1 F2400 E-0.8
;LAYER_COUNT:67
;LAYER:0
M107
G0 F9000 X86.736 Y98.746 Z0.2
;TYPE:SKIRT
G1 F2400 E0
G1 F1800 X88.319 Y97.814 E0.0611
G1 X89.111 Y97.492 E0.08953
G1 X91.059 Y97.223 E0.15494
G1 X93.515 Y97.187 E0.23664
G1 X95.428 Y97.661 E0.30219
G1 X96.461 Y98.199 E0.34092
G1 X97.489 Y98.199 E0.37512
G1 X98.008 Y96.074 E0.44787
G1 X99.743 Y93.556 E0.54958
G1 X101.701 Y92.145 E0.62985
G1 X105.532 Y89.937 E0.77692
G1 X108.245 Y89.307 E0.86955
G1 X110.605 Y89.549 E0.94846
G1 X111.809 Y89.929 E0.99045
G1 X112.324 Y89.035 E1.02476
G1 X112.308 Y87.901 E1.06248
G1 X113 Y85.909 E1.13262
G1 X113.188 Y85.553 E1.14601
G1 X113.343 Y84.819 E1.17096
G1 X114.448 Y82.685 E1.25089
G1 X116.035 Y81.219 E1.32275
G1 X117.822 Y80.153 E1.39196
G1 X118.583 Y79.94 E1.41824
G1 X120.029 Y79.722 E1.46688
G1 X124.609 Y79.671 E1.61922
G1 X126.434 Y80.118 E1.68171
G1 X128.507 Y81.19 E1.75934
G1 X129.966 Y82.753 E1.83045
G1 X131.173 Y84.776 E1.9088
G1 X131.238 Y85.172 E1.92215
G1 X134.045 Y86.795 E2.02999
G1 X135.42 Y88.106 E2.09318
G1 X136.68 Y90.074 E2.1709
G1 X137.125 Y92.147 E2.24142
G1 X137.164 Y94.367 E2.31527
G1 X136.474 Y96.403 E2.38677
G1 X135.071 Y98.83 E2.48001
G1 X133.751 Y100.206 E2.54343
G1 X132.743 Y100.852 E2.58325
G1 X132.251 Y101.704 E2.61598
G1 X133.792 Y103.241 E2.68837
G1 X135.103 Y105.917 E2.78748
G1 X135.339 Y107.947 E2.85545
G1 X135.367 Y112.412 E3.00396
G1 X134.808 Y114.845 E3.08699
G1 X134.598 Y115.365 E3.10564
G1 X133.229 Y117.365 E3.18625
G1 X132.255 Y118.307 E3.23132
G1 X132.75 Y119.163 E3.26421
G1 X133.753 Y119.723 E3.30242
G1 X135.165 Y121.346 E3.37397
G1 X136.491 Y123.635 E3.46195
G1 X137.079 Y125.4 E3.52383
G1 X137.213 Y127.914 E3.60756
G1 X136.581 Y129.925 E3.67767
G1 X135.489 Y131.9 E3.75273
G1 X133.851 Y133.332 E3.8251
G1 X129.658 Y135.745 E3.986
G1 X129.007 Y135.96 E4.00881
G1 X128.735 Y136.268 E4.02247
G1 X123.973 Y139.019 E4.20539
G1 X122.212 Y139.605 E4.26712
G1 X119.704 Y139.739 E4.35065
G1 X117.683 Y139.105 E4.4211
G1 X115.726 Y138.016 E4.49559
G1 X114.296 Y136.366 E4.56821
G1 X112.985 Y134.103 E4.6552
G1 X112.386 Y132.301 E4.71836
G1 X112.318 Y130.942 E4.76361
G1 X111.824 Y130.087 E4.79646
G1 X109.938 Y130.529 E4.86088
G1 X108.297 Y130.702 E4.91577
G1 X105.488 Y130.027 E5.01185
G1 X100.574 Y127.202 E5.20038
G1 X98.605 Y125.013 E5.2983
G1 X97.477 Y122.257 E5.39735
G1 X97.446 Y121.799 E5.41262
G1 X96.456 Y121.799 E5.44554
G1 X95.794 Y122.184 E5.47102
G1 X95.002 Y122.506 E5.49945
G1 X93.054 Y122.775 E5.56486
G1 X90.606 Y122.811 E5.64629
G1 X88.691 Y122.339 E5.71189
G1 X86.665 Y121.284 E5.78786
G1 X85.194 Y119.711 E5.85949
G1 X84.213 Y118.046 E5.92377
G1 X83.947 Y117.426 E5.9462
G1 X83.688 Y115.705 E6.00409
G1 X83.639 Y110.627 E6.17299
G1 X83.765 Y110.106 E6.19082
G1 X83.638 Y109.764 E6.20295
G1 X83.639 Y104.146 E6.38981
G1 X84.105 Y102.25 E6.45475
G1 X85.158 Y100.222 E6.53075
G1 X86.736 Y98.746 E6.60262
G0 F9000 X86.976 Y99.069
G1 F1800 X88.47 Y98.185 E6.66035
G1 X89.218 Y97.881 E6.68721
G1 X91.065 Y97.623 E6.74924
G1 X93.47 Y97.588 E6.82924
G1 X95.283 Y98.037 E6.89136
G1 X96.362 Y98.599 E6.93182
G1 X97.804 Y98.599 E6.97978
G1 X98.38 Y96.239 E7.06058
G1 X100.033 Y93.84 E7.15748
G1 X101.901 Y92.492 E7.2341
G1 X105.681 Y90.314 E7.3792
G1 X108.272 Y89.712 E7.46767
G1 X110.522 Y89.943 E7.5429
G1 X111.996 Y90.407 E7.59429
G1 X112.726 Y89.14 E7.64293
G1 X112.709 Y87.965 E7.68201
G1 X113.354 Y86.096 E7.74778
G1 X113.567 Y85.693 E7.76294
G1 X113.723 Y84.955 E7.78802
G1 X114.77 Y82.933 E7.86376
G1 X116.276 Y81.541 E7.93197
G1 X117.982 Y80.524 E7.99803
G1 X118.643 Y80.336 E8.02088
G1 X120.089 Y80.118 E8.06952
G1 X124.561 Y80.072 E8.21827
G1 X126.295 Y80.496 E8.27764
G1 X128.262 Y81.514 E8.3513
G1 X129.642 Y82.992 E8.41856
G1 X130.79 Y84.916 E8.49308
G1 X130.873 Y85.423 E8.51017
G1 X133.801 Y87.116 E8.62266
G1 X135.109 Y88.363 E8.68277
G1 X136.304 Y90.23 E8.75649
G1 X136.726 Y92.192 E8.82324
G1 X136.763 Y94.305 E8.89353
G1 X136.107 Y96.239 E8.96146
G1 X134.751 Y98.586 E9.05161
G1 X133.495 Y99.895 E9.11195
G1 X132.446 Y100.567 E9.15338
G1 X131.751 Y101.77 E9.19959
G1 X133.462 Y103.476 E9.27995
G1 X134.714 Y106.031 E9.37459
G1 X134.939 Y107.95 E9.43885
G1 X134.967 Y112.368 E9.5858
G1 X134.437 Y114.695 E9.66518
G1 X134.243 Y115.176 E9.68243
G1 X132.921 Y117.107 E9.76026
G1 X131.753 Y118.237 E9.81431
G1 X132.459 Y119.458 E9.86122
G1 X133.495 Y120.037 E9.9007
G1 X134.839 Y121.581 E9.96878
G1 X136.124 Y123.799 E10.05404
G1 X136.683 Y125.478 E10.1129
G1 X136.81 Y127.861 E10.19227
G1 X136.211 Y129.768 E10.25875
G1 X135.172 Y131.646 E10.33014
G1 X133.621 Y133.003 E10.39868
G1 X129.492 Y135.379 E10.55713
G1 X128.78 Y135.614 E10.58206
G1 X128.479 Y135.954 E10.59717
G1 X123.811 Y138.651 E10.77648
G1 X122.134 Y139.209 E10.83526
G1 X119.757 Y139.336 E10.91443
G1 X117.841 Y138.735 E10.98122
G1 X115.981 Y137.7 E11.05202
G1 X114.622 Y136.132 E11.12103
G1 X113.353 Y133.941 E11.20524
G1 X112.783 Y132.227 E11.26532
G1 X112.713 Y130.827 E11.31194
G1 X112.022 Y129.63 E11.35791
G1 X109.896 Y130.131 E11.43056
G1 X108.323 Y130.297 E11.48317
G1 X105.638 Y129.652 E11.57501
G1 X100.827 Y126.886 E11.75959
G1 X98.949 Y124.798 E11.85299
G1 X97.872 Y122.166 E11.94758
G1 X97.819 Y121.399 E11.97315
G1 X96.346 Y121.399 E12.02214
G1 X95.643 Y121.813 E12.04928
G1 X94.895 Y122.117 E12.07613
G1 X93.048 Y122.375 E12.13816
G1 X90.65 Y122.41 E12.21793
G1 X88.836 Y121.963 E12.28007
G1 X86.909 Y120.96 E12.35232
G1 X85.518 Y119.472 E12.42007
G1 X84.558 Y117.843 E12.48296
G1 X84.336 Y117.319 E12.50189
G1 X84.084 Y115.645 E12.55819
G1 X84.039 Y110.674 E12.72353
G1 X84.182 Y110.082 E12.74379
G1 X84.038 Y109.692 E12.75762
G1 X84.039 Y104.192 E12.94055
G1 X84.481 Y102.393 E13.00216
G1 X85.481 Y100.467 E13.07434
G1 X86.976 Y99.069 E13.14242
G0 F9000 X87.215 Y99.393
G1 F1800 X88.621 Y98.556 E13.19684
G1 X89.325 Y98.27 E13.22212
G1 X91.071 Y98.023 E13.28077
G1 X93.425 Y97.989 E13.35907
G1 X95.138 Y98.413 E13.41776
G1 X96.263 Y98.999 E13.45995
G1 X98.119 Y98.999 E13.52168
G1 X98.752 Y96.404 E13.61052
G1 X100.323 Y94.124 E13.70262
G1 X102.101 Y92.839 E13.77558
G1 X105.83 Y90.69 E13.91873
G1 X108.298 Y90.117 E14.003
G1 X110.439 Y90.337 E14.07458
G1 X112.182 Y90.886 E14.13536
G1 X113.128 Y89.245 E14.19836
G1 X113.11 Y88.028 E14.23884
G1 X113.708 Y86.283 E14.3002
G1 X113.946 Y85.833 E14.31713
G1 X114.103 Y85.091 E14.34235
G1 X115.092 Y83.181 E14.41389
G1 X116.517 Y81.863 E14.47845
G1 X118.144 Y80.893 E14.54145
G1 X118.703 Y80.732 E14.5608
G1 X120.149 Y80.514 E14.60944
G1 X124.513 Y80.473 E14.75459
G1 X126.156 Y80.874 E14.81084
G1 X128.017 Y81.838 E14.88055
G1 X129.321 Y83.234 E14.94409
G1 X130.407 Y85.054 E15.01458
G1 X130.508 Y85.674 E15.03547
G1 X133.557 Y87.437 E15.15261
G1 X134.798 Y88.62 E15.20964
G1 X135.928 Y90.386 E15.27937
G1 X136.327 Y92.237 E15.34235
G1 X136.362 Y94.242 E15.40905
G1 X135.739 Y96.076 E15.47347
G1 X134.431 Y98.342 E15.56049
G1 X133.239 Y99.584 E15.61775
G1 X132.149 Y100.282 E15.6608
G1 X131.251 Y101.836 E15.72049
G1 X133.132 Y103.711 E15.80883
G1 X134.325 Y106.146 E15.89902
G1 X134.539 Y107.953 E15.95954
G1 X134.567 Y112.324 E16.10492
G1 X134.047 Y114.606 E16.18277
G1 X133.889 Y114.985 E16.19642
G1 X132.613 Y116.849 E16.27155
G1 X131.251 Y118.167 E16.33459
G1 X132.168 Y119.753 E16.39552
G1 X133.237 Y120.351 E16.43627
G1 X134.513 Y121.816 E16.50088
G1 X135.757 Y123.963 E16.58341
G1 X136.287 Y125.556 E16.63925
G1 X136.407 Y127.808 E16.71426
G1 X135.841 Y129.611 E16.77711
G1 X134.855 Y131.392 E16.84482
G1 X133.389 Y132.675 E16.90962
G1 X129.329 Y135.011 E17.06541
G1 X128.552 Y135.268 E17.09263
G1 X128.221 Y135.642 E17.10924
G1 X123.649 Y138.283 E17.28485
G1 X122.056 Y138.813 E17.34069
G1 X119.81 Y138.933 E17.4155
G1 X117.999 Y138.365 E17.47863
G1 X116.236 Y137.384 E17.54573
G1 X114.95 Y135.9 E17.61104
G1 X113.72 Y133.777 E17.69265
G1 X113.18 Y132.153 E17.74957
G1 X113.108 Y130.712 E17.79756
G1 X112.205 Y129.148 E17.85763
G1 X112.07 Y129.208 E17.86254
G1 X109.854 Y129.733 E17.93829
G1 X108.349 Y129.892 E17.98862
G1 X105.787 Y129.276 E18.07626
G1 X101.082 Y126.571 E18.25677
G1 X99.292 Y124.581 E18.34579
G1 X98.267 Y122.075 E18.43585
G1 X98.192 Y120.999 E18.47172
G1 X96.235 Y120.999 E18.53681
G1 X95.492 Y121.442 E18.56558
G1 X94.788 Y121.728 E18.59086
G1 X93.042 Y121.975 E18.64951
G1 X90.694 Y122.009 E18.72761
G1 X88.981 Y121.587 E18.78629
G1 X87.153 Y120.636 E18.85482
G1 X85.842 Y119.233 E18.91869
G1 X84.903 Y117.64 E18.98019
G1 X84.725 Y117.212 E18.99561
G1 X84.48 Y115.585 E19.05033
G1 X84.439 Y110.721 E19.21212
G1 X84.599 Y110.059 E19.23477
G1 X84.438 Y109.622 E19.25026
G1 X84.439 Y104.239 E19.4293
G1 X84.858 Y102.535 E19.48766
G1 X85.804 Y100.712 E19.55597
G1 X87.215 Y99.393 E19.62021
G0 F9000 X87.454 Y99.717
G1 F1800 X88.826 Y98.9 E19.67332
G1 X89.427 Y98.66 E19.69485
G1 X91.077 Y98.423 E19.75029
G1 X93.38 Y98.39 E19.8269
G1 X94.993 Y98.789 E19.88216
G1 X96.164 Y99.399 E19.92608
G1 X98.513 Y99.399 E20.00421
G1 X98.512 Y99.055 E20.01565
G1 X99.123 Y96.57 E20.10076
G1 X100.613 Y94.407 E20.18812
G1 X102.301 Y93.186 E20.25741
G1 X105.979 Y91.067 E20.39859
G1 X108.325 Y90.522 E20.4787
G1 X110.361 Y90.731 E20.54677
G1 X112.087 Y91.275 E20.60696
G1 X112.338 Y91.418 E20.61657
G1 X113.53 Y89.35 E20.69596
G1 X113.511 Y88.093 E20.73777
G1 X114.062 Y86.47 E20.79478
G1 X114.325 Y85.973 E20.81348
G1 X114.482 Y85.228 E20.83881
G1 X115.414 Y83.429 E20.90619
G1 X116.758 Y82.185 E20.9671
G1 X118.305 Y81.263 E21.027
G1 X118.763 Y81.128 E21.04288
G1 X120.209 Y80.91 E21.09152
G1 X124.465 Y80.873 E21.23308
G1 X126.017 Y81.252 E21.28622
G1 X127.772 Y82.161 E21.35196
G1 X129 Y83.476 E21.4118
G1 X130.024 Y85.192 E21.47826
G1 X130.143 Y85.925 E21.50296
G1 X133.313 Y87.758 E21.62475
G1 X134.487 Y88.877 E21.6787
G1 X135.552 Y90.542 E21.74443
G1 X135.928 Y92.282 E21.80364
G1 X135.961 Y94.178 E21.86671
G1 X135.371 Y95.913 E21.92766
G1 X134.11 Y98.098 E22.01157
G1 X132.983 Y99.273 E22.06572
G1 X131.852 Y99.997 E22.11039
G1 X130.687 Y102.013 E22.18783
G1 X131.047 Y102.197 E22.20128
G1 X132.802 Y103.946 E22.28369
G1 X133.936 Y106.261 E22.36943
G1 X134.139 Y107.956 E22.4262
G1 X134.167 Y112.28 E22.57002
G1 X133.657 Y114.517 E22.64634
G1 X133.537 Y114.791 E22.65629
G1 X132.307 Y116.588 E22.72871
G1 X131.062 Y117.792 E22.78632
G1 X130.685 Y117.986 E22.80042
G1 X131.877 Y120.048 E22.87964
G1 X132.979 Y120.665 E22.92164
G1 X134.189 Y122.053 E22.98289
G1 X135.389 Y124.125 E23.06253
G1 X135.891 Y125.634 E23.11542
G1 X136.004 Y127.755 E23.18607
G1 X135.471 Y129.454 E23.24529
G1 X134.539 Y131.136 E23.30925
G1 X133.154 Y132.349 E23.37048
G1 X129.165 Y134.644 E23.52355
G1 X128.323 Y134.922 E23.55304
G1 X127.963 Y135.329 E23.57111
G1 X123.483 Y137.917 E23.74319
G1 X121.982 Y138.417 E23.79581
G1 X119.863 Y138.53 E23.86639
G1 X118.157 Y137.995 E23.92586
G1 X116.491 Y137.068 E23.98927
G1 X115.276 Y135.666 E24.05098
G1 X114.088 Y133.615 E24.12981
G1 X113.577 Y132.079 E24.18365
G1 X113.503 Y130.597 E24.233
G1 X112.339 Y128.581 E24.31043
G1 X111.977 Y128.819 E24.32484
G1 X109.812 Y129.335 E24.39886
G1 X108.375 Y129.487 E24.44693
G1 X105.937 Y128.901 E24.53032
G1 X101.335 Y126.255 E24.70688
G1 X99.636 Y124.366 E24.79139
G1 X98.662 Y121.984 E24.87698
G1 X98.565 Y120.599 E24.92316
G1 X96.124 Y120.599 E25.00434
G1 X95.287 Y121.098 E25.03676
G1 X94.686 Y121.338 E25.05828
G1 X93.036 Y121.575 E25.11372
G1 X90.738 Y121.608 E25.19016
G1 X89.126 Y121.211 E25.24538
G1 X87.397 Y120.312 E25.31019
G1 X86.166 Y118.994 E25.37018
G1 X85.248 Y117.437 E25.4303
G1 X85.114 Y117.105 E25.4422
G1 X84.876 Y115.525 E25.49535
G1 X84.839 Y110.768 E25.65357
G1 X85.016 Y110.036 E25.67862
G1 X84.838 Y109.552 E25.69577
G1 X84.839 Y104.285 E25.87095
G1 X85.234 Y102.678 E25.92599
G1 X86.127 Y100.957 E25.99048
G1 X87.454 Y99.717 E26.05089
G0 F9000 X87.693 Y100.041
G1 F1800 X89.031 Y99.244 E26.10268
G1 X89.531 Y99.049 E26.12053
G1 X91.083 Y98.823 E26.1727
G1 X93.335 Y98.791 E26.24761
G1 X94.848 Y99.165 E26.29945
G1 X96.065 Y99.799 E26.34509
G1 X98.933 Y99.799 E26.44048
G1 X98.9 Y99.15 E26.46209
G1 X99.493 Y96.737 E26.54473
G1 X100.902 Y94.692 E26.62733
G1 X102.501 Y93.533 E26.69302
G1 X106.128 Y91.444 E26.83223
G1 X108.352 Y90.927 E26.90817
G1 X110.283 Y91.125 E26.97274
G1 X111.967 Y91.656 E27.03146
G1 X112.475 Y91.982 E27.05154
G1 X113.932 Y89.455 E27.14856
G1 X113.912 Y88.157 E27.19173
G1 X114.441 Y86.599 E27.24646
G1 X114.704 Y86.113 E27.26484
G1 X114.862 Y85.364 E27.2903
G1 X115.737 Y83.675 E27.35357
G1 X116.996 Y82.509 E27.41064
G1 X118.468 Y81.632 E27.46763
G1 X118.823 Y81.524 E27.47997
G1 X120.269 Y81.306 E27.52861
G1 X124.417 Y81.273 E27.66658
G1 X125.878 Y81.63 E27.7166
G1 X127.527 Y82.484 E27.77836
G1 X128.679 Y83.718 E27.83451
G1 X129.641 Y85.33 E27.89695
G1 X129.778 Y86.176 E27.92545
G1 X133.069 Y88.079 E28.0519
G1 X134.176 Y89.134 E28.10276
G1 X135.177 Y90.698 E28.16452
G1 X135.529 Y92.327 E28.21995
G1 X135.56 Y94.114 E28.27939
G1 X135.003 Y95.75 E28.33687
G1 X133.789 Y97.854 E28.41767
G1 X132.727 Y98.962 E28.46871
G1 X131.555 Y99.712 E28.51499
G1 X130.131 Y102.177 E28.60968
G1 X130.81 Y102.525 E28.63505
G1 X132.472 Y104.181 E28.71309
G1 X133.547 Y106.376 E28.79438
G1 X133.739 Y107.959 E28.84742
G1 X133.767 Y112.236 E28.98967
G1 X133.267 Y114.428 E29.06445
G1 X133.207 Y114.565 E29.06943
G1 X131.999 Y116.33 E29.14056
G1 X130.829 Y117.462 E29.19471
G1 X130.129 Y117.822 E29.22089
G1 X131.587 Y120.344 E29.31778
G1 X132.724 Y120.981 E29.36113
G1 X133.863 Y122.287 E29.41876
G1 X135.021 Y124.287 E29.49563
G1 X135.495 Y125.712 E29.54558
G1 X135.601 Y127.702 E29.61186
G1 X135.101 Y129.297 E29.66746
G1 X134.223 Y130.88 E29.72766
G1 X132.919 Y132.023 E29.78534
G1 X129.002 Y134.276 E29.93563
G1 X128.095 Y134.576 E29.96741
G1 X127.705 Y135.017 E29.98699
G1 X123.321 Y137.549 E30.15537
G1 X121.904 Y138.021 E30.20505
G1 X119.916 Y138.127 E30.27126
G1 X118.315 Y137.625 E30.32707
G1 X116.746 Y136.752 E30.38679
G1 X115.602 Y135.432 E30.44488
G1 X114.456 Y133.453 E30.52094
G1 X113.974 Y132.005 E30.5717
G1 X113.898 Y130.482 E30.62242
G1 X112.474 Y128.015 E30.71716
G1 X111.815 Y128.446 E30.74335
G1 X109.77 Y128.937 E30.8133
G1 X108.401 Y129.082 E30.85909
G1 X106.087 Y128.526 E30.93825
G1 X101.59 Y125.94 E31.11078
G1 X99.979 Y124.149 E31.1909
G1 X99.057 Y121.893 E31.27196
G1 X98.938 Y120.199 E31.32845
G1 X96.013 Y120.199 E31.42573
G1 X95.082 Y120.754 E31.46178
G1 X94.582 Y120.949 E31.47963
G1 X93.03 Y121.175 E31.5318
G1 X90.782 Y121.207 E31.60657
G1 X89.27 Y120.835 E31.65836
G1 X87.641 Y119.988 E31.71943
G1 X86.489 Y118.754 E31.77558
G1 X85.619 Y117.287 E31.8323
G1 X85.503 Y117 E31.8426
G1 X85.272 Y115.465 E31.89423
G1 X85.239 Y110.815 E32.04889
G1 X85.434 Y110.012 E32.07638
G1 X85.238 Y109.481 E32.0952
G1 X85.239 Y104.331 E32.26649
G1 X85.61 Y102.821 E32.31821
G1 X86.45 Y101.202 E32.37887
G1 X87.693 Y100.041 E32.43544
G0 F9000 X87.932 Y100.365
G1 F1800 X89.236 Y99.588 E32.48593
G1 X89.631 Y99.439 E32.49997
G1 X91.089 Y99.223 E32.549
G1 X93.29 Y99.192 E32.62221
G1 X94.703 Y99.541 E32.67062
G1 X95.966 Y100.199 E32.71798
G1 X99.354 Y100.199 E32.83067
G1 X99.302 Y99.189 E32.86431
G1 X99.864 Y96.904 E32.94257
G1 X101.191 Y94.977 E33.02039
G1 X102.701 Y93.88 E33.08247
G1 X106.277 Y91.82 E33.21973
G1 X108.378 Y91.332 E33.29147
G1 X110.2 Y91.519 E33.35239
G1 X111.796 Y92.022 E33.40804
G1 X112.611 Y92.545 E33.44025
