;FLAVOR:Marlin
;TIME:1846
;Filament used: 1.64551m
;Layer height: 0.2
;MINX:81.7
;MINY:92.2
;MINZ:0.2
;MAXX:138.3
;MAXY:127.8
;MAXZ:15
;TARGET_MACHINE.NAME:Creality Ender-3 V3 SE
;Generated with Cura_SteamEngine 5.10.0
M220 S100 ;Reset Feedrate
M221 S100 ;Reset Flowrate

G28 ;Home

M420 S1; Use saved mesh leveling data

G92 E0 ;Reset Extruder
G1 Z2.0 F3000 ;Move Z Axis up
G1 X-3 Y20 Z0.28 F5000.0 ;Move to start position
M190 S60 ; Set bed temperature and wait
M109 S200 ; Set hotend temperature and wait
G1 X-3 Y100.0 Z0.28 F1500.0 E15 ;Draw the first line
G1 X-2 Y100.0 Z0.28 F5000.0 ;Move to side a little
G1 X-2 Y20 Z0.28 F1500.0 E30 ;Draw the second line
G92 E0 ;Reset Extruder
G1 E-1.0000 F1800 ;Retract a bit
G1 Z2.0 F3000 ;Move Z Axis up
G1 E0.0000 F1800 

M82 ;absolute extrusion mode
G92 E0
G92 E0
G1 F2400 E-0.8
;LAYER_COUNT:75
;LAYER:0
M107
G0 F9000 X84.331 Y94.326 Z0.2
;TYPE:SKIRT
G1 F2400 E0
G1 F1800 X86.257 Y93.025 E0.0773
G1 X88.528 Y92.2 E0.15767
G1 X131.054 Y92.2 E1.57209
G1 X133.413 Y92.793 E1.65299
G1 X135.808 Y94.437 E1.74961
G1 X136.285 Y94.991 E1.77392
G1 X137.468 Y96.743 E1.84424
G1 X138.299 Y99.031 E1.9252
G1 X138.3 Y120.564 E2.64139
G1 X137.703 Y122.914 E2.72203
G1 X136.27 Y124.997 E2.80613
G1 X135.669 Y125.674 E2.83624
G1 X133.743 Y126.975 E2.91354
G1 X131.472 Y127.8 E2.9939
G1 X88.936 Y127.8 E4.40866
G1 X86.586 Y127.203 E4.4893
G1 X84.503 Y125.77 E4.57339
G1 X83.826 Y125.169 E4.6035
G1 X82.525 Y123.243 E4.68081
G1 X81.7 Y120.972 E4.76117
G1 X81.7 Y99.436 E5.47746
G1 X82.297 Y97.086 E5.5581
G1 X83.73 Y95.003 E5.6422
G1 X84.331 Y94.326 E5.67231
G0 F9000 X84.598 Y94.628
G1 F1800 X86.438 Y93.385 E5.74616
G1 X88.599 Y92.6 E5.82263
G1 X131.005 Y92.6 E7.23306
G1 X133.246 Y93.163 E7.30991
G1 X135.539 Y94.738 E7.40244
G1 X135.953 Y95.215 E7.42344
G1 X137.109 Y96.927 E7.49215
G1 X137.899 Y99.102 E7.56911
G1 X137.9 Y120.513 E8.28125
G1 X137.333 Y122.745 E8.35784
G1 X135.94 Y124.77 E8.43959
G1 X135.402 Y125.372 E8.46644
G1 X133.562 Y126.615 E8.5403
G1 X131.401 Y127.4 E8.61677
G1 X88.987 Y127.4 E10.02746
G1 X86.755 Y126.833 E10.10406
G1 X84.73 Y125.44 E10.18581
G1 X84.128 Y124.902 E10.21266
G1 X82.885 Y123.062 E10.28652
G1 X82.1 Y120.901 E10.36299
G1 X82.1 Y99.487 E11.07522
G1 X82.667 Y97.255 E11.15181
G1 X84.06 Y95.23 E11.23356
G1 X84.598 Y94.628 E11.26041
G0 F9000 X84.862 Y94.932
G1 F1800 X86.619 Y93.745 E11.33094
G1 X88.67 Y93 E11.40352
G1 X130.955 Y93 E12.80992
G1 X133.079 Y93.534 E12.88276
G1 X135.269 Y95.038 E12.97113
G1 X135.621 Y95.439 E12.98887
G1 X136.75 Y97.111 E13.05598
G1 X137.499 Y99.173 E13.12894
G1 X137.5 Y120.462 E13.83702
G1 X136.963 Y122.576 E13.90956
G1 X135.61 Y124.543 E13.98897
G1 X135.138 Y125.068 E14.01245
G1 X133.381 Y126.255 E14.08297
G1 X131.33 Y127 E14.15555
G1 X89.038 Y127 E15.56219
G1 X86.924 Y126.463 E15.63473
G1 X84.957 Y125.11 E15.71414
G1 X84.432 Y124.638 E15.73762
G1 X83.245 Y122.881 E15.80814
G1 X82.5 Y120.83 E15.88072
G1 X82.5 Y99.538 E16.5889
G1 X83.037 Y97.424 E16.66144
G1 X84.39 Y95.457 E16.74085
G1 X84.862 Y94.932 E16.76433
G0 F9000 X85.127 Y95.235
G1 F1800 X86.8 Y94.105 E16.83147
G1 X88.741 Y93.4 E16.90016
G1 X130.905 Y93.4 E18.30254
G1 X132.912 Y93.905 E18.37137
G1 X135.003 Y95.34 E18.45572
G1 X135.289 Y95.663 E18.47007
G1 X136.391 Y97.295 E18.53557
G1 X137.099 Y99.244 E18.60454
G1 X137.1 Y120.411 E19.30855
G1 X136.593 Y122.407 E19.37705
G1 X135.28 Y124.316 E19.45411
G1 X134.873 Y124.765 E19.47427
G1 X133.2 Y125.895 E19.54142
G1 X131.259 Y126.6 E19.6101
G1 X89.089 Y126.6 E21.01268
G1 X87.093 Y126.093 E21.08117
G1 X85.184 Y124.78 E21.15824
G1 X84.735 Y124.373 E21.17839
G1 X83.605 Y122.7 E21.24554
G1 X82.9 Y120.759 E21.31423
G1 X82.9 Y99.589 E22.01834
G1 X83.407 Y97.593 E22.08684
G1 X84.72 Y95.684 E22.1639
G1 X85.127 Y95.235 E22.18406
G0 F9000 X85.389 Y95.541
G1 F1800 X86.984 Y94.464 E22.24807
G1 X88.812 Y93.8 E22.31275
G1 X130.855 Y93.8 E23.71111
G1 X132.745 Y94.276 E23.77593
G1 X134.736 Y95.642 E23.85624
G1 X134.957 Y95.887 E23.86722
G1 X136.032 Y97.479 E23.93111
G1 X136.699 Y99.315 E23.99608
G1 X136.7 Y120.36 E24.69604
G1 X136.223 Y122.238 E24.76048
G1 X134.95 Y124.089 E24.8352
G1 X134.611 Y124.459 E24.85189
G1 X133.016 Y125.536 E24.9159
G1 X131.188 Y126.2 E24.98059
G1 X89.14 Y126.2 E26.37911
G1 X87.262 Y125.723 E26.44356
G1 X85.411 Y124.45 E26.51828
G1 X85.041 Y124.111 E26.53497
G1 X83.964 Y122.516 E26.59898
G1 X83.3 Y120.688 E26.66367
G1 X83.3 Y99.64 E27.36372
G1 X83.777 Y97.762 E27.42817
G1 X85.05 Y95.911 E27.50289
G1 X85.389 Y95.541 E27.51958
G0 F9000 X85.65 Y95.848
G1 F1800 X87.168 Y94.823 E27.5805
G1 X88.883 Y94.2 E27.64119
G1 X130.805 Y94.2 E29.03552
G1 X132.578 Y94.647 E29.09634
G1 X134.472 Y95.946 E29.17272
G1 X134.626 Y96.111 E29.18023
G1 X135.672 Y97.66 E29.2424
G1 X136.299 Y99.386 E29.30347
G1 X136.3 Y120.309 E29.99938
G1 X135.853 Y122.071 E30.05984
G1 X134.655 Y123.819 E30.13032
G1 X134.35 Y124.152 E30.14534
G1 X132.832 Y125.177 E30.20626
G1 X131.117 Y125.8 E30.26695
G1 X89.191 Y125.8 E31.66141
G1 X87.429 Y125.353 E31.72187
G1 X85.681 Y124.155 E31.79235
G1 X85.348 Y123.85 E31.80737
G1 X84.323 Y122.332 E31.86829
G1 X83.7 Y120.617 E31.92898
G1 X83.7 Y99.691 E32.62498
G1 X84.147 Y97.929 E32.68545
G1 X85.345 Y96.181 E32.75593
G1 X85.65 Y95.848 E32.77095
G0 F9000 X85.913 Y96.153
G1 F1800 X87.349 Y95.183 E32.82858
G1 X88.954 Y94.6 E32.88538
G1 X130.755 Y94.6 E34.27569
G1 X132.413 Y95.018 E34.33256
G1 X134.189 Y96.229 E34.40405
G1 X134.295 Y96.335 E34.40904
G1 X135.312 Y97.841 E34.46948
G1 X135.899 Y99.457 E34.52666
G1 X135.9 Y120.258 E35.21851
G1 X135.482 Y121.904 E35.27499
G1 X134.325 Y123.593 E35.34308
G1 X134.087 Y123.847 E35.35466
G1 X132.651 Y124.817 E35.4123
G1 X131.046 Y125.4 E35.46909
G1 X89.242 Y125.4 E36.8595
G1 X87.596 Y124.982 E36.91598
G1 X85.907 Y123.825 E36.98408
G1 X85.653 Y123.587 E36.99565
G1 X84.683 Y122.151 E37.05329
G1 X84.1 Y120.546 E37.11009
G1 X84.1 Y99.742 E37.80203
G1 X84.518 Y98.096 E37.85851
G1 X85.675 Y96.407 E37.92661
G1 X85.913 Y96.153 E37.93818
G0 F9000 X86.174 Y96.459
G1 F1800 X87.53 Y95.543 E37.99261
G1 X89.025 Y95 E38.04551
G1 X130.705 Y95 E39.4318
G1 X132.248 Y95.389 E39.48472
G1 X133.964 Y96.559 E39.5538
G1 X134.952 Y98.022 E39.61252
G1 X135.499 Y99.528 E39.66581
G1 X135.5 Y120.207 E40.35359
G1 X135.111 Y121.739 E40.40617
G1 X134.033 Y123.32 E40.46981
G1 X133.826 Y123.541 E40.47988
G1 X132.47 Y124.457 E40.53431
G1 X130.975 Y125 E40.58721
G1 X89.293 Y125 E41.97356
G1 X87.761 Y124.611 E42.02613
G1 X86.18 Y123.533 E42.08978
G1 X85.959 Y123.326 E42.09985
G1 X85.043 Y121.97 E42.15427
G1 X84.5 Y120.475 E42.20718
G1 X84.5 Y99.793 E42.89506
G1 X84.889 Y98.261 E42.94763
G1 X85.967 Y96.68 E43.01128
G1 X86.174 Y96.459 E43.02135
G0 F9000 X86.435 Y96.765
G1 F1800 X87.711 Y95.903 E43.07257
G1 X89.096 Y95.4 E43.12158
G1 X130.655 Y95.4 E44.50383
G1 X132.081 Y95.76 E44.55275
G1 X133.676 Y96.847 E44.61695
G1 X134.592 Y98.203 E44.67138
G1 X135.099 Y99.599 E44.72077
G1 X135.1 Y120.156 E45.4045
G1 X134.74 Y121.573 E45.45313
G1 X133.741 Y123.047 E45.51235
G1 X133.565 Y123.235 E45.52092
G1 X132.289 Y124.097 E45.57214
G1 X130.904 Y124.6 E45.62114
G1 X89.344 Y124.6 E47.00344
G1 X87.927 Y124.24 E47.05206
G1 X86.453 Y123.241 E47.11129
G1 X86.265 Y123.065 E47.11985
G1 X85.403 Y121.789 E47.17107
G1 X84.9 Y120.404 E47.22008
G1 X84.9 Y99.844 E47.90391
G1 X85.26 Y98.427 E47.95253
G1 X86.259 Y96.953 E48.01176
G1 X86.435 Y96.765 E48.02032
G0 F9000 X86.697 Y97.07
G1 F1800 X87.892 Y96.263 E48.06828
G1 X89.167 Y95.8 E48.1134
G1 X130.605 Y95.8 E49.49163
G1 X131.916 Y96.131 E49.53661
G1 X133.387 Y97.134 E49.59582
G1 X134.232 Y98.384 E49.64601
G1 X134.699 Y99.67 E49.69151
G1 X134.7 Y120.105 E50.37118
G1 X134.369 Y121.408 E50.4159
G1 X133.41 Y122.823 E50.47275
G1 X133.303 Y122.93 E50.47778
G1 X132.108 Y123.737 E50.52574
G1 X130.833 Y124.2 E50.57086
G1 X89.395 Y124.2 E51.94909
G1 X88.092 Y123.869 E51.99381
G1 X86.677 Y122.91 E52.05066
G1 X86.57 Y122.803 E52.05569
G1 X85.763 Y121.608 E52.10365
G1 X85.3 Y120.333 E52.14877
G1 X85.3 Y99.895 E52.82854
G1 X85.631 Y98.592 E52.87325
G1 X86.59 Y97.177 E52.93011
G1 X86.697 Y97.07 E52.93514
G0 F9000 X86.921 Y97.401
G1 F1800 X88.073 Y96.623 E52.98138
G1 X89.238 Y96.2 E53.0226
G1 X130.554 Y96.2 E54.39677
G1 X131.749 Y96.502 E54.43777
G1 X133.1 Y97.422 E54.49213
G1 X133.872 Y98.565 E54.53801
G1 X134.299 Y99.741 E54.57962
G1 X134.3 Y120.054 E55.25523
G1 X133.998 Y121.243 E55.29604
G1 X133.079 Y122.599 E55.35052
G1 X131.927 Y123.377 E55.39675
G1 X130.762 Y123.8 E55.43798
G1 X89.446 Y123.8 E56.81215
G1 X88.257 Y123.498 E56.85296
G1 X86.901 Y122.579 E56.90744
G1 X86.123 Y121.427 E56.95367
G1 X85.7 Y120.262 E56.9949
G1 X85.7 Y99.946 E57.67061
G1 X86.002 Y98.757 E57.71141
G1 X86.921 Y97.401 E57.76589
G0 F9000 X87.207 Y97.691
G1 F1800 X88.257 Y96.982 E57.80803
G1 X89.309 Y96.6 E57.84526
G1 X130.503 Y96.6 E59.21538
G1 X131.582 Y96.873 E59.25239
G1 X132.811 Y97.709 E59.30183
G1 X133.513 Y98.749 E59.34357
G1 X133.899 Y99.812 E59.38118
G1 X133.9 Y120.003 E60.05273
G1 X133.627 Y121.078 E60.08962
G1 X132.793 Y122.309 E60.13908
G1 X131.743 Y123.018 E60.18122
G1 X130.691 Y123.4 E60.21844
G1 X89.497 Y123.4 E61.58856
G1 X88.422 Y123.127 E61.62545
G1 X87.191 Y122.293 E61.67491
G1 X86.482 Y121.243 E61.71705
G1 X86.1 Y120.191 E61.75427
G1 X86.1 Y99.997 E62.42593
G1 X86.373 Y98.922 E62.46282
G1 X87.207 Y97.691 E62.51227
G0 F9000 X87.493 Y97.981
G1 F1800 X88.441 Y97.341 E62.55031
G1 X89.38 Y97 E62.58354
G1 X130.452 Y97 E63.9496
G1 X131.415 Y97.244 E63.98264
G1 X132.522 Y97.996 E64.02715
G1 X133.154 Y98.933 E64.06474
G1 X133.499 Y99.883 E64.09836
G1 X133.5 Y119.952 E64.76586
G1 X133.256 Y120.913 E64.79884
G1 X132.507 Y122.019 E64.84326
G1 X131.559 Y122.659 E64.88131
G1 X130.62 Y123 E64.91453
G1 X89.548 Y123 E66.28059
G1 X88.587 Y122.756 E66.31357
G1 X87.481 Y122.007 E66.358
G1 X86.841 Y121.059 E66.39604
G1 X86.5 Y120.12 E66.42927
G1 X86.5 Y100.048 E67.09687
G1 X86.744 Y99.087 E67.12984
G1 X87.493 Y97.981 E67.17427
G0 F9000 X87.781 Y98.269
G1 F1800 X88.622 Y97.701 E67.20802
G1 X89.451 Y97.4 E67.23736
G1 X130.401 Y97.4 E68.59936
G1 X131.248 Y97.615 E68.62842
G1 X132.233 Y98.283 E68.66801
G1 X132.795 Y99.117 E68.70146
G1 X133.099 Y99.954 E68.73108
G1 X133.1 Y119.901 E69.39452
G1 X132.885 Y120.748 E69.42358
G1 X132.219 Y121.731 E69.46307
G1 X131.378 Y122.299 E69.49683
G1 X130.549 Y122.6 E69.52616
G1 X89.599 Y122.6 E70.88816
G1 X88.752 Y122.385 E70.91723
G1 X87.769 Y121.719 E70.95672
G1 X87.201 Y120.878 E70.99047
G1 X86.9 Y120.049 E71.01981
G1 X86.9 Y100.099 E71.68335
G1 X87.115 Y99.252 E71.71241
G1 X87.781 Y98.269 E71.7519
G0 F9000 X88.067 Y98.559
G1 F1800 X88.806 Y98.06 E71.78156
G1 X89.522 Y97.8 E71.8069
G1 X130.35 Y97.8 E73.16484
G1 X131.083 Y97.986 E73.19
G1 X131.943 Y98.569 E73.22455
G1 X132.437 Y99.302 E73.25395
G1 X132.699 Y100.024 E73.2795
G1 X132.7 Y119.85 E73.93891
G1 X132.514 Y120.583 E73.96407
G1 X131.933 Y121.441 E73.99853
G1 X131.194 Y121.94 E74.02819
G1 X130.478 Y122.2 E74.05352
G1 X89.65 Y122.2 E75.41147
G1 X88.917 Y122.014 E75.43662
G1 X88.059 Y121.433 E75.47108
G1 X87.56 Y120.694 E75.50074
G1 X87.3 Y119.978 E75.52608
G1 X87.3 Y100.15 E76.18556
G1 X87.486 Y99.417 E76.21071
G1 X88.067 Y98.559 E76.24518
G0 F9000 X88.353 Y98.849
G1 F1800 X88.99 Y98.419 E76.27074
G1 X89.593 Y98.2 E76.29208
G1 X130.299 Y98.2 E77.64596
G1 X130.918 Y98.357 E77.6672
G1 X131.653 Y98.855 E77.69673
G1 X132.079 Y99.487 E77.72208
G1 X132.299 Y100.094 E77.74356
G1 X132.3 Y119.799 E78.39895
G1 X132.143 Y120.418 E78.42019
G1 X131.647 Y121.151 E78.44962
G1 X131.01 Y121.581 E78.47519
G1 X130.407 Y121.8 E78.49652
G1 X89.701 Y121.8 E79.85041
G1 X89.082 Y121.643 E79.87165
G1 X88.349 Y121.147 E79.90109
G1 X87.919 Y120.51 E79.92665
G1 X87.7 Y119.907 E79.94799
G1 X87.7 Y100.201 E80.60341
G1 X87.857 Y99.582 E80.62465
G1 X88.353 Y98.849 E80.65409
G0 F9000 X88.641 Y99.137
G1 F1800 X89.171 Y98.779 E80.67536
G1 X89.664 Y98.6 E80.69281
G1 X130.248 Y98.6 E82.04263
G1 X130.753 Y98.728 E82.05996
G1 X131.363 Y99.141 E82.08446
G1 X131.721 Y99.672 E82.10576
G1 X131.899 Y100.164 E82.12317
G1 X131.9 Y119.748 E82.77453
G1 X131.772 Y120.253 E82.79186
G1 X131.359 Y120.863 E82.81636
G1 X130.829 Y121.221 E82.83763
G1 X130.336 Y121.4 E82.85508
G1 X89.752 Y121.4 E84.20491
G1 X89.247 Y121.272 E84.22224
G1 X88.637 Y120.859 E84.24674
G1 X88.279 Y120.329 E84.26801
G1 X88.1 Y119.836 E84.28545
G1 X88.1 Y100.252 E84.93682
G1 X88.228 Y99.747 E84.95415
G1 X88.641 Y99.137 E84.97865
G0 F9000 X88.927 Y99.427
G1 F1800 X89.355 Y99.138 E84.99583
G1 X89.735 Y99 E85.00927
G1 X130.197 Y99 E86.35504
G1 X130.588 Y99.099 E86.36846
G1 X131.075 Y99.429 E86.38803
G1 X131.362 Y99.854 E86.40508
G1 X131.499 Y100.234 E86.41852
G1 X131.5 Y119.697 E87.06586
G1 X131.401 Y120.088 E87.07927
G1 X131.073 Y120.573 E87.09875
G1 X130.645 Y120.862 E87.11592
G1 X130.265 Y121 E87.12937
G1 X89.803 Y121 E88.47514
G1 X89.412 Y120.901 E88.48856
G1 X88.927 Y120.573 E88.50803
G1 X88.638 Y120.145 E88.52521
G1 X88.5 Y119.765 E88.53865
G1 X88.5 Y100.303 E89.18596
G1 X88.599 Y99.912 E89.19938
G1 X88.927 Y99.427 E89.21885
G0 F9000 X89.503 Y100.003
G1 F1800 X89.803 Y99.8 E89.2309
G1 X130.197 Y99.8 E90.57441
G1 X130.497 Y100.003 E90.58646
G1 X130.699 Y100.302 E90.59846
G1 X130.7 Y119.697 E91.24354
G1 X130.497 Y119.997 E91.25559
G1 X130.197 Y120.2 E91.26764
G1 X89.803 Y120.2 E92.61115
G1 X89.503 Y119.997 E92.62319
G1 X89.3 Y119.697 E92.63524
G1 X89.3 Y100.303 E93.28029
G1 X89.503 Y100.003 E93.29234
G0 F9000 X89.215 Y99.715
G1 F1800 X89.579 Y99.469 E93.30695
G1 X89.803 Y99.4 E93.31474
G1 X130.197 Y99.4 E94.65825
G1 X130.421 Y99.469 E94.66605
G1 X130.785 Y99.715 E94.68066
G1 X131.03 Y100.078 E94.69523
G1 X131.099 Y100.302 E94.70302
G1 X131.1 Y119.697 E95.3481
G1 X131.031 Y119.921 E95.3559
G1 X130.785 Y120.285 E95.37051
G1 X130.421 Y120.531 E95.38512
G1 X130.197 Y120.6 E95.39292
G1 X89.803 Y120.6 E96.73643
G1 X89.579 Y120.531 E96.74422
G1 X89.215 Y120.285 E96.75884
G1 X88.969 Y119.921 E96.77345
G1 X88.9 Y119.697 E96.78125
G1 X88.9 Y100.303 E97.42629
G1 X88.969 Y100.079 E97.43409
G1 X89.215 Y99.715 E97.4487
G1 F2400 E96.6487
G0 F9000 X93.654 Y105.341
G1 F2400 E97.4487
G1 F1800 X96.258 Y103.266 E97.55944
G1 X99.613 Y102.5 E97.6739
G1 X125.45 Y102.5 E98.53325
G1 X125.45 Y117.5 E99.03215
G1 X99.613 Y117.5 E99.89149
G1 X96.258 Y116.734 E100.00595
G1 X93.654 Y114.659 E100.11669
G1 X92.189 Y111.612 E100.22914
G1 X92.009 Y110.003 E100.28299
G1 X92.189 Y108.388 E100.33704
G1 X93.654 Y105.341 E100.44949
G0 F9000 X93.976 Y105.596
G1 F1800 X96.435 Y103.636 E100.55408
G1 X99.658 Y102.9 E100.66403
G1 X125.05 Y102.9 E101.50857
G1 X125.05 Y117.1 E101.98087
G1 X99.658 Y117.1 E102.82541
G1 X96.435 Y116.364 E102.93537
G1 X93.976 Y114.404 E103.03996
G1 X92.579 Y111.498 E103.1472
G1 X92.411 Y110.002 E103.19727
G1 X92.578 Y108.503 E103.24743
G1 X93.976 Y105.596 E103.35472
G0 F9000 X94.296 Y105.853
G1 F1800 X96.613 Y104.005 E103.45329
G1 X99.703 Y103.3 E103.55871
G1 X124.65 Y103.3 E104.38845
G1 X124.65 Y116.7 E104.83413
G1 X99.703 Y116.7 E105.66388
G1 X96.613 Y115.995 E105.76929
G1 X94.296 Y114.147 E105.86786
G1 X92.969 Y111.388 E105.96969
G1 X92.814 Y110.003 E106.01604
G1 X92.969 Y108.611 E106.06263
G1 X94.296 Y105.853 E106.16442
G0 F9000 X94.617 Y106.109
G1 F1800 X96.792 Y104.375 E106.25694
G1 X99.749 Y103.7 E106.35782
G1 X124.25 Y103.7 E107.17273
G1 X124.25 Y116.3 E107.59181
G1 X99.749 Y116.3 E108.40671
G1 X96.792 Y115.625 E108.50759
G1 X94.617 Y113.891 E108.60011
G1 X93.358 Y111.273 E108.69673
G1 X93.216 Y110.002 E108.73927
G1 X93.358 Y108.727 E108.78194
G1 X94.617 Y106.109 E108.87856
G0 F9000 X94.937 Y106.365
G1 F1800 X96.97 Y104.745 E108.96502
G1 X99.794 Y104.1 E109.06136
G1 X123.85 Y104.1 E109.86147
G1 X123.85 Y115.9 E110.25394
G1 X99.794 Y115.9 E111.05404
G1 X96.97 Y115.255 E111.15039
G1 X94.937 Y113.635 E111.23685
G1 X93.749 Y111.164 E111.32804
G1 X93.619 Y110.002 E111.36693
G1 X93.749 Y108.836 E111.40595
G1 X94.937 Y106.365 E111.49714
G0 F9000 X95.259 Y106.619
G1 F1800 X97.146 Y105.115 E111.5774
G1 X99.839 Y104.5 E111.66928
G1 X123.45 Y104.5 E112.45458
G1 X123.45 Y115.5 E112.82044
G1 X99.839 Y115.5 E113.60575
G1 X97.146 Y114.885 E113.69762
