;FLAVOR:Marlin
;TIME:13932
;Filament used: 22.3179m
;Layer height: 0.16
;MINX:29.312
;MINY:94.8
;MINZ:0.2
;MAXX:190.688
;MAXY:125.2
;MAXZ:99.92
;TARGET_MACHINE.NAME:Creality Ender-3 V3 SE
;Generated with Cura_SteamEngine 5.9.1
M82 ;absolute extrusion mode
M220 S100 ;Reset Feedrate
M221 S100 ;Reset Flowrate

G28 ;Home

M420 S1; Use saved mesh leveling data

G92 E0 ;Reset Extruder
G1 Z2.0 F3000 ;Move Z Axis up
G1 X-3 Y20 Z0.28 F5000.0 ;Move to start position
M190 S60 ; Set bed temperature and wait
M109 S200 ; Set hotend temperature and wait
G1 X-3 Y100.0 Z0.28 F1500.0 E15 ;Draw the first line
G1 X-2 Y100.0 Z0.28 F5000.0 ;Move to side a little
G1 X-2 Y20 Z0.28 F1500.0 E30 ;Draw the second line
G92 E0 ;Reset Extruder
G1 E-1.0000 F1800 ;Retract a bit
G1 Z2.0 F3000 ;Move Z Axis up
G1 E0.0000 F1800 

G92 E0
G92 E0
G1 F2400 E-0.8
;LAYER_COUNT:524
;LAYER:0
M107
G0 F9000 X77.092 Y125.036 Z0.2
;TYPE:SKIRT
G1 F2400 E0
G1 F1800 X76.31 Y125.152 E0.02629
G1 X37.602 Y125.2 E1.31373
G1 X35.922 Y124.789 E1.37125
G1 X35.156 Y124.38 E1.40013
G1 X34.639 Y124.199 E1.41835
G1 X33.355 Y123.607 E1.46538
G1 X31.498 Y122.025 E1.54652
G1 X30.346 Y120.482 E1.61056
G1 X29.312 Y117.561 E1.71362
G1 X29.313 Y103.514 E2.18083
G1 X29.75 Y101.765 E2.24079
G1 X30.775 Y99.844 E2.31321
G1 X31.591 Y99.153 E2.34877
G1 X31.68 Y98.923 E2.35698
G1 X32.666 Y97.247 E2.42165
G1 X34.017 Y96.09 E2.48081
G1 X34.885 Y95.506 E2.51561
G1 X37.002 Y94.8 E2.58983
G1 X44 Y94.8 E2.82259
G1 X45.704 Y95.219 E2.88095
G1 X46.824 Y95.8 E2.92291
G1 X173.22 Y95.8 E7.12686
G1 X174.373 Y95.118 E7.17142
G1 X176.225 Y94.839 E7.23371
G1 X182.692 Y94.8 E7.44881
G1 X184.592 Y95.26 E7.51383
G1 X186.624 Y96.513 E7.59323
G1 X187.809 Y97.997 E7.65639
G1 X188.324 Y98.834 E7.68908
G1 X188.415 Y99.14 E7.6997
G1 X188.731 Y99.368 E7.71266
G1 X189.923 Y101.156 E7.78413
G1 X190.458 Y102.492 E7.832
G1 X190.648 Y103.779 E7.87527
G1 X190.688 Y117.574 E8.33409
G1 X189.796 Y120.13 E8.42413
G1 X188.731 Y121.835 E8.49099
G1 X186.963 Y123.311 E8.5676
G1 X185.723 Y124.104 E8.61655
G1 X184.633 Y124.457 E8.65466
G1 X184.227 Y124.649 E8.6696
G1 X182.748 Y125.2 E8.72209
G1 X143.594 Y125.2 E10.02436
G1 X142.513 Y124.92 E10.0615
G1 X141.613 Y124.889 E10.09145
G1 X77.427 Y124.942 E12.22629
G1 X77.092 Y125.036 E12.23786
G0 F9000 X77.033 Y124.64
G1 F1800 X76.251 Y124.756 E12.26415
G1 X37.652 Y124.8 E13.54796
G1 X36.066 Y124.412 E13.60227
G1 X35.318 Y124.012 E13.63048
G1 X34.771 Y123.821 E13.64975
G1 X33.573 Y123.267 E13.69365
G1 X31.792 Y121.75 E13.77146
G1 X30.702 Y120.29 E13.83206
G1 X29.712 Y117.493 E13.93075
G1 X29.713 Y103.563 E14.39406
G1 X30.126 Y101.91 E14.45073
G1 X31.092 Y100.1 E14.51897
G1 X31.93 Y99.39 E14.5555
G1 X32.025 Y99.126 E14.56483
G1 X32.978 Y97.507 E14.62732
G1 X34.24 Y96.422 E14.68267
G1 X35.064 Y95.868 E14.71569
G1 X37.066 Y95.2 E14.78589
G1 X43.954 Y95.2 E15.01499
G1 X45.561 Y95.595 E15.07003
G1 X46.727 Y96.2 E15.11372
G1 X173.329 Y96.2 E19.32452
G1 X174.508 Y95.503 E19.37007
G1 X176.285 Y95.235 E19.42984
G1 X182.645 Y95.2 E19.64138
G1 X184.435 Y95.634 E19.70264
G1 X186.356 Y96.818 E19.77769
G1 X187.468 Y98.207 E19.83687
G1 X187.957 Y99.002 E19.86792
G1 X188.071 Y99.386 E19.88124
G1 X188.439 Y99.651 E19.89632
G1 X189.568 Y101.345 E19.96403
G1 X190.068 Y102.595 E20.00881
G1 X190.252 Y103.838 E20.0506
G1 X190.288 Y117.506 E20.5052
G1 X189.432 Y119.958 E20.59158
G1 X188.427 Y121.568 E20.65471
G1 X186.747 Y122.974 E20.72757
G1 X185.551 Y123.739 E20.77479
G1 X184.492 Y124.082 E20.81182
G1 X184.087 Y124.274 E20.82672
G1 X182.675 Y124.8 E20.87684
G1 X143.644 Y124.8 E22.17502
G1 X142.568 Y124.521 E22.21199
G1 X141.627 Y124.489 E22.2433
G1 X77.37 Y124.542 E24.3805
G1 X77.033 Y124.64 E24.39217
G0 F9000 X76.974 Y124.244
G1 F1800 X76.192 Y124.36 E24.41847
G1 X37.702 Y124.4 E25.69865
G1 X36.21 Y124.035 E25.74974
G1 X35.48 Y123.644 E25.77728
G1 X34.903 Y123.443 E25.7976
G1 X33.791 Y122.927 E25.83838
G1 X32.086 Y121.475 E25.91286
G1 X31.058 Y120.098 E25.97002
G1 X30.112 Y117.425 E26.06433
G1 X30.113 Y103.612 E26.52375
G1 X30.502 Y102.055 E26.57713
G1 X31.409 Y100.355 E26.64121
G1 X32.275 Y99.622 E26.67895
G1 X32.37 Y99.329 E26.68919
G1 X33.29 Y97.766 E26.74952
G1 X34.501 Y96.725 E26.80263
G1 X35.241 Y96.23 E26.83224
G1 X37.13 Y95.6 E26.89847
G1 X43.908 Y95.6 E27.12391
G1 X45.418 Y95.971 E27.17563
G1 X46.63 Y96.6 E27.22104
G1 X173.437 Y96.6 E31.43866
G1 X174.644 Y95.887 E31.48529
G1 X176.287 Y95.635 E31.54057
G1 X182.597 Y95.6 E31.75045
G1 X184.278 Y96.008 E31.80798
G1 X186.087 Y97.123 E31.87866
G1 X187.127 Y98.417 E31.93387
G1 X187.59 Y99.17 E31.96328
G1 X187.727 Y99.632 E31.9793
G1 X188.147 Y99.934 E31.99651
G1 X189.213 Y101.534 E32.06045
G1 X189.679 Y102.698 E32.10216
G1 X189.856 Y103.896 E32.14243
G1 X189.888 Y117.438 E32.59284
G1 X189.068 Y119.786 E32.67556
G1 X188.121 Y121.303 E32.73504
G1 X186.531 Y122.637 E32.80408
G1 X185.379 Y123.374 E32.84956
G1 X184.344 Y123.709 E32.88574
G1 X183.947 Y123.899 E32.90038
G1 X182.602 Y124.4 E32.94812
G1 X143.695 Y124.4 E34.24217
G1 X142.625 Y124.122 E34.27894
G1 X141.64 Y124.089 E34.31172
G1 X77.309 Y124.142 E36.45138
G1 X76.974 Y124.244 E36.46303
G0 F9000 X76.915 Y123.848
G1 F1800 X76.133 Y123.964 E36.48932
G1 X37.752 Y124 E37.76588
G1 X36.354 Y123.658 E37.81375
G1 X35.645 Y123.278 E37.8405
G1 X35.071 Y123.08 E37.8607
G1 X34.009 Y122.587 E37.89964
G1 X32.38 Y121.2 E37.9708
G1 X31.414 Y119.906 E38.02451
G1 X30.512 Y117.357 E38.11444
G1 X30.513 Y103.661 E38.56997
G1 X30.878 Y102.2 E38.62006
G1 X31.726 Y100.61 E38.67999
G1 X32.627 Y99.848 E38.71924
G1 X32.715 Y99.532 E38.73015
G1 X33.602 Y98.025 E38.78831
G1 X34.724 Y97.057 E38.8376
G1 X35.42 Y96.591 E38.86546
G1 X37.193 Y96 E38.92762
G1 X43.862 Y96 E39.14943
G1 X45.275 Y96.347 E39.19782
G1 X46.533 Y97 E39.24496
G1 X173.546 Y97 E43.46943
G1 X174.781 Y96.27 E43.51715
G1 X176.289 Y96.035 E43.56791
G1 X182.549 Y96 E43.77612
G1 X184.124 Y96.382 E43.83003
G1 X185.819 Y97.427 E43.89625
G1 X186.786 Y98.627 E43.94751
G1 X187.223 Y99.337 E43.97524
G1 X187.383 Y99.876 E43.99394
G1 X187.853 Y100.215 E44.01322
G1 X188.858 Y101.723 E44.07349
G1 X189.29 Y102.801 E44.11212
G1 X189.46 Y103.954 E44.15088
G1 X189.488 Y117.369 E44.59707
G1 X188.704 Y119.614 E44.67616
G1 X187.816 Y121.036 E44.73192
G1 X186.315 Y122.3 E44.79719
G1 X185.207 Y123.009 E44.84094
G1 X184.198 Y123.335 E44.8762
G1 X183.807 Y123.524 E44.89065
G1 X182.529 Y124 E44.93601
G1 X143.746 Y124 E46.22594
G1 X142.682 Y123.723 E46.2625
G1 X141.653 Y123.689 E46.29675
G1 X77.248 Y123.742 E48.43887
G1 X76.915 Y123.848 E48.45049
G0 F9000 X76.856 Y123.452
G1 F1800 X76.074 Y123.568 E48.47678
G1 X37.802 Y123.6 E49.74972
G1 X36.498 Y123.281 E49.79437
G1 X35.809 Y122.912 E49.82036
G1 X35.24 Y122.717 E49.84037
G1 X34.226 Y122.246 E49.87755
G1 X32.674 Y120.925 E49.94534
G1 X31.77 Y119.714 E49.9956
G1 X30.912 Y117.289 E50.08116
G1 X30.913 Y103.71 E50.5328
G1 X31.254 Y102.345 E50.57959
G1 X32.043 Y100.865 E50.63538
G1 X32.979 Y100.073 E50.67616
G1 X33.085 Y99.692 E50.68931
G1 X33.914 Y98.284 E50.74366
G1 X34.947 Y97.389 E50.78912
G1 X35.599 Y96.952 E50.81522
G1 X37.256 Y96.4 E50.87331
G1 X43.816 Y96.4 E51.0915
G1 X45.134 Y96.724 E51.13664
G1 X46.304 Y97.328 E51.18043
G1 X46.409 Y97.4 E51.18467
G1 X173.654 Y97.4 E55.41685
G1 X174.917 Y96.654 E55.46564
G1 X176.291 Y96.435 E55.51192
G1 X182.502 Y96.4 E55.7185
G1 X183.97 Y96.756 E55.76874
G1 X185.549 Y97.73 E55.83045
G1 X186.445 Y98.837 E55.87781
G1 X186.856 Y99.505 E55.9039
G1 X187.039 Y100.121 E55.92527
G1 X187.559 Y100.496 E55.9466
G1 X188.503 Y101.912 E56.0032
G1 X188.9 Y102.904 E56.03874
G1 X189.064 Y104.013 E56.07603
G1 X189.088 Y117.3 E56.51795
G1 X188.34 Y119.442 E56.59342
G1 X187.511 Y120.77 E56.64548
G1 X186.057 Y121.994 E56.7087
G1 X185.037 Y122.643 E56.74891
G1 X184.049 Y122.963 E56.78345
G1 X183.667 Y123.149 E56.79758
G1 X182.456 Y123.6 E56.84056
G1 X143.797 Y123.6 E58.12637
G1 X142.739 Y123.324 E58.16273
G1 X141.666 Y123.289 E58.19844
G1 X77.182 Y123.342 E60.34319
G1 X76.856 Y123.452 E60.35463
G0 F9000 X76.797 Y123.056
G1 F1800 X76.015 Y123.172 E60.38093
G1 X37.852 Y123.2 E61.65023
G1 X36.642 Y122.904 E61.69166
G1 X35.969 Y122.544 E61.71705
G1 X35.409 Y122.354 E61.73672
G1 X34.443 Y121.905 E61.77215
G1 X32.968 Y120.65 E61.83656
G1 X32.126 Y119.522 E61.88338
G1 X31.312 Y117.221 E61.96456
G1 X31.313 Y103.759 E62.41231
G1 X31.63 Y102.49 E62.45581
G1 X32.36 Y101.12 E62.50744
G1 X33.331 Y100.298 E62.54975
G1 X33.456 Y99.851 E62.56519
G1 X34.226 Y98.542 E62.6157
G1 X35.209 Y97.691 E62.65895
G1 X35.777 Y97.314 E62.68162
G1 X37.319 Y96.8 E62.73568
G1 X43.77 Y96.8 E62.95025
G1 X44.991 Y97.1 E62.99206
G1 X46.12 Y97.683 E63.03433
G1 X46.276 Y97.8 E63.04081
G1 X173.762 Y97.8 E67.28101
G1 X175.053 Y97.038 E67.33087
G1 X176.293 Y96.835 E67.37266
G1 X182.455 Y96.8 E67.57762
G1 X183.816 Y97.13 E67.6242
G1 X185.28 Y98.033 E67.68141
G1 X186.134 Y99.089 E67.72658
G1 X186.488 Y99.669 E67.74918
G1 X186.695 Y100.366 E67.77336
G1 X187.265 Y100.777 E67.79673
G1 X188.148 Y102.101 E67.84966
G1 X188.511 Y103.007 E67.88213
G1 X188.668 Y104.071 E67.9179
G1 X188.688 Y117.231 E68.3556
G1 X187.976 Y119.27 E68.42744
G1 X187.206 Y120.504 E68.47581
G1 X185.842 Y121.656 E68.5352
G1 X184.861 Y122.28 E68.57387
G1 X183.893 Y122.594 E68.60771
G1 X183.527 Y122.774 E68.62128
G1 X182.383 Y123.2 E68.66188
G1 X143.85 Y123.2 E69.94349
G1 X142.975 Y122.977 E69.97353
G1 X142.882 Y122.946 E69.97679
G1 X142.571 Y122.918 E69.98717
G1 X141.679 Y122.889 E70.01686
G1 X77.112 Y122.942 E72.16436
G1 X76.797 Y123.056 E72.17551
G0 F9000 X76.738 Y122.66
G1 F1800 X75.956 Y122.776 E72.2018
G1 X37.902 Y122.8 E73.46748
G1 X36.786 Y122.527 E73.50569
G1 X36.132 Y122.177 E73.53037
G1 X35.578 Y121.991 E73.5498
G1 X34.66 Y121.564 E73.58348
G1 X33.262 Y120.375 E73.64452
G1 X32.482 Y119.33 E73.68789
G1 X31.712 Y117.153 E73.76469
G1 X31.713 Y103.808 E74.20855
G1 X32.006 Y102.635 E74.24876
G1 X32.677 Y101.376 E74.29621
G1 X33.683 Y100.524 E74.34006
G1 X33.826 Y100.011 E74.35777
G1 X34.537 Y98.802 E74.40442
G1 X35.471 Y97.994 E74.4455
G1 X35.956 Y97.676 E74.46479
G1 X37.383 Y97.2 E74.51482
G1 X43.724 Y97.2 E74.72572
G1 X44.848 Y97.476 E74.76422
G1 X45.936 Y98.038 E74.80495
G1 X46.132 Y98.2 E74.8134
G1 X173.919 Y98.2 E79.06362
G1 X174.067 Y98.084 E79.06987
G1 X175.191 Y97.42 E79.11329
G1 X176.295 Y97.235 E79.15052
G1 X182.408 Y97.2 E79.35385
G1 X183.662 Y97.504 E79.39676
G1 X185.01 Y98.336 E79.44945
G1 X185.823 Y99.341 E79.49244
G1 X186.12 Y99.833 E79.51156
G1 X186.351 Y100.611 E79.53855
G1 X186.971 Y101.058 E79.56397
G1 X187.793 Y102.29 E79.61323
G1 X188.121 Y103.11 E79.64261
G1 X188.272 Y104.13 E79.6769
G1 X188.288 Y117.162 E80.11035
G1 X187.612 Y119.098 E80.17855
G1 X186.901 Y120.238 E80.22324
G1 X185.627 Y121.318 E80.27879
G1 X184.685 Y121.917 E80.31592
G1 X183.739 Y122.224 E80.349
G1 X183.387 Y122.399 E80.36207
G1 X182.31 Y122.8 E80.4003
G1 X143.902 Y122.8 E81.67775
G1 X143.074 Y122.589 E81.70617
G1 X142.966 Y122.552 E81.70997
G1 X142.584 Y122.518 E81.72272
G1 X141.692 Y122.489 E81.75241
G1 X77.036 Y122.542 E83.90287
G1 X76.738 Y122.66 E83.91353
G0 F9000 X76.635 Y122.27
G1 F1800 X75.897 Y122.38 E83.93835
G1 X37.952 Y122.4 E85.20041
G1 X36.93 Y122.15 E85.2354
G1 X36.296 Y121.811 E85.25931
G1 X35.747 Y121.628 E85.27856
G1 X34.877 Y121.223 E85.31048
G1 X33.556 Y120.1 E85.36815
G1 X32.838 Y119.138 E85.40807
G1 X32.112 Y117.085 E85.4805
G1 X32.113 Y103.857 E85.92046
G1 X32.382 Y102.78 E85.95739
G1 X32.994 Y101.632 E86.00066
G1 X33.913 Y100.851 E86.04077
G1 X34.028 Y100.774 E86.04537
G1 X34.196 Y100.171 E86.06619
G1 X34.848 Y99.062 E86.10898
G1 X35.69 Y98.329 E86.14611
G1 X36.134 Y98.038 E86.16377
G1 X37.447 Y97.6 E86.2098
G1 X43.678 Y97.6 E86.41705
G1 X44.705 Y97.852 E86.45222
G1 X45.752 Y98.393 E86.49142
G1 X45.976 Y98.6 E86.50156
G1 X174.066 Y98.6 E90.76185
G1 X174.27 Y98.428 E90.77073
G1 X175.328 Y97.803 E90.8116
G1 X176.361 Y97.63 E90.84643
G1 X182.361 Y97.6 E91.046
G1 X183.508 Y97.878 E91.08525
G1 X184.74 Y98.639 E91.13341
G1 X185.512 Y99.593 E91.17423
G1 X185.752 Y99.997 E91.18986
G1 X186.007 Y100.857 E91.21969
G1 X186.679 Y101.341 E91.24724
G1 X187.438 Y102.479 E91.29274
G1 X187.732 Y103.213 E91.31903
G1 X187.876 Y104.188 E91.35181
G1 X187.888 Y117.093 E91.78104
G1 X187.248 Y118.926 E91.84561
G1 X186.595 Y119.973 E91.88665
G1 X185.412 Y120.98 E91.93832
G1 X184.509 Y121.554 E91.97391
G1 X183.581 Y121.855 E92.00636
G1 X183.247 Y122.024 E92.01881
G1 X182.237 Y122.4 E92.05466
G1 X143.953 Y122.4 E93.32799
G1 X143.203 Y122.21 E93.35372
G1 X143.053 Y122.159 E93.35899
G1 X142.598 Y122.118 E93.37418
G1 X141.705 Y122.089 E93.4039
G1 X76.96 Y122.142 E95.55733
G1 X76.635 Y122.27 E95.56895
G0 F9000 X76.534 Y121.88
G1 F1800 X75.838 Y121.984 E95.59235
G1 X38.002 Y122 E96.85078
G1 X37.074 Y121.773 E96.88256
G1 X36.456 Y121.442 E96.90588
G1 X35.916 Y121.265 E96.92478
G1 X35.094 Y120.882 E96.95494
G1 X33.85 Y119.825 E97.00923
G1 X33.194 Y118.946 E97.04571
G1 X32.512 Y117.017 E97.11376
G1 X32.513 Y103.906 E97.54984
G1 X32.758 Y102.925 E97.58347
G1 X33.311 Y101.888 E97.62256
G1 X34.172 Y101.156 E97.66014
G1 X34.371 Y101.03 E97.66798
G1 X34.566 Y100.331 E97.69211
G1 X35.16 Y99.321 E97.73109
G1 X35.909 Y98.664 E97.76422
G1 X36.312 Y98.4 E97.78025
G1 X37.511 Y98 E97.82229
G1 X43.632 Y98 E98.02587
G1 X44.562 Y98.228 E98.05772
G1 X45.568 Y98.748 E98.09539
G1 X45.802 Y99 E98.10682
G1 X174.22 Y99 E102.37802
G1 X174.473 Y98.772 E102.38935
G1 X175.465 Y98.186 E102.42767
G1 X176.427 Y98.025 E102.46011
G1 X182.313 Y98 E102.65588
G1 X183.354 Y98.252 E102.69151
G1 X184.47 Y98.942 E102.73515
G1 X185.201 Y99.845 E102.77379
G1 X185.384 Y100.16 E102.78591
G1 X185.663 Y101.101 E102.81855
G1 X186.385 Y101.622 E102.84816
G1 X187.083 Y102.668 E102.88999
G1 X187.343 Y103.316 E102.91321
G1 X187.48 Y104.246 E102.94448
G1 X187.488 Y117.024 E103.36947
G1 X186.884 Y118.754 E103.43042
G1 X186.289 Y119.708 E103.46782
G1 X185.153 Y120.675 E103.51744
G1 X184.34 Y121.188 E103.54941
G1 X183.427 Y121.484 E103.58133
G1 X183.107 Y121.649 E103.59331
G1 X182.164 Y122 E103.62677
G1 X144.004 Y122 E104.89598
G1 X143.301 Y121.822 E104.9201
G1 X143.139 Y121.765 E104.92581
G1 X142.612 Y121.718 E104.94341
G1 X141.718 Y121.689 E104.97316
G1 X76.885 Y121.742 E107.12951
G1 X76.534 Y121.88 E107.14206
G0 F9000 X76.433 Y121.49
G1 F1800 X75.779 Y121.588 E107.16405
G1 X38.052 Y121.6 E108.41886
G1 X37.218 Y121.396 E108.44742
G1 X36.613 Y121.072 E108.47024
G1 X36.085 Y120.902 E108.48869
G1 X35.311 Y120.541 E108.5171
G1 X34.144 Y119.55 E108.56802
G1 X33.55 Y118.754 E108.60105
G1 X32.912 Y116.949 E108.66473
G1 X32.913 Y103.955 E109.09691
G1 X33.134 Y103.07 E109.12725
G1 X33.628 Y102.144 E109.16216
G1 X34.386 Y101.494 E109.19537
G1 X34.715 Y101.286 E109.20831
G1 X34.936 Y100.491 E109.23576
G1 X35.472 Y99.58 E109.27091
G1 X36.173 Y98.965 E109.30193
G1 X36.49 Y98.762 E109.31445
G1 X37.575 Y98.4 E109.35249
G1 X43.586 Y98.4 E109.55242
G1 X44.421 Y98.605 E109.58102
G1 X45.32 Y99.069 E109.61466
G1 X45.626 Y99.4 E109.62966
G1 X174.372 Y99.4 E113.91177
G1 X174.71 Y99.096 E113.92689
G1 X175.602 Y98.569 E113.96135
G1 X176.493 Y98.42 E113.99139
G1 X182.265 Y98.4 E114.18337
G1 X183.2 Y98.626 E114.21536
G1 X184.201 Y99.245 E114.25451
G1 X184.855 Y100.046 E114.2889
G1 X185.015 Y100.321 E114.29948
G1 X185.268 Y101.161 E114.32866
G1 X185.291 Y101.327 E114.33424
G1 X186.093 Y101.905 E114.36712
G1 X186.728 Y102.857 E114.40518
G1 X186.953 Y103.419 E114.42531
G1 X187.084 Y104.305 E114.4551
G1 X187.088 Y116.955 E114.87584
G1 X186.52 Y118.582 E114.93316
G1 X185.983 Y119.443 E114.96691
G1 X184.894 Y120.37 E115.01448
G1 X184.169 Y120.823 E115.04291
G1 X183.27 Y121.115 E115.07435
G1 X182.967 Y121.274 E115.08573
G1 X182.091 Y121.6 E115.11682
G1 X144.054 Y121.6 E116.38193
G1 X143.433 Y121.444 E116.40323
G1 X143.227 Y121.372 E116.41049
G1 X142.626 Y121.318 E116.43056
G1 X141.731 Y121.289 E116.46034
G1 X76.93 Y121.342 E118.61563
G1 X76.741 Y121.369 E118.62198
G1 X76.433 Y121.49 E118.63299
G0 F9000 X76.332 Y121.1
G1 F1800 X75.72 Y121.192 E118.65357
G1 X38.102 Y121.2 E119.90475
G1 X37.362 Y121.019 E119.93009
G1 X36.77 Y120.702 E119.95242
G1 X36.208 Y120.521 E119.97206
