;FLAVOR:Marlin
;TIME:9632
;Filament used: 7.04148m
;Layer height: 0.16
;MINX:75.984
;MINY:72.738
;MINZ:0.2
;MAXX:138.635
;MAXY:147.367
;MAXZ:34.92
;TARGET_MACHINE.NAME:Creality Ender-3 V3 SE
;Generated with Cura_SteamEngine 5.9.1
M82 ;absolute extrusion mode
M220 S100 ;Reset Feedrate
M221 S100 ;Reset Flowrate

G28 ;Home

M420 S1; Use saved mesh leveling data

G92 E0 ;Reset Extruder
G1 Z2.0 F3000 ;Move Z Axis up
G1 X-3 Y20 Z0.28 F5000.0 ;Move to start position
M190 S60 ; Set bed temperature and wait
M109 S200 ; Set hotend temperature and wait
G1 X-3 Y100.0 Z0.28 F1500.0 E15 ;Draw the first line
G1 X-2 Y100.0 Z0.28 F5000.0 ;Move to side a little
G1 X-2 Y20 Z0.28 F1500.0 E30 ;Draw the second line
G92 E0 ;Reset Extruder
G1 E-1.0000 F1800 ;Retract a bit
G1 Z2.0 F3000 ;Move Z Axis up
G1 E0.0000 F1800 

G92 E0
G92 E0
G1 F2400 E-0.8
;LAYER_COUNT:242
;LAYER:0
M107
G0 F9000 X91.691 Y144.876 Z0.2
;TYPE:SKIRT
G1 F2400 E0
G1 F1800 X91.072 Y145.099 E0.02188
G1 X89.021 Y145.064 E0.09011
G1 X87.793 Y144.901 E0.13131
G1 X87.556 Y144.908 E0.1392
G1 X87.306 Y144.897 E0.14752
G1 X87.003 Y144.902 E0.1576
G1 X85.907 Y144.853 E0.19409
G1 X84.622 Y144.431 E0.23907
G1 X83.283 Y143.78 E0.28859
G1 X80.594 Y141.497 E0.40592
G1 X79.326 Y139.433 E0.48649
G1 X78.467 Y135.786 E0.6111
G1 X78.469 Y134.022 E0.66978
G1 X78.703 Y133.177 E0.69894
G1 X78.697 Y119.871 E1.1415
G1 X77.765 Y118.163 E1.20621
G1 X77.528 Y116.346 E1.26716
G1 X77.5 Y114.689 E1.32228
G1 X77.312 Y113.583 E1.35959
G1 X77.373 Y113.078 E1.37651
G1 X77.115 Y112.561 E1.39573
G1 X76.18 Y109.058 E1.51632
G1 X76.039 Y107.545 E1.56686
G1 X76.052 Y107.099 E1.5817
G1 X75.984 Y106.068 E1.61606
G1 X76.341 Y104.084 E1.68311
G1 X77.19 Y101.353 E1.77823
G1 X77.373 Y100.975 E1.7922
G1 X77.308 Y100.364 E1.81264
G1 X77.491 Y99.152 E1.85341
G1 X77.532 Y97.167 E1.91944
G1 X78.228 Y95.134 E1.99091
G1 X78.617 Y94.468 E2.01657
G1 X78.703 Y94.357 E2.02124
G1 X78.703 Y86.793 E2.27282
G1 X78.543 Y86.231 E2.29225
G1 X78.421 Y85.369 E2.32121
G1 X78.61 Y83.636 E2.37919
G1 X79.268 Y80.82 E2.47537
G1 X80.102 Y79.192 E2.53621
G1 X80.748 Y78.377 E2.5708
G1 X83.192 Y76.296 E2.67756
G1 X84.815 Y75.507 E2.73758
G1 X85.823 Y75.166 E2.77298
G1 X87.322 Y75.091 E2.8229
G1 X87.835 Y75.103 E2.83996
G1 X89.564 Y74.866 E2.89801
G1 X91.195 Y74.984 E2.9524
G1 X91.626 Y75.125 E2.96748
G1 X114.394 Y75.124 E3.72475
G1 X116.289 Y73.825 E3.80116
G1 X118.283 Y73.021 E3.87267
G1 X119.881 Y72.792 E3.92636
G1 X123.631 Y72.738 E4.0511
G1 X123.985 Y72.783 E4.06297
G1 X126.754 Y73.83 E4.16143
G1 X127.954 Y74.682 E4.21038
G1 X128.651 Y74.521 E4.23417
G1 X130.829 Y74.521 E4.30661
G1 X132.932 Y75.147 E4.37959
G1 X134.551 Y76.025 E4.44085
G1 X136.014 Y77.364 E4.50681
G1 X136.916 Y78.385 E4.55213
G1 X137.768 Y80.062 E4.61469
G1 X138.075 Y80.94 E4.64562
G1 X138.635 Y83.253 E4.72478
G1 X138.444 Y86.056 E4.81822
G1 X137.677 Y87.747 E4.87998
G1 X137.454 Y88.8 E4.91578
G1 X136.804 Y90.648 E4.98094
G1 X136.248 Y91.757 E5.0222
G1 X134.885 Y93.187 E5.0879
G1 X133.778 Y94.114 E5.13593
G1 X131.893 Y95.03 E5.20563
G1 X131.239 Y95.201 E5.22812
G1 X129.323 Y95.327 E5.29198
G1 X128.935 Y95.324 E5.30489
G1 X128.487 Y95.363 E5.31984
G1 X128.255 Y95.61 E5.33111
G1 X126.21 Y96.816 E5.41008
G1 X124.034 Y97.351 E5.48461
G1 X122.024 Y97.397 E5.55148
G1 X120.825 Y97.338 E5.5914
G1 X118.804 Y97.275 E5.65866
G1 X116.072 Y96.336 E5.75474
G1 X114.292 Y94.85 E5.83186
G1 X114.117 Y94.691 E5.83973
G1 X113.626 Y94.496 E5.8573
G1 X113.032 Y94.068 E5.88165
G1 X101.562 Y94.071 E6.26314
G1 X101.562 Y98.754 E6.4189
G1 X102.718 Y99.854 E6.47197
G1 X104.275 Y102.268 E6.56751
G1 X105.039 Y104.305 E6.63987
G1 X105.227 Y106.326 E6.70738
G1 X105.223 Y109.223 E6.80374
G1 X104.266 Y111.742 E6.89336
G1 X102.636 Y114.284 E6.9938
G1 X101.561 Y115.216 E7.04112
G1 X101.561 Y125.929 E7.39744
G1 X112.974 Y125.932 E7.77703
G1 X113.22 Y125.739 E7.78743
G1 X114.784 Y124.992 E7.84508
G1 X114.984 Y124.93 E7.85205
G1 X116.286 Y123.887 E7.90753
G1 X118.701 Y122.904 E7.99425
G1 X120.874 Y122.69 E8.06688
G1 X123.65 Y122.697 E8.15921
G1 X126.63 Y123.821 E8.26514
G1 X127.625 Y124.602 E8.30721
G1 X128.654 Y124.449 E8.34181
G1 X130.38 Y124.728 E8.39996
G1 X131.684 Y124.891 E8.44367
G1 X133.747 Y125.871 E8.51964
G1 X135.564 Y127.359 E8.59775
G1 X136.808 Y129.275 E8.67373
G1 X137.582 Y131.498 E8.75202
G1 X137.696 Y132.282 E8.77837
G1 X137.937 Y132.78 E8.79677
G1 X138.305 Y133.745 E8.83112
G1 X138.594 Y135.53 E8.89126
G1 X138.549 Y137.158 E8.94543
G1 X137.904 Y139.853 E9.0376
G1 X137.739 Y140.284 E9.05295
G1 X136.279 Y142.352 E9.13715
G1 X135.739 Y142.92 E9.16321
G1 X134.281 Y144.198 E9.2277
G1 X131.826 Y145.339 E9.31774
G1 X129.009 Y145.571 E9.41175
G1 X128.192 Y145.375 E9.4397
G1 X127.654 Y145.786 E9.46221
G1 X126.459 Y146.513 E9.50874
G1 X124.623 Y147.154 E9.57342
G1 X122.094 Y147.367 E9.65783
G1 X121.283 Y147.329 E9.68483
G1 X120.324 Y147.336 E9.71673
G1 X118.635 Y147.198 E9.77309
G1 X116.5 Y146.553 E9.84727
G1 X114.332 Y145.09 E9.93426
G1 X114.128 Y144.875 E9.94412
G1 X91.691 Y144.876 E10.69038
G0 F9000 X91.622 Y144.476
G1 F1800 X91.006 Y144.698 E10.71216
G1 X89.074 Y144.667 E10.77643
G1 X87.815 Y144.5 E10.81867
G1 X87.573 Y144.508 E10.82672
G1 X87.316 Y144.497 E10.83528
G1 X87.021 Y144.502 E10.84509
G1 X85.977 Y144.455 E10.87985
G1 X84.797 Y144.071 E10.92112
G1 X83.503 Y143.442 E10.96897
G1 X80.901 Y141.233 E11.0825
G1 X79.7 Y139.278 E11.15881
G1 X78.867 Y135.741 E11.27967
G1 X78.869 Y134.075 E11.33508
G1 X79.103 Y133.23 E11.36424
G1 X79.097 Y119.769 E11.81196
G1 X78.153 Y118.038 E11.87754
G1 X77.928 Y116.339 E11.93454
G1 X77.9 Y114.655 E11.99056
G1 X77.716 Y113.574 E12.02703
G1 X77.785 Y113.006 E12.04606
G1 X77.49 Y112.416 E12.068
G1 X76.578 Y109.02 E12.18495
G1 X76.439 Y107.557 E12.23383
G1 X76.453 Y107.094 E12.24924
G1 X76.386 Y106.092 E12.28264
G1 X76.735 Y104.155 E12.3481
G1 X77.55 Y101.527 E12.43962
G1 X77.783 Y101.046 E12.45739
G1 X77.711 Y100.37 E12.48
G1 X77.891 Y99.182 E12.51997
G1 X77.931 Y97.236 E12.58471
G1 X78.592 Y95.306 E12.65256
G1 X78.963 Y94.67 E12.67705
G1 X79.103 Y94.5 E12.68437
G1 X79.103 Y86.736 E12.9426
G1 X78.939 Y86.175 E12.96204
G1 X78.824 Y85.364 E12.98929
G1 X79 Y83.727 E13.04405
G1 X79.647 Y80.956 E13.13869
G1 X80.441 Y79.407 E13.19658
G1 X81.034 Y78.659 E13.22833
G1 X83.414 Y76.633 E13.33229
G1 X84.943 Y75.886 E13.38889
G1 X85.897 Y75.563 E13.42239
G1 X87.342 Y75.491 E13.47051
G1 X87.854 Y75.504 E13.48754
G1 X89.575 Y75.268 E13.54532
G1 X91.117 Y75.379 E13.59674
G1 X91.562 Y75.525 E13.61232
G1 X114.412 Y75.524 E14.37231
G1 X114.612 Y75.459 E14.37931
G1 X116.48 Y74.179 E14.45462
G1 X118.386 Y73.411 E14.52297
G1 X119.887 Y73.192 E14.57342
G1 X123.637 Y73.138 E14.69816
G1 X123.889 Y73.174 E14.70663
G1 X126.563 Y74.185 E14.80171
G1 X127.869 Y75.113 E14.85499
G1 X128.698 Y74.921 E14.8833
G1 X130.772 Y74.921 E14.95228
G1 X132.774 Y75.517 E15.02175
G1 X134.319 Y76.355 E15.08021
G1 X135.714 Y77.629 E15.14305
G1 X136.583 Y78.613 E15.18671
G1 X137.39 Y80.194 E15.24575
G1 X137.697 Y81.072 E15.27669
G1 X138.232 Y83.288 E15.35251
G1 X138.05 Y85.957 E15.44149
G1 X137.293 Y87.626 E15.50244
G1 X137.076 Y88.668 E15.53784
G1 X136.446 Y90.469 E15.6013
G1 X135.917 Y91.524 E15.64055
G1 X134.595 Y92.911 E15.70428
G1 X133.561 Y93.775 E15.7491
G1 X131.752 Y94.653 E15.81598
G1 X131.175 Y94.804 E15.83582
G1 X129.326 Y94.927 E15.89745
G1 X128.915 Y94.924 E15.91112
G1 X128.3 Y94.977 E15.93165
G1 X128.002 Y95.295 E15.94615
G1 X126.055 Y96.443 E16.02132
G1 X123.984 Y96.952 E16.09226
G1 X122.044 Y96.997 E16.1568
G1 X120.845 Y96.938 E16.19673
G1 X118.875 Y96.877 E16.26228
G1 X116.272 Y95.982 E16.35383
G1 X114.561 Y94.554 E16.42795
G1 X114.331 Y94.345 E16.43829
G1 X113.82 Y94.142 E16.45658
G1 X113.162 Y93.668 E16.48355
G1 X101.162 Y93.671 E16.88267
G1 X101.162 Y98.926 E17.05745
G1 X102.409 Y100.112 E17.11469
G1 X103.916 Y102.45 E17.20721
G1 X104.646 Y104.395 E17.27631
G1 X104.827 Y106.325 E17.34078
G1 X104.823 Y109.149 E17.43471
G1 X103.907 Y111.56 E17.52049
G1 X102.329 Y114.021 E17.61772
G1 X101.161 Y115.034 E17.66915
G1 X101.161 Y126.329 E18.04482
G1 X113.113 Y126.332 E18.44235
G1 X113.434 Y126.08 E18.45592
G1 X114.956 Y125.353 E18.51202
G1 X115.168 Y125.295 E18.51933
G1 X116.491 Y124.235 E18.57571
G1 X118.797 Y123.296 E18.65853
G1 X120.873 Y123.09 E18.72791
G1 X123.577 Y123.097 E18.81785
G1 X126.43 Y124.173 E18.91927
G1 X127.513 Y125.023 E18.96506
G1 X128.652 Y124.854 E19.00335
G1 X130.323 Y125.124 E19.05965
G1 X131.571 Y125.28 E19.10148
G1 X133.533 Y126.212 E19.17373
G1 X135.26 Y127.626 E19.24797
G1 X136.446 Y129.453 E19.32041
G1 X137.192 Y131.595 E19.39585
G1 X137.309 Y132.402 E19.42297
G1 X137.563 Y132.923 E19.44225
G1 X137.917 Y133.851 E19.47529
G1 X138.193 Y135.557 E19.53277
G1 X138.15 Y137.106 E19.58431
G1 X137.515 Y139.76 E19.67507
G1 X137.384 Y140.094 E19.687
G1 X135.988 Y142.077 E19.76766
G1 X135.475 Y142.619 E19.79248
G1 X134.06 Y143.859 E19.85506
G1 X131.722 Y144.946 E19.94082
G1 X129.04 Y145.167 E20.03032
G1 X128.1 Y144.941 E20.06248
G1 X127.446 Y145.444 E20.08992
G1 X126.288 Y146.149 E20.13501
G1 X124.539 Y146.759 E20.19662
G1 X122.06 Y146.968 E20.27936
G1 X121.283 Y146.929 E20.30524
G1 X120.357 Y146.937 E20.33604
G1 X118.709 Y146.802 E20.39104
G1 X116.675 Y146.188 E20.4617
G1 X114.556 Y144.758 E20.54673
G1 X114.309 Y144.475 E20.55922
G1 X91.622 Y144.476 E21.31379
G0 F9000 X91.552 Y144.076
G1 F1800 X90.94 Y144.297 E21.33544
G1 X89.127 Y144.27 E21.39574
G1 X87.836 Y144.099 E21.43906
G1 X87.59 Y144.108 E21.44724
G1 X87.326 Y144.097 E21.45603
G1 X87.039 Y144.102 E21.46558
G1 X86.048 Y144.057 E21.49858
G1 X84.972 Y143.711 E21.53617
G1 X83.723 Y143.104 E21.58236
G1 X81.208 Y140.969 E21.69208
G1 X80.074 Y139.123 E21.76414
G1 X79.267 Y135.696 E21.88124
G1 X79.269 Y134.128 E21.93339
G1 X79.503 Y133.283 E21.96255
G1 X79.497 Y119.641 E22.41629
G1 X79.422 Y119.535 E22.42061
G1 X78.541 Y117.914 E22.48197
G1 X78.325 Y116.286 E22.53659
G1 X78.3 Y114.621 E22.59198
G1 X78.12 Y113.565 E22.62761
G1 X78.196 Y112.934 E22.64874
G1 X77.865 Y112.271 E22.67339
G1 X76.976 Y108.981 E22.78674
G1 X76.839 Y107.569 E22.83393
G1 X76.853 Y107.089 E22.8499
G1 X76.788 Y106.115 E22.88236
G1 X77.117 Y104.274 E22.94457
G1 X77.639 Y102.606 E23.0027
G1 X77.91 Y101.701 E23.03412
G1 X78.193 Y101.117 E23.0557
G1 X78.114 Y100.376 E23.08049
G1 X78.291 Y99.212 E23.11965
G1 X78.33 Y97.305 E23.18309
G1 X78.957 Y95.475 E23.24743
G1 X79.309 Y94.871 E23.27068
G1 X79.503 Y94.653 E23.28039
G1 X79.503 Y86.679 E23.5456
G1 X79.323 Y86.063 E23.56695
G1 X79.227 Y85.359 E23.59058
G1 X79.39 Y83.818 E23.64212
G1 X80.026 Y81.092 E23.73522
G1 X80.778 Y79.625 E23.79005
G1 X81.322 Y78.939 E23.81917
G1 X83.636 Y76.97 E23.92023
G1 X85.071 Y76.265 E23.9734
G1 X85.974 Y75.959 E24.00512
G1 X87.332 Y75.891 E24.05034
G1 X87.873 Y75.905 E24.06834
G1 X89.586 Y75.67 E24.12585
G1 X91.041 Y75.775 E24.17437
G1 X91.499 Y75.925 E24.1904
G1 X114.474 Y75.924 E24.95455
G1 X114.791 Y75.821 E24.96563
G1 X116.669 Y74.534 E25.04136
G1 X118.49 Y73.8 E25.10666
G1 X119.893 Y73.592 E25.15383
G1 X123.643 Y73.538 E25.27857
G1 X123.79 Y73.564 E25.28354
G1 X126.372 Y74.54 E25.37534
G1 X127.784 Y75.544 E25.43297
G1 X128.745 Y75.321 E25.46578
G1 X130.715 Y75.321 E25.5313
G1 X132.616 Y75.887 E25.59727
G1 X134.087 Y76.685 E25.65293
G1 X135.414 Y77.894 E25.71264
G1 X136.251 Y78.841 E25.75468
G1 X137.012 Y80.326 E25.81018
G1 X137.319 Y81.204 E25.84111
G1 X137.829 Y83.323 E25.9136
G1 X137.656 Y85.858 E25.99812
G1 X136.91 Y87.504 E26.05822
G1 X136.698 Y88.536 E26.09326
G1 X136.068 Y90.337 E26.15672
G1 X135.587 Y91.29 E26.19223
G1 X134.338 Y92.604 E26.25253
G1 X133.342 Y93.437 E26.29571
G1 X131.612 Y94.276 E26.35966
G1 X131.109 Y94.408 E26.37696
G1 X129.329 Y94.527 E26.43629
G1 X128.895 Y94.524 E26.45073
G1 X128.416 Y94.565 E26.46672
G1 X128.141 Y94.563 E26.47587
G1 X127.751 Y94.978 E26.49481
G1 X125.901 Y96.069 E26.56624
G1 X123.933 Y96.553 E26.63365
G1 X122.064 Y96.597 E26.69583
G1 X120.865 Y96.538 E26.73575
G1 X118.946 Y96.479 E26.79961
G1 X116.472 Y95.628 E26.88663
G1 X114.83 Y94.258 E26.95775
G1 X114.545 Y93.999 E26.97056
G1 X114.014 Y93.788 E26.98957
G1 X113.292 Y93.268 E27.01916
G1 X100.762 Y93.271 E27.43591
G1 X100.762 Y99.137 E27.63101
G1 X100.931 Y99.252 E27.63781
G1 X102.098 Y100.368 E27.69152
G1 X103.556 Y102.629 E27.781
G1 X104.253 Y104.487 E27.847
G1 X104.427 Y106.324 E27.90838
G1 X104.423 Y109.075 E27.99987
G1 X103.548 Y111.378 E28.08181
G1 X102.022 Y113.758 E28.17585
G1 X100.761 Y114.852 E28.23137
G1 X100.761 Y126.729 E28.6264
G1 X113.251 Y126.732 E29.04182
G1 X113.648 Y126.421 E29.0586
G1 X115.062 Y125.739 E29.11081
G1 X115.353 Y125.659 E29.12085
G1 X116.696 Y124.583 E29.17808
G1 X118.893 Y123.688 E29.25699
G1 X120.872 Y123.49 E29.32314
G1 X123.504 Y123.497 E29.41068
G1 X126.23 Y124.525 E29.50758
G1 X127.402 Y125.444 E29.55712
G1 X128.65 Y125.259 E29.59908
G1 X130.266 Y125.52 E29.65352
G1 X131.458 Y125.669 E29.69348
G1 X133.319 Y126.553 E29.762
G1 X134.958 Y127.895 E29.83246
G1 X136.084 Y129.629 E29.90122
G1 X136.801 Y131.69 E29.9738
G1 X136.922 Y132.519 E30.00167
G1 X137.189 Y133.066 E30.02191
G1 X137.529 Y133.957 E30.05363
G1 X137.792 Y135.584 E30.10845
G1 X137.751 Y137.054 E30.15736
G1 X137.126 Y139.667 E30.24672
G1 X137.029 Y139.904 E30.25524
G1 X135.697 Y141.802 E30.33236
G1 X135.184 Y142.344 E30.35718
G1 X133.841 Y143.519 E30.41653
G1 X131.618 Y144.553 E30.49808
G1 X129.071 Y144.763 E30.58308
G1 X128.007 Y144.507 E30.61948
G1 X127.238 Y145.102 E30.65181
G1 X126.117 Y145.785 E30.69547
G1 X124.455 Y146.364 E30.75401
G1 X122.08 Y146.568 E30.8333
G1 X121.299 Y146.529 E30.8593
G1 X120.39 Y146.538 E30.88954
G1 X118.783 Y146.406 E30.94317
G1 X116.85 Y145.823 E31.01032
G1 X114.821 Y144.454 E31.09173
G1 X114.49 Y144.075 E31.10847
G1 X91.552 Y144.076 E31.87139
G0 F9000 X91.482 Y143.676
G1 F1800 X90.873 Y143.896 E31.89292
G1 X89.179 Y143.873 E31.94927
G1 X87.855 Y143.698 E31.99369
G1 X87.606 Y143.708 E32.00198
G1 X87.335 Y143.697 E32.011
G1 X87.057 Y143.702 E32.02025
G1 X86.117 Y143.659 E32.05154
G1 X85.147 Y143.351 E32.08539
G1 X83.943 Y142.766 E32.12992
G1 X81.515 Y140.705 E32.23584
G1 X80.448 Y138.968 E32.30365
G1 X79.667 Y135.651 E32.41699
G1 X79.669 Y134.181 E32.46588
G1 X79.903 Y133.336 E32.49504
G1 X79.897 Y119.507 E32.955
G1 X79.773 Y119.344 E32.96181
G1 X78.928 Y117.79 E33.02064
G1 X78.722 Y116.234 E33.07284
G1 X78.7 Y114.587 E33.12763
G1 X78.524 Y113.556 E33.16242
G1 X78.608 Y112.862 E33.18567
G1 X78.24 Y112.127 E33.21301
G1 X77.374 Y108.942 E33.32279
G1 X77.239 Y107.581 E33.36828
G1 X77.254 Y107.084 E33.38481
G1 X77.19 Y106.138 E33.41635
G1 X77.499 Y104.393 E33.47529
G1 X78.021 Y102.725 E33.53342
G1 X78.293 Y101.816 E33.56498
G1 X78.603 Y101.19 E33.58821
G1 X78.517 Y100.382 E33.61524
G1 X78.691 Y99.242 E33.6536
G1 X78.729 Y97.374 E33.71574
G1 X79.322 Y95.642 E33.77663
G1 X79.633 Y95.109 E33.79715
G1 X79.903 Y94.805 E33.81068
G1 X79.903 Y86.619 E34.08294
G1 X79.719 Y86.009 E34.10413
G1 X79.63 Y85.355 E34.12609
G1 X79.788 Y83.86 E34.17609
G1 X80.404 Y81.232 E34.26587
G1 X81.115 Y79.844 E34.31773
G1 X81.611 Y79.218 E34.3443
G1 X83.857 Y77.307 E34.44238
G1 X85.199 Y76.644 E34.49217
G1 X86.048 Y76.356 E34.52199
G1 X87.352 Y76.291 E34.56541
G1 X87.892 Y76.306 E34.58338
G1 X89.597 Y76.072 E34.64062
G1 X90.965 Y76.171 E34.68624
G1 X91.436 Y76.325 E34.70272
G1 X114.54 Y76.324 E35.47116
G1 X114.862 Y76.215 E35.48247
G1 X114.956 Y76.193 E35.48568
G1 X116.858 Y74.889 E35.56238
G1 X118.594 Y74.189 E35.62464
G1 X119.899 Y73.992 E35.66853
G1 X123.649 Y73.938 E35.79327
G1 X126.182 Y74.895 E35.88333
G1 X127.388 Y75.759 E35.93267
G1 X127.704 Y75.974 E35.94539
G1 X128.793 Y75.721 E35.98257
G1 X130.658 Y75.721 E36.0446
G1 X132.458 Y76.257 E36.10707
G1 X133.855 Y77.015 E36.15993
G1 X135.114 Y78.159 E36.21651
G1 X135.918 Y79.068 E36.25687
G1 X136.634 Y80.458 E36.30888
G1 X136.941 Y81.336 E36.33981
G1 X137.426 Y83.357 E36.40894
G1 X137.262 Y85.759 E36.48902
G1 X136.527 Y87.381 E36.54825
G1 X136.32 Y88.405 E36.58299
G1 X135.711 Y90.157 E36.64469
G1 X135.256 Y91.058 E36.67826
G1 X134.081 Y92.297 E36.73505
G1 X133.121 Y93.1 E36.77668
G1 X131.474 Y93.898 E36.83755
