;FLAVOR:Marlin
;TIME:3035
;Filament used: 3.07998m
;Layer height: 0.16
;MINX:79.077
;MINY:66.29
;MINZ:0.2
;MAXX:140.967
;MAXY:153.726
;MAXZ:5.48
;TARGET_MACHINE.NAME:Creality Ender-3 V3 SE
;Generated with Cura_SteamEngine 5.9.1
M82 ;absolute extrusion mode
M220 S100 ;Reset Feedrate
M221 S100 ;Reset Flowrate

G28 ;Home

M420 S1; Use saved mesh leveling data

G92 E0 ;Reset Extruder
G1 Z2.0 F3000 ;Move Z Axis up
G1 X-3 Y20 Z0.28 F5000.0 ;Move to start position
M190 S60 ; Set bed temperature and wait
M109 S200 ; Set hotend temperature and wait
G1 X-3 Y100.0 Z0.28 F1500.0 E15 ;Draw the first line
G1 X-2 Y100.0 Z0.28 F5000.0 ;Move to side a little
G1 X-2 Y20 Z0.28 F1500.0 E30 ;Draw the second line
G92 E0 ;Reset Extruder
G1 E-1.0000 F1800 ;Retract a bit
G1 Z2.0 F3000 ;Move Z Axis up
G1 E0.0000 F1800 

G92 E0
G92 E0
G1 F2400 E-0.8
;LAYER_COUNT:32
;LAYER:0
M107
G0 F9000 X86.691 Y148.794 Z0.2
;TYPE:SKIRT
G1 F2400 E0
G1 F1800 X85.52 Y147.747 E0.05225
G1 X81.341 Y141.933 E0.29039
G1 X80.645 Y140.647 E0.33903
G1 X79.077 Y133.271 E0.58983
G1 X79.077 Y84.025 E2.22776
G1 X80.087 Y79.961 E2.36704
G1 X80.683 Y78.462 E2.4207
G1 X83.677 Y74.894 E2.57561
G1 X84.996 Y73.832 E2.63194
G1 X89.193 Y72.028 E2.78388
G1 X122.035 Y66.29 E3.89275
G1 X124.768 Y66.386 E3.98371
G1 X126.246 Y66.63 E4.03353
G1 X129.006 Y67.888 E4.13442
G1 X130.131 Y68.567 E4.17812
G1 X132.271 Y70.864 E4.28254
G1 X133.082 Y72.009 E4.32921
G1 X134.193 Y74.876 E4.43147
G1 X140.731 Y112.053 E5.68696
G1 X140.967 Y118.655 E5.90669
G1 X139.069 Y125.971 E6.15807
G1 X132.132 Y143.043 E6.77098
G1 X129.576 Y147.077 E6.92981
G1 X125.123 Y150.44 E7.11541
G1 X120.423 Y151.786 E7.27802
G1 X101.738 Y153.726 E7.90282
G1 X94.763 Y152.96 E8.13621
G1 X93.303 Y152.613 E8.18612
G1 X86.691 Y148.794 E8.44008
G0 F9000 X86.929 Y148.47
G1 F1800 X85.821 Y147.479 E8.48953
G1 X81.693 Y141.742 E8.7246
G1 X81.023 Y140.505 E8.77139
G1 X79.477 Y133.23 E9.01876
G1 X79.477 Y84.073 E10.65373
G1 X80.459 Y80.109 E10.78956
G1 X81.032 Y78.668 E10.84114
G1 X83.955 Y75.184 E10.9924
G1 X85.207 Y74.176 E11.04586
G1 X89.306 Y72.414 E11.19425
G1 X122.061 Y66.691 E12.30019
G1 X124.703 Y66.781 E12.38812
G1 X126.129 Y67.016 E12.43619
G1 X128.799 Y68.231 E12.53375
G1 X129.877 Y68.881 E12.57562
G1 X131.978 Y71.137 E12.67815
G1 X132.726 Y72.198 E12.72133
G1 X133.806 Y74.985 E12.82074
G1 X140.331 Y112.067 E14.07305
G1 X140.565 Y118.613 E14.29091
G1 X138.698 Y125.82 E14.53852
G1 X131.761 Y142.892 E15.15143
G1 X129.277 Y146.802 E15.3055
G1 X124.943 Y150.075 E15.48614
G1 X120.345 Y151.392 E15.64521
G1 X101.741 Y153.323 E16.26731
G1 X94.807 Y152.562 E16.49932
G1 X93.451 Y152.237 E16.5457
G1 X86.929 Y148.47 E16.79621
G0 F9000 X87.167 Y148.146
G1 F1800 X86.122 Y147.211 E16.84284
G1 X82.045 Y141.551 E17.07485
G1 X81.401 Y140.363 E17.11979
G1 X79.877 Y133.189 E17.36373
G1 X79.877 Y84.121 E18.99574
G1 X80.831 Y80.257 E19.12811
G1 X81.381 Y78.874 E19.17761
G1 X84.233 Y75.474 E19.32522
G1 X85.418 Y74.52 E19.37581
G1 X89.419 Y72.8 E19.52066
G1 X122.088 Y67.092 E20.6237
G1 X124.638 Y67.176 E20.70856
G1 X126.014 Y67.403 E20.75494
G1 X128.593 Y68.574 E20.84915
G1 X129.624 Y69.195 E20.88918
G1 X131.651 Y71.367 E20.98799
G1 X132.37 Y72.387 E21.0295
G1 X133.419 Y75.094 E21.12606
G1 X139.931 Y112.081 E22.37517
G1 X140.163 Y118.571 E22.59117
G1 X138.327 Y125.669 E22.83502
G1 X131.404 Y142.708 E23.44673
G1 X128.977 Y146.528 E23.59726
G1 X124.763 Y149.71 E23.77289
G1 X120.267 Y150.998 E23.92844
G1 X101.744 Y152.92 E24.54782
G1 X94.851 Y152.164 E24.77846
G1 X93.599 Y151.861 E24.82131
G1 X87.167 Y148.146 E25.06835
G0 F9000 X87.405 Y147.822
G1 F1800 X86.422 Y146.943 E25.11221
G1 X82.37 Y141.317 E25.34282
G1 X81.78 Y140.222 E25.38419
G1 X80.277 Y133.148 E25.62472
G1 X80.277 Y84.168 E27.2538
G1 X81.203 Y80.405 E27.38269
G1 X81.73 Y79.08 E27.43012
G1 X84.511 Y75.764 E27.57406
G1 X85.629 Y74.864 E27.6218
G1 X89.532 Y73.186 E27.7631
G1 X122.115 Y67.493 E28.86324
G1 X124.573 Y67.571 E28.94503
G1 X125.899 Y67.79 E28.98973
G1 X128.387 Y68.917 E29.08058
G1 X129.371 Y69.51 E29.11879
G1 X131.324 Y71.598 E29.21388
G1 X132.015 Y72.578 E29.25376
G1 X133.032 Y75.203 E29.34739
G1 X139.531 Y112.095 E30.59332
G1 X139.761 Y118.529 E30.80745
G1 X137.956 Y125.518 E31.04753
G1 X131.047 Y142.524 E31.65805
G1 X128.677 Y146.254 E31.80504
G1 X124.583 Y149.345 E31.97566
G1 X120.189 Y150.604 E32.12768
G1 X101.746 Y152.518 E32.74439
G1 X94.945 Y151.775 E32.97194
G1 X93.747 Y151.485 E33.01294
G1 X87.405 Y147.822 E33.25653
G0 F9000 X87.643 Y147.498
G1 F1800 X86.72 Y146.672 E33.29773
G1 X82.722 Y141.127 E33.52509
G1 X82.159 Y140.082 E33.56457
G1 X80.677 Y133.107 E33.80174
G1 X80.677 Y84.214 E35.42793
G1 X81.575 Y80.553 E35.55331
G1 X82.079 Y79.286 E35.59866
G1 X84.792 Y76.051 E35.73908
G1 X85.837 Y75.209 E35.78372
G1 X89.645 Y73.572 E35.92158
G1 X122.142 Y67.894 E37.01881
G1 X124.508 Y67.966 E37.09754
G1 X125.781 Y68.176 E37.14045
G1 X128.18 Y69.26 E37.22801
G1 X129.117 Y69.825 E37.2644
G1 X130.997 Y71.829 E37.35579
G1 X131.661 Y72.77 E37.3941
G1 X132.645 Y75.31 E37.4847
G1 X139.131 Y112.109 E38.7275
G1 X139.359 Y118.487 E38.93977
G1 X137.585 Y125.367 E39.17609
G1 X130.69 Y142.34 E39.78541
G1 X128.377 Y145.98 E39.92886
G1 X124.403 Y148.98 E40.09447
G1 X120.111 Y150.21 E40.24296
G1 X101.748 Y152.116 E40.857
G1 X95.039 Y151.386 E41.08146
G1 X93.895 Y151.109 E41.12061
G1 X87.643 Y147.498 E41.36074
G0 F9000 X87.881 Y147.174
G1 F1800 X87.018 Y146.401 E41.39928
G1 X83.074 Y140.937 E41.62341
G1 X82.538 Y139.942 E41.661
G1 X81.077 Y133.066 E41.8948
G1 X81.077 Y84.264 E43.51796
G1 X81.947 Y80.701 E43.63995
G1 X82.428 Y79.492 E43.68323
G1 X85.073 Y76.338 E43.82014
G1 X86.043 Y75.556 E43.86158
G1 X89.762 Y73.958 E43.99621
G1 X122.17 Y68.295 E45.09043
G1 X124.443 Y68.361 E45.16607
G1 X125.663 Y68.562 E45.20719
G1 X128.015 Y69.625 E45.29304
G1 X128.862 Y70.139 E45.32599
G1 X130.705 Y72.103 E45.41557
G1 X131.305 Y72.96 E45.45036
G1 X132.258 Y75.419 E45.53808
G1 X138.731 Y112.123 E46.7777
G1 X138.957 Y118.445 E46.9881
G1 X137.214 Y125.216 E47.22065
G1 X130.333 Y142.156 E47.82878
G1 X128.077 Y145.706 E47.96868
G1 X124.223 Y148.615 E48.12928
G1 X120.033 Y149.816 E48.27425
G1 X101.75 Y151.714 E48.88562
G1 X95.133 Y150.997 E49.10699
G1 X94.043 Y150.733 E49.14429
G1 X87.881 Y147.174 E49.38097
G0 F9000 X88.119 Y146.85
G1 F1800 X87.316 Y146.13 E49.41684
G1 X83.426 Y140.747 E49.63773
G1 X82.917 Y139.802 E49.67343
G1 X81.477 Y133.025 E49.90387
G1 X81.477 Y84.314 E51.524
G1 X82.336 Y80.796 E51.64445
G1 X82.776 Y79.699 E51.68376
G1 X85.354 Y76.625 E51.8172
G1 X86.249 Y75.904 E51.85543
G1 X89.879 Y74.344 E51.98684
G1 X122.198 Y68.696 E53.07806
G1 X124.378 Y68.756 E53.1506
G1 X125.547 Y68.949 E53.19
G1 X127.807 Y69.967 E53.27245
G1 X128.609 Y70.454 E53.30365
G1 X130.377 Y72.332 E53.38944
G1 X130.95 Y73.15 E53.42266
G1 X131.87 Y75.525 E53.50737
G1 X138.331 Y112.137 E54.74391
G1 X138.555 Y118.403 E54.95245
G1 X136.843 Y125.065 E55.18123
G1 X129.976 Y141.972 E55.78817
G1 X127.777 Y145.432 E55.92452
G1 X124.043 Y148.25 E56.08012
G1 X119.955 Y149.422 E56.22156
G1 X101.752 Y151.312 E56.83025
G1 X95.227 Y150.608 E57.04853
G1 X94.191 Y150.357 E57.08399
G1 X88.119 Y146.85 E57.31721
G0 F9000 X88.357 Y146.526
G1 F1800 X87.614 Y145.859 E57.35042
G1 X83.778 Y140.557 E57.56808
G1 X83.296 Y139.662 E57.60189
G1 X81.877 Y132.984 E57.82896
G1 X81.877 Y84.364 E59.44606
G1 X82.725 Y80.891 E59.56497
G1 X83.124 Y79.905 E59.60035
G1 X85.632 Y76.915 E59.73015
G1 X86.46 Y76.248 E59.76551
G1 X89.992 Y74.73 E59.89338
G1 X122.226 Y69.097 E60.98173
G1 X124.367 Y69.156 E61.05297
G1 X125.428 Y69.334 E61.08875
G1 X127.599 Y70.309 E61.16791
G1 X128.354 Y70.768 E61.19729
G1 X130.049 Y72.562 E61.27938
G1 X130.595 Y73.341 E61.31102
G1 X131.483 Y75.633 E61.39278
G1 X137.931 Y112.151 E62.62616
G1 X138.153 Y118.362 E62.83287
G1 X136.472 Y124.914 E63.05785
G1 X129.619 Y141.788 E63.6636
G1 X127.477 Y145.158 E63.79641
G1 X123.863 Y147.885 E63.94699
G1 X119.877 Y149.028 E64.08491
G1 X101.754 Y150.91 E64.69092
G1 X95.321 Y150.219 E64.90612
G1 X94.339 Y149.981 E64.93973
G1 X88.357 Y146.526 E65.16949
G0 F9000 X88.595 Y146.202
G1 F1800 X87.914 Y145.59 E65.19994
G1 X84.13 Y140.367 E65.41446
G1 X83.675 Y139.522 E65.44638
G1 X82.277 Y132.943 E65.67008
G1 X82.277 Y84.414 E67.28416
G1 X83.114 Y80.986 E67.40153
G1 X83.472 Y80.112 E67.43294
G1 X85.91 Y77.205 E67.55913
G1 X86.671 Y76.592 E67.59163
G1 X90.105 Y75.116 E67.71595
G1 X122.254 Y69.498 E68.80144
G1 X124.356 Y69.556 E68.87137
G1 X125.309 Y69.719 E68.90353
G1 X127.435 Y70.674 E68.98105
G1 X128.099 Y71.081 E69.00695
G1 X129.758 Y72.837 E69.0873
G1 X130.239 Y73.529 E69.11533
G1 X131.095 Y75.739 E69.19416
G1 X137.531 Y112.165 E70.42446
G1 X137.751 Y118.318 E70.62924
G1 X136.101 Y124.763 E70.85051
G1 X129.262 Y141.604 E71.45507
G1 X127.177 Y144.884 E71.58434
G1 X123.681 Y147.521 E71.72999
G1 X119.836 Y148.63 E71.86308
G1 X101.756 Y150.508 E72.46766
G1 X95.415 Y149.83 E72.67977
G1 X94.487 Y149.605 E72.71153
G1 X88.595 Y146.202 E72.93783
G0 F9000 X88.83 Y145.876
G1 F1800 X88.216 Y145.324 E72.96529
G1 X84.482 Y140.177 E73.17679
G1 X84.054 Y139.382 E73.20682
G1 X82.677 Y132.902 E73.42716
G1 X82.677 Y84.463 E75.03824
G1 X83.484 Y81.138 E75.15204
G1 X83.819 Y80.32 E75.18144
G1 X86.188 Y77.495 E75.30407
G1 X86.882 Y76.936 E75.33371
G1 X90.218 Y75.502 E75.45448
G1 X122.282 Y69.899 E76.53709
G1 X124.345 Y69.956 E76.60574
G1 X125.191 Y70.105 E76.63431
G1 X127.271 Y71.039 E76.71014
G1 X127.845 Y71.394 E76.73259
G1 X129.429 Y73.065 E76.80917
G1 X129.884 Y73.72 E76.8357
G1 X130.707 Y75.845 E76.91149
G1 X137.131 Y112.179 E78.13871
G1 X137.349 Y118.274 E78.34156
G1 X135.73 Y124.613 E78.55916
G1 X128.906 Y141.418 E79.16242
G1 X126.877 Y144.61 E79.28822
G1 X123.499 Y147.157 E79.42893
G1 X119.795 Y148.232 E79.55721
G1 X101.757 Y150.106 E80.16039
G1 X95.509 Y149.441 E80.36937
G1 X94.635 Y149.229 E80.39928
G1 X88.83 Y145.876 E80.62225
G0 F9000 X89.068 Y145.552
G1 F1800 X88.515 Y145.055 E80.64698
G1 X84.834 Y139.987 E80.85531
G1 X84.433 Y139.242 E80.88345
G1 X83.077 Y132.861 E81.10042
G1 X83.077 Y84.512 E82.70852
G1 X83.854 Y81.29 E82.81876
G1 X84.166 Y80.528 E82.84614
G1 X86.469 Y77.782 E82.96534
G1 X87.088 Y77.283 E82.99179
G1 X90.335 Y75.888 E83.10933
G1 X122.311 Y70.3 E84.18897
G1 X124.275 Y70.35 E84.25432
G1 X125.074 Y70.491 E84.2813
G1 X127.061 Y71.379 E84.35369
G1 X127.588 Y71.705 E84.3743
G1 X129.1 Y73.293 E84.44723
G1 X129.529 Y73.911 E84.47225
G1 X130.319 Y75.951 E84.54501
G1 X136.731 Y112.193 E85.76914
G1 X136.947 Y118.23 E85.97006
G1 X135.359 Y124.463 E86.184
G1 X128.55 Y141.232 E86.78596
G1 X126.577 Y144.336 E86.90829
G1 X123.317 Y146.793 E87.04407
G1 X119.719 Y147.838 E87.16868
G1 X101.758 Y149.704 E87.76928
G1 X95.603 Y149.052 E87.97514
G1 X94.783 Y148.853 E88.00321
G1 X89.068 Y145.552 E88.22272
G0 F9000 X89.306 Y145.228
G1 F1800 X88.814 Y144.786 E88.24472
G1 X85.158 Y139.752 E88.45165
G1 X84.812 Y139.102 E88.47614
G1 X83.477 Y132.82 E88.68974
G1 X83.477 Y84.559 E90.29491
G1 X84.224 Y81.441 E90.40155
G1 X84.512 Y80.737 E90.42685
G1 X86.75 Y78.069 E90.54267
G1 X87.294 Y77.63 E90.56592
G1 X90.452 Y76.274 E90.68023
G1 X122.34 Y70.701 E91.75691
G1 X124.205 Y70.744 E91.81895
G1 X124.958 Y70.877 E91.84439
G1 X126.85 Y71.719 E91.91327
G1 X127.333 Y72.018 E91.93216
G1 X128.771 Y73.521 E92.00134
G1 X129.173 Y74.1 E92.02479
G1 X129.932 Y76.059 E92.09466
G1 X136.331 Y112.207 E93.31564
G1 X136.545 Y118.186 E93.51463
G1 X134.988 Y124.313 E93.7249
G1 X128.194 Y141.046 E94.32556
G1 X126.277 Y144.062 E94.44442
G1 X123.135 Y146.429 E94.57526
G1 X119.642 Y147.444 E94.69625
G1 X101.759 Y149.302 E95.29424
G1 X95.645 Y148.654 E95.49873
G1 X94.933 Y148.478 E95.52312
G1 X89.306 Y145.228 E95.73925
G0 F9000 X89.544 Y144.904
G1 F1800 X89.113 Y144.517 E95.75852
G1 X85.482 Y139.517 E95.96404
G1 X85.191 Y138.963 E95.98486
G1 X83.877 Y132.779 E96.19513
G1 X83.877 Y84.606 E97.79737
G1 X84.594 Y81.592 E97.90041
G1 X84.858 Y80.946 E97.92363
G1 X87.031 Y78.356 E98.03607
G1 X87.5 Y77.978 E98.05611
G1 X90.569 Y76.66 E98.1672
G1 X122.37 Y71.102 E99.24094
G1 X124.196 Y71.144 E99.30168
G1 X124.837 Y71.261 E99.32336
G1 X126.639 Y72.059 E99.38891
G1 X127.081 Y72.333 E99.4062
G1 X128.442 Y73.749 E99.47153
G1 X128.817 Y74.289 E99.49339
G1 X129.545 Y76.167 E99.56038
G1 X135.931 Y112.221 E100.77821
G1 X136.143 Y118.143 E100.9753
G1 X134.617 Y124.163 E101.18186
G1 X127.838 Y140.86 E101.78123
G1 X125.978 Y143.786 E101.89655
G1 X122.951 Y146.066 E102.02259
G1 X119.565 Y147.05 E102.13987
G1 X101.76 Y148.9 E102.73525
G1 X95.687 Y148.256 E102.93838
G1 X95.082 Y148.103 E102.95913
G1 X89.544 Y144.904 E103.17185
G0 F9000 X89.782 Y144.58
G1 F1800 X89.412 Y144.248 E103.18838
G1 X85.806 Y139.282 E103.3925
G1 X85.57 Y138.825 E103.40961
G1 X84.277 Y132.738 E103.61658
G1 X84.277 Y84.653 E105.2159
G1 X84.983 Y81.685 E105.31737
G1 X85.204 Y81.157 E105.3364
G1 X87.312 Y78.643 E105.44553
G1 X87.708 Y78.324 E105.46244
G1 X90.686 Y77.046 E105.57022
G1 X122.4 Y71.503 E106.64102
G1 X124.187 Y71.544 E106.70048
G1 X124.718 Y71.646 E106.71846
G1 X126.477 Y72.425 E106.78245
G1 X126.828 Y72.646 E106.79624
G1 X128.154 Y74.026 E106.85989
G1 X128.461 Y74.476 E106.87801
G1 X129.157 Y76.273 E106.94211
G1 X135.531 Y112.235 E108.15685
G1 X135.741 Y118.1 E108.35205
G1 X134.246 Y124.013 E108.5549
G1 X127.482 Y140.674 E109.15298
G1 X125.679 Y143.51 E109.26475
G1 X122.767 Y145.703 E109.386
G1 X119.488 Y146.656 E109.49957
G1 X101.761 Y148.498 E110.09235
G1 X95.729 Y147.858 E110.2941
G1 X95.233 Y147.729 E110.31114
G1 X89.782 Y144.58 E110.52052
G0 F9000 X90.02 Y144.256
G1 F1800 X89.711 Y143.979 E110.53433
G1 X86.13 Y139.047 E110.73704
G1 X85.95 Y138.689 E110.75037
G1 X84.677 Y132.697 E110.95411
G1 X84.677 Y84.7 E112.5505
G1 X85.372 Y81.778 E112.6504
G1 X85.548 Y81.37 E112.66518
G1 X87.593 Y78.93 E112.77106
G1 X87.916 Y78.67 E112.78486
G1 X90.803 Y77.432 E112.88933
G1 X122.43 Y71.904 E113.9572
G1 X124.178 Y71.944 E114.01535
G1 X124.597 Y72.03 E114.02958
G1 X126.315 Y72.791 E114.09208
G1 X126.575 Y72.959 E114.10237
G1 X127.866 Y74.303 E114.16436
G1 X128.104 Y74.662 E114.17868
G1 X128.769 Y76.379 E114.23992
G1 X135.131 Y112.249 E115.45158
G1 X135.339 Y118.057 E115.64488
G1 X133.875 Y123.863 E115.84404
G1 X127.126 Y140.488 E116.44081
G1 X125.38 Y143.234 E116.54904
G1 X122.583 Y145.34 E116.66549
G1 X119.411 Y146.262 E116.77536
G1 X101.762 Y148.096 E117.36553
G1 X95.771 Y147.46 E117.56591
G1 X95.385 Y147.355 E117.57922
G1 X90.02 Y144.256 E117.78529
G0 F9000 X90.258 Y143.932
G1 F1800 X90.01 Y143.71 E117.79636
G1 X86.454 Y138.812 E117.99767
G1 X86.33 Y138.555 E118.00716
G1 X85.077 Y132.656 E118.20774
G1 X85.077 Y84.747 E119.8012
G1 X85.761 Y81.871 E119.89953
G1 X85.891 Y81.584 E119.91
G1 X87.874 Y79.218 E120.01268
G1 X88.124 Y79.017 E120.02335
G1 X90.92 Y77.818 E120.12454
G1 X122.46 Y72.305 E121.18947
G1 X124.169 Y72.344 E121.24632
G1 X124.473 Y72.412 E121.25668
G1 X126.098 Y73.127 E121.31573
G1 X126.318 Y73.269 E121.32444
G1 X127.577 Y74.58 E121.3849
G1 X127.747 Y74.846 E121.3954
G1 X128.381 Y76.485 E121.45384
G1 X134.731 Y112.263 E122.66242
G1 X134.937 Y118.015 E122.85386
G1 X133.504 Y123.713 E123.04928
G1 X126.77 Y140.302 E123.64475
G1 X125.081 Y142.958 E123.74944
G1 X122.399 Y144.977 E123.8611
G1 X119.334 Y145.868 E123.96726
G1 X101.763 Y147.694 E124.55482
G1 X95.813 Y147.062 E124.75383
G1 X95.54 Y146.983 E124.76328
G1 X90.258 Y143.932 E124.96617
G0 F9000 X90.658 Y143.24
G1 F1800 X87.102 Y138.342 E125.16748
G1 X85.877 Y132.574 E125.3636
G1 X85.877 Y84.841 E126.95121
G1 X86.539 Y82.057 E127.04639
G1 X88.488 Y79.732 E127.14729
G1 X91.154 Y78.59 E127.24376
G1 X122.52 Y73.107 E128.30281
G1 X124.151 Y73.144 E128.35708
G1 X125.776 Y73.859 E128.41612
G1 X127.001 Y75.134 E128.47493
G1 X127.605 Y76.697 E128.53066
G1 X133.931 Y112.291 E129.73308
G1 X134.133 Y117.933 E129.92085
G1 X132.762 Y123.413 E130.10873
G1 X126.058 Y139.93 E130.70162
G1 X124.483 Y142.406 E130.79922
G1 X122.031 Y144.251 E130.90128
G1 X119.18 Y145.08 E131.00003
G1 X101.765 Y146.89 E131.58238
G1 X95.897 Y146.266 E131.77865
G1 X90.658 Y143.24 E131.97988
G0 F9000 X90.458 Y143.586
G1 F1800 X90.334 Y143.475 E131.98541
