;FLAVOR:Marlin
;TIME:1709
;Filament used: 2.09343m
;Layer height: 0.16
;MINX:91.5
;MINY:69.4
;MINZ:0.2
;MAXX:128.5
;MAXY:150.6
;MAXZ:10.92
;TARGET_MACHINE.NAME:Creality Ender-3 V3 SE
;Generated with Cura_SteamEngine 5.9.1
M82 ;absolute extrusion mode
M220 S100 ;Reset Feedrate
M221 S100 ;Reset Flowrate

G28 ;Home

M420 S1; Use saved mesh leveling data

G92 E0 ;Reset Extruder
G1 Z2.0 F3000 ;Move Z Axis up
G1 X-3 Y20 Z0.28 F5000.0 ;Move to start position
M190 S60 ; Set bed temperature and wait
M109 S200 ; Set hotend temperature and wait
G1 X-3 Y100.0 Z0.28 F1500.0 E15 ;Draw the first line
G1 X-2 Y100.0 Z0.28 F5000.0 ;Move to side a little
G1 X-2 Y20 Z0.28 F1500.0 E30 ;Draw the second line
G92 E0 ;Reset Extruder
G1 E-1.0000 F1800 ;Retract a bit
G1 Z2.0 F3000 ;Move Z Axis up
G1 E0.0000 F1800 

G92 E0
G92 E0
G1 F2400 E-0.8
;LAYER_COUNT:58
;LAYER:0
M107
G0 F9000 X112.117 Y150.6 Z0.2
;TYPE:SKIRT
G1 F2400 E0
G1 F1800 X107.775 Y150.596 E0.14442
G1 X102.471 Y149.481 E0.32468
G1 X101.466 Y149.121 E0.36019
G1 X97.299 Y146.311 E0.52735
G1 X96.077 Y145.266 E0.58083
G1 X93.208 Y140.924 E0.75392
G1 X92.574 Y139.671 E0.80063
G1 X91.5 Y134.244 E0.98463
G1 X91.504 Y85.679 E2.59991
G1 X92.619 Y80.371 E2.78031
G1 X92.979 Y79.366 E2.81582
G1 X95.789 Y75.199 E2.98298
G1 X96.834 Y73.977 E3.03646
G1 X101.176 Y71.108 E3.20955
G1 X102.429 Y70.474 E3.25626
G1 X107.856 Y69.4 E3.44026
G1 X112.179 Y69.4 E3.58405
G1 X117.529 Y70.519 E3.76584
G1 X118.534 Y70.879 E3.80134
G1 X122.701 Y73.689 E3.96851
G1 X123.923 Y74.734 E4.02199
G1 X126.792 Y79.076 E4.19508
G1 X127.426 Y80.329 E4.24179
G1 X128.5 Y85.756 E4.42579
G1 X128.496 Y134.321 E6.04107
G1 X127.381 Y139.629 E6.22147
G1 X127.021 Y140.634 E6.25697
G1 X124.211 Y144.801 E6.42414
G1 X123.166 Y146.022 E6.47759
G1 X118.826 Y148.892 E6.65064
G1 X117.583 Y149.523 E6.69701
G1 X112.117 Y150.6 E6.8823
G0 F9000 X112.081 Y150.2
G1 F1800 X107.814 Y150.196 E7.02423
G1 X102.606 Y149.104 E7.20121
G1 X101.648 Y148.761 E7.23506
G1 X97.523 Y145.979 E7.40054
G1 X96.381 Y145 E7.45057
G1 X93.565 Y140.743 E7.62033
G1 X92.955 Y139.537 E7.66528
G1 X91.9 Y134.206 E7.84603
G1 X91.904 Y85.718 E9.45875
G1 X92.996 Y80.506 E9.63587
G1 X93.339 Y79.548 E9.66971
G1 X96.121 Y75.423 E9.83519
G1 X97.1 Y74.281 E9.88522
G1 X101.357 Y71.465 E10.05499
G1 X102.563 Y70.855 E10.09994
G1 X107.894 Y69.8 E10.28069
G1 X112.135 Y69.8 E10.42174
G1 X117.394 Y70.896 E10.60042
G1 X118.352 Y71.239 E10.63426
G1 X122.477 Y74.021 E10.79974
G1 X123.619 Y75 E10.84977
G1 X126.435 Y79.257 E11.01954
G1 X127.045 Y80.463 E11.06449
G1 X128.1 Y85.794 E11.24524
G1 X128.096 Y134.282 E12.85795
G1 X127.004 Y139.494 E13.03507
G1 X126.661 Y140.452 E13.06891
G1 X123.879 Y144.577 E13.2344
G1 X122.9 Y145.718 E13.2844
G1 X118.645 Y148.535 E13.45413
G1 X117.449 Y149.142 E13.49874
G1 X112.081 Y150.2 E13.68071
G0 F9000 X112.045 Y149.8
G1 F1800 X107.858 Y149.796 E13.81997
G1 X102.741 Y148.727 E13.99384
G1 X101.831 Y148.401 E14.02599
G1 X97.747 Y145.647 E14.18982
G1 X96.685 Y144.734 E14.2364
G1 X93.899 Y140.522 E14.40437
G1 X93.336 Y139.405 E14.44597
G1 X92.3 Y134.168 E14.62353
G1 X92.304 Y85.762 E16.23352
G1 X93.373 Y80.641 E16.40752
G1 X93.699 Y79.731 E16.43967
G1 X96.453 Y75.647 E16.6035
G1 X97.366 Y74.585 E16.65008
G1 X101.578 Y71.799 E16.81805
G1 X102.695 Y71.236 E16.85965
G1 X107.932 Y70.2 E17.03721
G1 X112.092 Y70.2 E17.17557
G1 X117.259 Y71.273 E17.35109
G1 X118.169 Y71.599 E17.38324
G1 X122.253 Y74.353 E17.54708
G1 X123.315 Y75.266 E17.59366
G1 X126.101 Y79.478 E17.76162
G1 X126.664 Y80.595 E17.80322
G1 X127.7 Y85.832 E17.98078
G1 X127.696 Y134.238 E19.59077
G1 X126.627 Y139.359 E19.76477
G1 X126.301 Y140.269 E19.79692
G1 X123.547 Y144.353 E19.96075
G1 X122.634 Y145.414 E20.00731
G1 X118.424 Y148.201 E20.17524
G1 X117.316 Y148.761 E20.21653
G1 X112.045 Y149.8 E20.39522
G0 F9000 X112.009 Y149.4
G1 F1800 X107.902 Y149.396 E20.53182
G1 X102.876 Y148.35 E20.70256
G1 X102.013 Y148.041 E20.73305
G1 X97.971 Y145.315 E20.8952
G1 X96.99 Y144.468 E20.93831
G1 X94.233 Y140.301 E21.1045
G1 X93.718 Y139.275 E21.14268
G1 X92.7 Y134.13 E21.31712
G1 X92.704 Y85.805 E22.92442
G1 X93.75 Y80.776 E23.09526
G1 X94.059 Y79.913 E23.12575
G1 X96.785 Y75.871 E23.2879
G1 X97.632 Y74.89 E23.33101
G1 X101.799 Y72.133 E23.49719
G1 X102.825 Y71.618 E23.53538
G1 X107.97 Y70.6 E23.70982
G1 X112.05 Y70.6 E23.84552
G1 X117.124 Y71.65 E24.01786
G1 X117.987 Y71.959 E24.04834
G1 X122.029 Y74.685 E24.2105
G1 X123.01 Y75.532 E24.25361
G1 X125.767 Y79.699 E24.41979
G1 X126.282 Y80.725 E24.45797
G1 X127.3 Y85.87 E24.63241
G1 X127.296 Y134.195 E26.23971
G1 X126.25 Y139.224 E26.41055
G1 X125.941 Y140.087 E26.44104
G1 X123.215 Y144.129 E26.6032
G1 X122.368 Y145.11 E26.6463
G1 X118.203 Y147.867 E26.81243
G1 X117.184 Y148.38 E26.85038
G1 X112.009 Y149.4 E27.02581
G0 F9000 X111.973 Y149
G1 F1800 X107.945 Y148.996 E27.15978
G1 X103.011 Y147.973 E27.32738
G1 X102.196 Y147.681 E27.35617
G1 X98.195 Y144.983 E27.51667
G1 X97.295 Y144.203 E27.55629
G1 X94.567 Y140.08 E27.72072
G1 X94.099 Y139.142 E27.75558
G1 X93.1 Y134.092 E27.9268
G1 X93.104 Y85.848 E29.5314
G1 X94.127 Y80.911 E29.6991
G1 X94.419 Y80.096 E29.72789
G1 X97.117 Y76.095 E29.88839
G1 X97.897 Y75.195 E29.92801
G1 X102.02 Y72.467 E30.09244
G1 X102.958 Y71.999 E30.1273
G1 X108.008 Y71 E30.29852
G1 X112.008 Y71 E30.43156
G1 X116.989 Y72.027 E30.60071
G1 X117.804 Y72.319 E30.62951
G1 X121.805 Y75.017 E30.79001
G1 X122.705 Y75.797 E30.82962
G1 X125.433 Y79.92 E30.99405
G1 X125.901 Y80.858 E31.02892
G1 X126.9 Y85.908 E31.20014
G1 X126.896 Y134.152 E32.80474
G1 X125.873 Y139.089 E32.97243
G1 X125.581 Y139.904 E33.00123
G1 X122.883 Y143.905 E33.16173
G1 X122.103 Y144.805 E33.20134
G1 X117.982 Y147.533 E33.36572
G1 X117.05 Y147.999 E33.40038
G1 X111.973 Y149 E33.57249
G0 F9000 X111.937 Y148.6
G1 F1800 X107.988 Y148.596 E33.70383
G1 X103.146 Y147.596 E33.86828
G1 X102.378 Y147.321 E33.89541
G1 X98.419 Y144.651 E34.05423
G1 X97.596 Y143.934 E34.09054
G1 X94.925 Y139.902 E34.2514
G1 X94.481 Y139.011 E34.28451
G1 X93.5 Y134.054 E34.45258
G1 X93.504 Y85.89 E36.05452
G1 X94.504 Y81.046 E36.21903
G1 X94.779 Y80.278 E36.24616
G1 X97.449 Y76.319 E36.40498
G1 X98.166 Y75.496 E36.44129
G1 X102.198 Y72.825 E36.60215
G1 X103.089 Y72.381 E36.63526
G1 X108.046 Y71.4 E36.80333
G1 X111.967 Y71.4 E36.93374
G1 X116.854 Y72.404 E37.09968
G1 X117.622 Y72.679 E37.12681
G1 X121.581 Y75.349 E37.28563
G1 X122.404 Y76.066 E37.32194
G1 X125.075 Y80.098 E37.4828
G1 X125.519 Y80.989 E37.51591
G1 X126.5 Y85.946 E37.68398
G1 X126.496 Y134.11 E39.28592
G1 X125.496 Y138.954 E39.45043
G1 X125.221 Y139.722 E39.47756
G1 X122.551 Y143.681 E39.63638
G1 X121.834 Y144.504 E39.67269
G1 X117.803 Y147.175 E39.83352
G1 X116.917 Y147.618 E39.86647
G1 X111.937 Y148.6 E40.03529
G0 F9000 X111.901 Y148.2
G1 F1800 X108.03 Y148.196 E40.16404
G1 X103.281 Y147.219 E40.3253
G1 X102.561 Y146.961 E40.35074
G1 X98.643 Y144.319 E40.50791
G1 X97.898 Y143.666 E40.54086
G1 X95.283 Y139.723 E40.69823
G1 X94.862 Y138.879 E40.7296
G1 X93.9 Y134.016 E40.89448
G1 X93.904 Y85.932 E42.49376
G1 X94.881 Y81.181 E42.65508
G1 X95.139 Y80.461 E42.68052
G1 X97.781 Y76.543 E42.83769
G1 X98.434 Y75.798 E42.87064
G1 X102.377 Y73.183 E43.02801
G1 X103.221 Y72.762 E43.05938
G1 X108.084 Y71.8 E43.22426
G1 X111.926 Y71.8 E43.35204
G1 X116.719 Y72.781 E43.51476
G1 X117.439 Y73.039 E43.5402
G1 X121.357 Y75.681 E43.69737
G1 X122.102 Y76.334 E43.73032
G1 X124.717 Y80.277 E43.88769
G1 X125.138 Y81.121 E43.91906
G1 X126.1 Y85.984 E44.08394
G1 X126.096 Y134.068 E45.68322
G1 X125.119 Y138.819 E45.84454
G1 X124.861 Y139.539 E45.86998
G1 X122.219 Y143.457 E46.02715
G1 X121.566 Y144.202 E46.0601
G1 X117.624 Y146.817 E46.21744
G1 X116.784 Y147.237 E46.24868
G1 X111.901 Y148.2 E46.41421
G0 F9000 X111.865 Y147.8
G1 F1800 X108.071 Y147.796 E46.5404
G1 X103.416 Y146.842 E46.69845
G1 X102.743 Y146.601 E46.72222
G1 X98.867 Y143.987 E46.87772
G1 X98.202 Y143.401 E46.9072
G1 X95.641 Y139.545 E47.06116
G1 X95.244 Y138.748 E47.09077
G1 X94.3 Y133.978 E47.2525
G1 X94.304 Y85.973 E48.84915
G1 X95.258 Y81.316 E49.00726
G1 X95.499 Y80.643 E49.03104
G1 X98.113 Y76.767 E49.18653
G1 X98.699 Y76.102 E49.21601
G1 X102.555 Y73.541 E49.36997
G1 X103.352 Y73.144 E49.39959
G1 X108.122 Y72.2 E49.56132
G1 X111.885 Y72.2 E49.68647
G1 X116.584 Y73.158 E49.84598
G1 X117.257 Y73.399 E49.86975
G1 X121.133 Y76.013 E50.02525
G1 X121.798 Y76.599 E50.05473
G1 X124.359 Y80.455 E50.20869
G1 X124.756 Y81.252 E50.2383
G1 X125.7 Y86.022 E50.40003
G1 X125.696 Y134.027 E51.99668
G1 X124.742 Y138.684 E52.15479
G1 X124.501 Y139.357 E52.17857
G1 X121.887 Y143.233 E52.33406
G1 X121.301 Y143.898 E52.36354
G1 X117.445 Y146.459 E52.5175
G1 X116.651 Y146.856 E52.54703
G1 X111.865 Y147.8 E52.70928
G0 F9000 X111.829 Y147.4
G1 F1800 X108.112 Y147.396 E52.83291
G1 X103.551 Y146.465 E52.98773
G1 X102.925 Y146.241 E53.00985
G1 X99.091 Y143.655 E53.16366
G1 X98.506 Y143.136 E53.18967
G1 X95.999 Y139.366 E53.34026
G1 X95.625 Y138.616 E53.36813
G1 X94.7 Y133.94 E53.52667
G1 X94.704 Y86.014 E55.1207
G1 X95.635 Y81.451 E55.27559
G1 X95.859 Y80.825 E55.2977
G1 X98.445 Y76.991 E55.45152
G1 X98.964 Y76.406 E55.47753
G1 X102.734 Y73.899 E55.62811
G1 X103.484 Y73.525 E55.65599
G1 X108.16 Y72.6 E55.81453
G1 X111.844 Y72.6 E55.93706
G1 X116.449 Y73.535 E56.09334
G1 X117.075 Y73.759 E56.11546
G1 X120.909 Y76.345 E56.26927
G1 X121.494 Y76.864 E56.29528
G1 X124.001 Y80.634 E56.44587
G1 X124.375 Y81.384 E56.47374
G1 X125.3 Y86.06 E56.63228
G1 X125.296 Y133.986 E58.22631
G1 X124.365 Y138.549 E58.3812
G1 X124.141 Y139.175 E58.40331
G1 X121.555 Y143.009 E58.55713
G1 X121.036 Y143.594 E58.58314
G1 X117.266 Y146.101 E58.73372
G1 X116.518 Y146.475 E58.76154
G1 X111.829 Y147.4 E58.9205
G0 F9000 X111.793 Y147
G1 F1800 X108.153 Y146.996 E59.04157
G1 X103.686 Y146.088 E59.19318
G1 X103.107 Y145.881 E59.21363
G1 X99.315 Y143.323 E59.36576
G1 X98.812 Y142.874 E59.38819
G1 X96.357 Y139.187 E59.53552
G1 X96.006 Y138.484 E59.56165
G1 X95.1 Y133.902 E59.717
G1 X95.104 Y86.055 E61.3084
G1 X96.012 Y81.586 E61.46007
G1 X96.219 Y81.007 E61.48053
G1 X98.777 Y77.215 E61.63266
G1 X99.226 Y76.712 E61.65509
G1 X102.913 Y74.257 E61.80242
G1 X103.616 Y73.906 E61.82855
G1 X108.198 Y73 E61.9839
G1 X111.804 Y73 E62.10383
G1 X116.314 Y73.912 E62.25687
G1 X116.893 Y74.119 E62.27733
G1 X120.685 Y76.677 E62.42946
G1 X121.188 Y77.126 E62.45189
G1 X123.643 Y80.813 E62.59921
G1 X123.994 Y81.516 E62.62535
G1 X124.9 Y86.098 E62.7807
G1 X124.896 Y133.945 E64.3721
G1 X123.988 Y138.414 E64.52377
G1 X123.781 Y138.993 E64.54422
G1 X121.223 Y142.785 E64.69636
G1 X120.774 Y143.288 E64.71878
G1 X117.087 Y145.743 E64.86611
G1 X116.385 Y146.094 E64.89222
G1 X111.793 Y147 E65.04789
G0 F9000 X111.757 Y146.6
G1 F1800 X108.193 Y146.596 E65.16643
G1 X103.821 Y145.711 E65.31479
G1 X103.289 Y145.521 E65.33358
G1 X99.539 Y142.991 E65.48404
G1 X99.117 Y142.61 E65.50295
G1 X96.69 Y138.965 E65.6486
G1 X96.388 Y138.355 E65.67124
G1 X95.5 Y133.864 E65.8235
G1 X95.504 Y86.095 E67.4123
G1 X96.389 Y81.721 E67.56073
G1 X96.579 Y81.189 E67.57952
G1 X99.109 Y77.439 E67.72998
G1 X99.49 Y77.017 E67.74889
G1 X103.135 Y74.59 E67.89454
G1 X103.745 Y74.288 E67.91718
G1 X108.236 Y73.4 E68.06944
G1 X111.765 Y73.4 E68.18681
G1 X116.179 Y74.289 E68.33657
G1 X116.711 Y74.479 E68.35536
G1 X120.461 Y77.009 E68.50582
G1 X120.883 Y77.39 E68.52473
G1 X123.31 Y81.035 E68.67038
G1 X123.612 Y81.645 E68.69302
G1 X124.5 Y86.136 E68.84528
G1 X124.496 Y133.905 E70.43408
G1 X123.611 Y138.279 E70.58251
G1 X123.421 Y138.811 E70.6013
G1 X120.891 Y142.561 E70.75176
G1 X120.51 Y142.983 E70.77067
G1 X116.865 Y145.41 E70.91632
G1 X116.255 Y145.712 E70.93895
G1 X111.757 Y146.6 E71.09145
G0 F9000 X111.72 Y146.2
G1 F1800 X108.233 Y146.196 E71.20742
G1 X103.956 Y145.334 E71.35254
G1 X103.469 Y145.16 E71.36974
G1 X99.807 Y142.694 E71.51658
G1 X99.423 Y142.347 E71.53379
G1 X97.023 Y138.743 E71.67781
G1 X96.77 Y138.225 E71.69698
G1 X95.9 Y133.826 E71.84613
G1 X95.904 Y86.134 E73.43237
G1 X96.766 Y81.856 E73.57752
G1 X96.94 Y81.369 E73.59472
G1 X99.406 Y77.707 E73.74156
G1 X99.753 Y77.323 E73.75877
G1 X103.357 Y74.923 E73.90279
G1 X103.875 Y74.67 E73.92196
G1 X108.274 Y73.8 E74.07111
G1 X111.726 Y73.8 E74.18592
G1 X116.044 Y74.666 E74.3324
G1 X116.531 Y74.84 E74.3496
G1 X120.193 Y77.306 E74.49644
G1 X120.577 Y77.653 E74.51365
G1 X122.977 Y81.257 E74.65767
G1 X123.23 Y81.775 E74.67684
G1 X124.1 Y86.174 E74.82599
G1 X124.096 Y133.866 E76.41223
G1 X123.234 Y138.144 E76.55738
G1 X123.06 Y138.631 E76.57458
G1 X120.594 Y142.293 E76.72142
G1 X120.247 Y142.677 E76.73863
G1 X116.643 Y145.077 E76.88265
G1 X116.125 Y145.33 E76.90182
G1 X111.72 Y146.2 E77.05116
G0 F9000 X111.683 Y145.8
G1 F1800 X108.273 Y145.796 E77.16458
G1 X104.091 Y144.957 E77.30645
G1 X103.649 Y144.799 E77.32206
G1 X100.075 Y142.397 E77.46528
G1 X99.729 Y142.084 E77.4808
G1 X97.383 Y138.568 E77.62138
G1 X97.152 Y138.094 E77.63892
G1 X96.3 Y133.788 E77.78492
G1 X96.304 Y86.173 E79.3686
G1 X97.143 Y81.991 E79.51046
G1 X97.301 Y81.549 E79.52608
G1 X99.703 Y77.975 E79.6693
G1 X100.016 Y77.629 E79.68482
G1 X103.532 Y75.283 E79.8254
G1 X104.006 Y75.052 E79.84294
G1 X108.312 Y74.2 E79.98893
G1 X111.688 Y74.2 E80.10122
G1 X115.909 Y75.043 E80.24438
G1 X116.351 Y75.201 E80.26
G1 X119.925 Y77.603 E80.40322
G1 X120.271 Y77.916 E80.41874
G1 X122.617 Y81.432 E80.55932
G1 X122.848 Y81.906 E80.57686
G1 X123.7 Y86.212 E80.72286
G1 X123.696 Y133.827 E82.30654
G1 X122.857 Y138.009 E82.4484
G1 X122.699 Y138.451 E82.46401
G1 X120.297 Y142.025 E82.60724
G1 X119.984 Y142.371 E82.62276
G1 X116.468 Y144.717 E82.76334
G1 X115.994 Y144.948 E82.78088
G1 X111.683 Y145.8 E82.92704
G0 F9000 X111.646 Y145.4
G1 F1800 X108.311 Y145.396 E83.03796
G1 X104.226 Y144.58 E83.17651
G1 X103.829 Y144.438 E83.19053
G1 X100.298 Y142.065 E83.33203
G1 X100.035 Y141.822 E83.34394
G1 X97.743 Y138.393 E83.48112
G1 X97.534 Y137.963 E83.49702
G1 X96.7 Y133.75 E83.63987
G1 X96.704 Y86.211 E85.22102
G1 X97.52 Y82.126 E85.35957
G1 X97.662 Y81.729 E85.3736
G1 X100.035 Y78.198 E85.5151
G1 X100.278 Y77.935 E85.52701
G1 X103.707 Y75.643 E85.66419
G1 X104.137 Y75.434 E85.68009
G1 X108.35 Y74.6 E85.82293
G1 X111.65 Y74.6 E85.93269
G1 X115.774 Y75.42 E86.07254
G1 X116.171 Y75.562 E86.08656
G1 X119.702 Y77.935 E86.22806
G1 X119.965 Y78.178 E86.23997
G1 X122.257 Y81.607 E86.37715
G1 X122.466 Y82.037 E86.39306
G1 X123.3 Y86.25 E86.5359
G1 X123.296 Y133.789 E88.11705
G1 X122.48 Y137.874 E88.2556
G1 X122.338 Y138.271 E88.26963
G1 X119.965 Y141.802 E88.41113
G1 X119.722 Y142.065 E88.42304
G1 X116.293 Y144.357 E88.56022
G1 X115.863 Y144.566 E88.57612
G1 X111.646 Y145.4 E88.71909
G0 F9000 X111.609 Y145
G1 F1800 X108.349 Y144.996 E88.82752
G1 X104.361 Y144.203 E88.96276
G1 X104.009 Y144.077 E88.9752
G1 X100.57 Y141.771 E89.11291
G1 X100.341 Y141.559 E89.12329
G1 X98.076 Y138.171 E89.25884
G1 X97.916 Y137.834 E89.27125
G1 X97.1 Y133.712 E89.41101
G1 X97.104 Y86.249 E90.98963
G1 X97.897 Y82.261 E91.12487
G1 X98.023 Y81.909 E91.1373
G1 X100.329 Y78.47 E91.27502
G1 X100.541 Y78.241 E91.2854
G1 X103.929 Y75.976 E91.42095
G1 X104.266 Y75.816 E91.43336
G1 X108.388 Y75 E91.57311
G1 X111.612 Y75 E91.68034
G1 X115.639 Y75.797 E91.81688
G1 X115.991 Y75.923 E91.82932
G1 X119.43 Y78.229 E91.96703
G1 X119.659 Y78.441 E91.97741
G1 X121.924 Y81.829 E92.11296
G1 X122.084 Y82.166 E92.12537
G1 X122.9 Y86.288 E92.26513
G1 X122.896 Y133.751 E93.84375
G1 X122.103 Y137.739 E93.97899
G1 X121.977 Y138.091 E93.99143
G1 X119.671 Y141.53 E94.12914
G1 X119.459 Y141.759 E94.13952
G1 X116.071 Y144.024 E94.27507
G1 X115.734 Y144.184 E94.28748
G1 X111.609 Y145 E94.42733
G0 F9000 X111.572 Y144.6
G1 F1800 X108.387 Y144.596 E94.53327
G1 X104.439 Y143.811 E94.66715
G1 X104.19 Y143.717 E94.676
G1 X100.842 Y141.478 E94.80996
G1 X100.649 Y141.299 E94.81872
G1 X98.409 Y137.949 E94.95275
G1 X98.298 Y137.706 E94.96164
G1 X97.5 Y133.674 E95.09834
G1 X97.504 Y86.287 E96.67444
G1 X98.289 Y82.339 E96.80832
G1 X98.383 Y82.09 E96.81718
G1 X100.622 Y78.742 E96.95114
G1 X100.801 Y78.549 E96.95989
G1 X104.151 Y76.309 E97.09393
G1 X104.394 Y76.198 E97.10281
