;FLAVOR:Marlin
;TIME:314
;Filament used: 0.213664m
;Layer height: 0.16
;MINX:95.45
;MINY:86.788
;MINZ:0.2
;MAXX:124.539
;MAXY:133.212
;MAXZ:1.92
;TARGET_MACHINE.NAME:Creality Ender-3 V3 SE
;Generated with Cura_SteamEngine 5.9.1
M82 ;absolute extrusion mode
M220 S100 ;Reset Feedrate
M221 S100 ;Reset Flowrate

G28 ;Home

M420 S1; Use saved mesh leveling data

G92 E0 ;Reset Extruder
G1 Z2.0 F3000 ;Move Z Axis up
G1 X-3 Y20 Z0.28 F5000.0 ;Move to start position
M190 S60 ; Set bed temperature and wait
M109 S200 ; Set hotend temperature and wait
G1 X-3 Y100.0 Z0.28 F1500.0 E15 ;Draw the first line
G1 X-2 Y100.0 Z0.28 F5000.0 ;Move to side a little
G1 X-2 Y20 Z0.28 F1500.0 E30 ;Draw the second line
G92 E0 ;Reset Extruder
G1 E-1.0000 F1800 ;Retract a bit
G1 Z2.0 F3000 ;Move Z Axis up
G1 E0.0000 F1800 

G92 E0
G92 E0
G1 F2400 E-0.8
;LAYER_COUNT:10
;LAYER:0
M107
G0 F9000 X116.475 Y133.154 Z0.2
;TYPE:SKIRT
G1 F2400 E0
G1 F1800 X115.556 Y133.212 E0.03063
G1 X103.716 Y133.173 E0.42443
G1 X102.759 Y133.05 E0.45652
G1 X102.096 Y132.889 E0.47921
G1 X100.258 Y132.158 E0.545
G1 X99.281 Y131.557 E0.58315
G1 X98.124 Y130.589 E0.63333
G1 X97.268 Y129.619 E0.67636
G1 X96.613 Y128.616 E0.7162
G1 X96.18 Y127.728 E0.74906
G1 X95.646 Y126.06 E0.80731
G1 X95.553 Y125.548 E0.82462
G1 X95.45 Y124.225 E0.86875
G1 X95.496 Y94.988 E1.84118
G1 X95.643 Y93.948 E1.87612
G1 X95.842 Y93.206 E1.90167
G1 X96.477 Y91.639 E1.9579
G1 X97.083 Y90.633 E1.99696
G1 X97.884 Y89.649 E2.03917
G1 X98.802 Y88.792 E2.08093
G1 X99.784 Y88.104 E2.12081
G1 X100.689 Y87.628 E2.15482
G1 X102.448 Y87.025 E2.21667
G1 X103.319 Y86.868 E2.24611
G1 X104.442 Y86.788 E2.28355
G1 X116.202 Y86.825 E2.67469
G1 X117.388 Y86.996 E2.71455
G1 X118.487 Y87.297 E2.75245
G1 X119.876 Y87.908 E2.80292
G1 X120.76 Y88.463 E2.83764
G1 X121.676 Y89.21 E2.87695
G1 X122.581 Y90.196 E2.92146
G1 X123.408 Y91.423 E2.97068
G1 X123.915 Y92.488 E3.00991
G1 X124.167 Y93.226 E3.03585
G1 X124.501 Y94.869 E3.09161
G1 X124.533 Y95.244 E3.10413
G1 X124.539 Y124.468 E4.07612
G1 X124.361 Y126.052 E4.12914
G1 X124.27 Y126.443 E4.14249
G1 X123.481 Y128.447 E4.21412
G1 X122.985 Y129.26 E4.2458
G1 X121.923 Y130.56 E4.30163
G1 X121.365 Y131.067 E4.32671
G1 X119.89 Y132.085 E4.38631
G1 X118.979 Y132.527 E4.41999
G1 X118.333 Y132.764 E4.44288
G1 X116.475 Y133.154 E4.50602
G0 F9000 X116.45 Y132.755
G1 F1800 X115.557 Y132.812 E4.53578
G1 X103.767 Y132.776 E4.92792
G1 X102.81 Y132.653 E4.96002
G1 X102.244 Y132.517 E4.97938
G1 X100.406 Y131.786 E5.04517
G1 X99.537 Y131.25 E5.07912
G1 X98.424 Y130.324 E5.12728
G1 X97.568 Y129.354 E5.17031
G1 X96.973 Y128.441 E5.20655
G1 X96.54 Y127.553 E5.23941
G1 X96.04 Y125.989 E5.29403
G1 X95.947 Y125.477 E5.31133
G1 X95.85 Y124.226 E5.35307
G1 X95.892 Y95.044 E6.32367
G1 X96.039 Y94.004 E6.3586
G1 X96.213 Y93.356 E6.38092
G1 X96.848 Y91.789 E6.43715
G1 X97.394 Y90.885 E6.47228
G1 X98.158 Y89.941 E6.51267
G1 X99.032 Y89.12 E6.55255
G1 X100.014 Y88.432 E6.59243
G1 X100.874 Y87.983 E6.6247
G1 X102.519 Y87.419 E6.68254
G1 X103.39 Y87.262 E6.71198
G1 X104.441 Y87.188 E6.74702
G1 X116.146 Y87.221 E7.13633
G1 X117.282 Y87.382 E7.17449
G1 X118.381 Y87.683 E7.21239
G1 X119.663 Y88.247 E7.25897
G1 X120.547 Y88.802 E7.29369
G1 X121.382 Y89.481 E7.32948
G1 X122.25 Y90.421 E7.37204
G1 X123.047 Y91.596 E7.41926
G1 X123.536 Y92.617 E7.45692
G1 X123.788 Y93.355 E7.48285
G1 X124.102 Y94.903 E7.53539
G1 X124.134 Y95.278 E7.54791
G1 X124.139 Y124.468 E8.51877
G1 X123.971 Y125.961 E8.56874
G1 X123.88 Y126.352 E8.58209
G1 X123.139 Y128.24 E8.64955
G1 X122.675 Y129.008 E8.67939
G1 X121.652 Y130.265 E8.7333
G1 X121.137 Y130.738 E8.75656
G1 X119.715 Y131.725 E8.81413
G1 X118.841 Y132.151 E8.84647
G1 X118.195 Y132.388 E8.86935
G1 X116.45 Y132.755 E8.92866
G0 F9000 X116.424 Y132.356
G1 F1800 X115.558 Y132.412 E8.95752
G1 X103.817 Y132.379 E9.34803
G1 X102.9 Y132.263 E9.37878
G1 X102.391 Y132.145 E9.39615
G1 X100.615 Y131.445 E9.45965
G1 X99.792 Y130.942 E9.49173
G1 X98.724 Y130.059 E9.53782
G1 X97.868 Y129.089 E9.58085
G1 X97.333 Y128.266 E9.6135
G1 X96.9 Y127.378 E9.64635
G1 X96.434 Y125.918 E9.69733
G1 X96.341 Y125.406 E9.71464
G1 X96.25 Y124.227 E9.75397
G1 X96.288 Y95.099 E10.72277
G1 X96.426 Y94.106 E10.75611
G1 X96.584 Y93.506 E10.77675
G1 X97.219 Y91.939 E10.83298
G1 X97.706 Y91.136 E10.86422
G1 X98.433 Y90.232 E10.9028
G1 X99.263 Y89.447 E10.9408
G1 X100.199 Y88.787 E10.97889
G1 X101.059 Y88.338 E11.01116
G1 X102.59 Y87.813 E11.06499
G1 X103.461 Y87.656 E11.09443
G1 X104.44 Y87.588 E11.12707
G1 X116.091 Y87.617 E11.51458
G1 X117.176 Y87.768 E11.55102
G1 X118.275 Y88.069 E11.58892
G1 X119.45 Y88.586 E11.63162
G1 X120.334 Y89.141 E11.66633
G1 X121.129 Y89.791 E11.70049
G1 X121.92 Y90.647 E11.73925
G1 X122.687 Y91.77 E11.78448
G1 X123.157 Y92.746 E11.82051
G1 X123.409 Y93.484 E11.84645
G1 X123.703 Y94.937 E11.89576
G1 X123.735 Y95.312 E11.90827
G1 X123.739 Y124.468 E12.87801
G1 X123.581 Y125.87 E12.92493
G1 X123.49 Y126.261 E12.93829
G1 X122.767 Y128.093 E13.00379
G1 X122.334 Y128.799 E13.03134
G1 X121.381 Y129.97 E13.08155
G1 X120.866 Y130.443 E13.10481
G1 X119.539 Y131.366 E13.15857
G1 X118.703 Y131.775 E13.18953
G1 X118.057 Y132.012 E13.21241
G1 X116.424 Y132.356 E13.26792
G0 F9000 X116.398 Y131.957
G1 F1800 X115.559 Y132.012 E13.29589
G1 X103.866 Y131.982 E13.6848
G1 X102.99 Y131.873 E13.71416
G1 X102.481 Y131.755 E13.73154
G1 X100.822 Y131.103 E13.79082
G1 X100.046 Y130.633 E13.821
G1 X99.023 Y129.793 E13.86502
G1 X98.203 Y128.87 E13.90609
G1 X97.693 Y128.091 E13.93706
G1 X97.26 Y127.203 E13.96992
G1 X96.828 Y125.847 E14.01725
G1 X96.735 Y125.335 E14.03456
G1 X96.65 Y124.227 E14.07152
G1 X96.684 Y95.153 E15.03852
G1 X96.813 Y94.206 E15.07031
G1 X96.955 Y93.655 E15.08924
G1 X97.562 Y92.145 E15.14337
G1 X98.019 Y91.386 E15.17283
G1 X98.708 Y90.523 E15.20956
G1 X99.538 Y89.738 E15.24756
G1 X100.384 Y89.142 E15.28198
G1 X101.244 Y88.693 E15.31425
G1 X102.661 Y88.207 E15.36407
G1 X103.532 Y88.05 E15.39351
G1 X104.439 Y87.988 E15.42374
G1 X116.037 Y88.013 E15.8095
G1 X117.07 Y88.154 E15.84417
G1 X118.169 Y88.455 E15.88207
G1 X119.238 Y88.925 E15.92091
G1 X120.081 Y89.451 E15.95396
G1 X120.876 Y90.101 E15.98812
G1 X121.59 Y90.874 E16.02312
G1 X122.327 Y91.945 E16.06636
G1 X122.778 Y92.875 E16.10073
G1 X123.03 Y93.613 E16.12667
G1 X123.304 Y94.971 E16.17275
G1 X123.336 Y95.346 E16.18527
G1 X123.341 Y124.424 E17.1524
G1 X123.191 Y125.779 E17.19775
G1 X123.1 Y126.17 E17.2111
G1 X122.425 Y127.885 E17.2724
G1 X122.023 Y128.547 E17.29816
G1 X121.11 Y129.675 E17.34643
G1 X120.595 Y130.148 E17.36968
G1 X119.363 Y131.007 E17.41964
G1 X118.565 Y131.399 E17.44921
G1 X117.919 Y131.636 E17.47209
G1 X116.398 Y131.957 E17.5238
G0 F9000 X116.371 Y131.558
G1 F1800 X115.56 Y131.612 E17.55083
G1 X103.915 Y131.585 E17.93815
G1 X103.08 Y131.483 E17.96612
G1 X102.571 Y131.365 E17.9835
G1 X101.028 Y130.76 E18.03863
G1 X100.3 Y130.324 E18.06685
G1 X99.277 Y129.484 E18.11088
G1 X98.537 Y128.65 E18.14796
G1 X98.053 Y127.916 E18.1772
G1 X97.62 Y127.028 E18.21006
G1 X97.222 Y125.776 E18.25376
G1 X97.129 Y125.264 E18.27107
G1 X97.05 Y124.227 E18.30566
G1 X97.081 Y95.206 E19.2709
G1 X97.201 Y94.304 E19.30116
G1 X97.327 Y93.803 E19.31835
G1 X97.906 Y92.35 E19.37037
G1 X98.332 Y91.636 E19.39802
G1 X99.021 Y90.773 E19.43475
G1 X99.812 Y90.03 E19.47085
G1 X100.569 Y89.497 E19.50164
G1 X101.429 Y89.048 E19.53391
G1 X102.732 Y88.601 E19.57972
G1 X103.603 Y88.444 E19.60916
G1 X104.438 Y88.388 E19.637
G1 X115.984 Y88.41 E20.02102
G1 X116.964 Y88.54 E20.0539
G1 X118.063 Y88.841 E20.0918
G1 X119.027 Y89.265 E20.12682
G1 X119.828 Y89.761 E20.15816
G1 X120.623 Y90.411 E20.19231
G1 X121.26 Y91.101 E20.22355
G1 X121.997 Y92.172 E20.26679
G1 X122.4 Y93.006 E20.2976
G1 X122.638 Y93.693 E20.32178
G1 X122.905 Y95.005 E20.36631
G1 X122.937 Y95.38 E20.37883
G1 X122.943 Y124.381 E21.34341
G1 X122.801 Y125.688 E21.38713
G1 X122.71 Y126.079 E21.40049
G1 X122.082 Y127.679 E21.45765
G1 X121.711 Y128.296 E21.4816
G1 X120.839 Y129.38 E21.52787
G1 X120.324 Y129.853 E21.55113
G1 X119.186 Y130.648 E21.5973
G1 X118.427 Y131.023 E21.62546
G1 X117.781 Y131.26 E21.64834
G1 X116.371 Y131.558 E21.69628
G0 F9000 X116.344 Y131.159
G1 F1800 X115.561 Y131.212 E21.72238
G1 X103.963 Y131.188 E22.10813
G1 X103.167 Y131.092 E22.1348
G1 X102.716 Y130.992 E22.15016
G1 X101.234 Y130.417 E22.20303
G1 X100.506 Y129.981 E22.23126
G1 X99.575 Y129.217 E22.27131
G1 X98.87 Y128.428 E22.30651
G1 X98.413 Y127.741 E22.33395
G1 X97.98 Y126.853 E22.36681
G1 X97.616 Y125.705 E22.40686
G1 X97.523 Y125.193 E22.42417
G1 X97.45 Y124.227 E22.45639
G1 X97.478 Y95.258 E23.41991
G1 X97.59 Y94.399 E23.44872
G1 X97.699 Y93.951 E23.46405
G1 X98.278 Y92.498 E23.51608
G1 X98.645 Y91.886 E23.53981
G1 X99.334 Y91.023 E23.57654
G1 X100.044 Y90.356 E23.60894
G1 X100.754 Y89.852 E23.6379
G1 X101.614 Y89.403 E23.67017
G1 X102.803 Y88.995 E23.71198
G1 X103.674 Y88.838 E23.74141
G1 X104.437 Y88.788 E23.76685
G1 X115.933 Y88.807 E24.14921
G1 X116.858 Y88.926 E24.18023
G1 X117.957 Y89.227 E24.21812
G1 X118.818 Y89.606 E24.24941
G1 X119.575 Y90.071 E24.27896
G1 X120.37 Y90.721 E24.31312
G1 X120.93 Y91.328 E24.34058
G1 X121.667 Y92.399 E24.38383
G1 X122.023 Y93.139 E24.41114
G1 X122.246 Y93.774 E24.43352
G1 X122.506 Y95.039 E24.47648
G1 X122.538 Y95.414 E24.48899
G1 X122.545 Y124.339 E25.45104
G1 X122.411 Y125.597 E25.49312
G1 X122.32 Y125.988 E25.50647
G1 X121.738 Y127.475 E25.55958
G1 X121.399 Y128.046 E25.58167
G1 X120.568 Y129.085 E25.62592
G1 X120.053 Y129.558 E25.64918
G1 X119.008 Y130.29 E25.69161
G1 X118.289 Y130.647 E25.71831
G1 X117.643 Y130.884 E25.7412
G1 X116.344 Y131.159 E25.78536
G0 F9000 X116.317 Y130.76
G1 F1800 X115.562 Y130.812 E25.81053
G1 X104.01 Y130.791 E26.19476
G1 X103.254 Y130.701 E26.22008
G1 X102.803 Y130.601 E26.23544
G1 X101.438 Y130.073 E26.28412
G1 X100.759 Y129.671 E26.31037
G1 X99.872 Y128.949 E26.34841
G1 X99.202 Y128.205 E26.38171
G1 X98.773 Y127.566 E26.4073
G1 X98.34 Y126.678 E26.44016
G1 X98.01 Y125.634 E26.47658
G1 X97.917 Y125.122 E26.49389
G1 X97.85 Y124.227 E26.52374
G1 X97.875 Y95.309 E27.48556
G1 X97.979 Y94.494 E27.51288
G1 X98.088 Y94.046 E27.52822
G1 X98.649 Y92.647 E27.57835
G1 X98.958 Y92.136 E27.59821
G1 X99.647 Y91.273 E27.63494
G1 X100.317 Y90.649 E27.66539
G1 X100.941 Y90.206 E27.69085
G1 X101.745 Y89.781 E27.72109
G1 X102.875 Y89.388 E27.76089
G1 X103.701 Y89.237 E27.78882
G1 X104.436 Y89.188 E27.81332
G1 X115.884 Y89.204 E28.19408
G1 X116.754 Y89.312 E28.22324
G1 X117.797 Y89.594 E28.25917
G1 X118.61 Y89.948 E28.28866
G1 X119.323 Y90.382 E28.31643
G1 X120.077 Y90.994 E28.34873
G1 X120.6 Y91.555 E28.37424
G1 X121.337 Y92.626 E28.41748
G1 X121.646 Y93.274 E28.44135
G1 X121.854 Y93.855 E28.46188
G1 X122.114 Y95.12 E28.50483
G1 X122.139 Y95.445 E28.51567
G1 X122.147 Y124.298 E29.47533
G1 X122.021 Y125.506 E29.51573
G1 X121.93 Y125.897 E29.52908
G1 X121.366 Y127.328 E29.58024
G1 X121.086 Y127.797 E29.5984
G1 X120.296 Y128.792 E29.64066
G1 X119.822 Y129.231 E29.66215
G1 X118.829 Y129.932 E29.70258
G1 X118.151 Y130.271 E29.72779
G1 X117.505 Y130.508 E29.75067
G1 X116.317 Y130.76 E29.79107
G0 F9000 X116.289 Y130.361
G1 F1800 X115.563 Y130.412 E29.81527
G1 X104.057 Y130.394 E30.19797
G1 X103.341 Y130.31 E30.22194
G1 X102.89 Y130.21 E30.23731
G1 X101.642 Y129.729 E30.28179
G1 X100.963 Y129.327 E30.30804
G1 X100.168 Y128.68 E30.34213
G1 X99.533 Y127.98 E30.37356
G1 X99.132 Y127.389 E30.39732
G1 X98.721 Y126.556 E30.42821
G1 X98.404 Y125.563 E30.46288
G1 X98.311 Y125.051 E30.48019
G1 X98.25 Y124.227 E30.50767
G1 X98.272 Y95.359 E31.46782
G1 X98.369 Y94.585 E31.49377
G1 X98.46 Y94.194 E31.50712
G1 X98.993 Y92.852 E31.55515
G1 X99.272 Y92.384 E31.57327
G1 X99.92 Y91.566 E31.60798
G1 X100.59 Y90.942 E31.63843
G1 X101.171 Y90.533 E31.66206
G1 X101.878 Y90.158 E31.68868
G1 X102.948 Y89.781 E31.72641
G1 X103.728 Y89.636 E31.7528
G1 X104.436 Y89.588 E31.7764
G1 X115.836 Y89.601 E32.15557
G1 X116.651 Y89.699 E32.18287
G1 X117.637 Y89.961 E32.2168
G1 X118.45 Y90.315 E32.2463
G1 X119.114 Y90.723 E32.27222
G1 X119.786 Y91.269 E32.30102
G1 X120.271 Y91.783 E32.32452
G1 X120.976 Y92.799 E32.36565
G1 X121.269 Y93.409 E32.38816
G1 X121.477 Y93.99 E32.40868
G1 X121.715 Y95.151 E32.4481
G1 X121.74 Y95.476 E32.45894
G1 X121.749 Y124.257 E33.4162
G1 X121.631 Y125.415 E33.45492
G1 X121.54 Y125.806 E33.46827
G1 X121.021 Y127.125 E33.51542
G1 X120.772 Y127.549 E33.53177
G1 X120.022 Y128.5 E33.57205
G1 X119.59 Y128.905 E33.59175
G1 X118.649 Y129.575 E33.63017
G1 X118.013 Y129.895 E33.65385
G1 X117.367 Y130.132 E33.67673
G1 X116.289 Y130.361 E33.71339
G0 F9000 X116.26 Y129.962
G1 F1800 X115.564 Y130.012 E33.7366
G1 X104.103 Y129.997 E34.11779
G1 X103.428 Y129.919 E34.14039
G1 X102.977 Y129.819 E34.15576
G1 X101.844 Y129.384 E34.19612
G1 X101.214 Y129.016 E34.22039
G1 X100.464 Y128.411 E34.25244
G1 X99.829 Y127.711 E34.28387
G1 X99.491 Y127.212 E34.30392
G1 X99.08 Y126.379 E34.33481
G1 X98.798 Y125.492 E34.36577
G1 X98.705 Y124.98 E34.38308
G1 X98.65 Y124.227 E34.40819
G1 X98.669 Y95.408 E35.36671
G1 X98.759 Y94.676 E35.39124
G1 X98.85 Y94.285 E35.4046
G1 X99.337 Y93.057 E35.44853
G1 X99.616 Y92.589 E35.46666
G1 X100.193 Y91.859 E35.4976
G1 X100.863 Y91.235 E35.52806
G1 X101.4 Y90.861 E35.54982
G1 X102.064 Y90.512 E35.57477
G1 X103.023 Y90.174 E35.60859
G1 X103.756 Y90.035 E35.63341
G1 X104.436 Y89.988 E35.65608
G1 X115.79 Y89.998 E36.03371
G1 X116.55 Y90.086 E36.05916
G1 X117.477 Y90.328 E36.09102
G1 X118.29 Y90.682 E36.12052
G1 X118.903 Y91.063 E36.14452
G1 X119.495 Y91.544 E36.16989
G1 X119.98 Y92.058 E36.1934
G1 X120.616 Y92.973 E36.23046
G1 X120.892 Y93.544 E36.25155
G1 X121.1 Y94.125 E36.27208
G1 X121.316 Y95.182 E36.30796
G1 X121.341 Y95.507 E36.3188
G1 X121.349 Y124.257 E37.27503
G1 X121.241 Y125.324 E37.3107
G1 X121.15 Y125.715 E37.32405
G1 X120.674 Y126.925 E37.3673
G1 X120.457 Y127.302 E37.38177
G1 X119.746 Y128.21 E37.42013
G1 X119.357 Y128.58 E37.43798
G1 X118.468 Y129.218 E37.47438
G1 X117.875 Y129.519 E37.4965
G1 X117.229 Y129.756 E37.51938
G1 X116.26 Y129.962 E37.55233
G0 F9000 X116.231 Y129.563
G1 F1800 X115.564 Y129.612 E37.57458
G1 X104.148 Y129.599 E37.95427
G1 X103.515 Y129.528 E37.97546
G1 X103.064 Y129.428 E37.99082
G1 X101.989 Y129.011 E38.02917
G1 X101.418 Y128.672 E38.05126
G1 X100.759 Y128.141 E38.07941
G1 X100.159 Y127.484 E38.109
G1 X99.849 Y127.033 E38.1272
G1 X99.461 Y126.256 E38.15609
G1 X99.192 Y125.421 E38.18527
G1 X99.099 Y124.909 E38.20258
G1 X99.05 Y124.227 E38.22532
G1 X99.066 Y95.456 E39.18225
G1 X99.149 Y94.767 E39.20533
G1 X99.24 Y94.376 E39.21868
G1 X99.681 Y93.262 E39.25853
G1 X99.96 Y92.794 E39.27665
G1 X100.506 Y92.108 E39.30581
G1 X101.093 Y91.562 E39.33248
G1 X101.588 Y91.214 E39.3526
G1 X102.199 Y90.889 E39.37562
G1 X103.098 Y90.567 E39.40738
G1 X103.831 Y90.428 E39.43219
G1 X104.436 Y90.388 E39.45236
G1 X115.746 Y90.396 E39.82853
G1 X116.451 Y90.474 E39.85212
G1 X117.319 Y90.696 E39.88192
G1 X118.08 Y91.023 E39.90947
G1 X118.652 Y91.375 E39.93181
G1 X119.204 Y91.819 E39.95537
G1 X119.689 Y92.333 E39.97888
G1 X120.256 Y93.148 E40.0119
G1 X120.515 Y93.679 E40.03155
G1 X120.723 Y94.26 E40.05207
G1 X120.917 Y95.213 E40.08442
G1 X120.942 Y95.538 E40.09526
G1 X120.949 Y124.257 E41.05046
G1 X120.851 Y125.233 E41.08309
G1 X120.76 Y125.624 E41.09644
G1 X120.327 Y126.725 E41.13579
G1 X120.11 Y127.102 E41.15026
G1 X119.432 Y127.962 E41.18668
G1 X119.122 Y128.256 E41.20089
G1 X118.285 Y128.862 E41.23526
G1 X117.737 Y129.143 E41.25574
G1 X117.091 Y129.38 E41.27863
G1 X116.231 Y129.563 E41.30787
G0 F9000 X116.201 Y129.164
G1 F1800 X115.564 Y129.212 E41.32912
G1 X104.191 Y129.201 E41.70739
G1 X103.602 Y129.137 E41.72709
G1 X103.151 Y129.037 E41.74246
G1 X102.191 Y128.666 E41.77669
G1 X101.667 Y128.359 E41.79689
G1 X101.053 Y127.87 E41.82299
G1 X100.489 Y127.257 E41.8507
G1 X100.179 Y126.806 E41.8689
G1 X99.82 Y126.079 E41.89587
G1 X99.586 Y125.35 E41.92133
G1 X99.493 Y124.838 E41.93864
G1 X99.45 Y124.227 E41.95901
G1 X99.463 Y95.503 E42.91438
G1 X99.539 Y94.858 E42.93598
G1 X99.63 Y94.467 E42.94933
G1 X100.025 Y93.467 E42.98509
