;FLAVOR:Marlin
;TIME:3042
;Filament used: 3.08536m
;Layer height: 0.16
;MINX:79.023
;MINY:66.29
;MINZ:0.2
;MAXX:140.925
;MAXY:153.724
;MAXZ:5.48
;TARGET_MACHINE.NAME:Creality Ender-3 V3 SE
;Generated with Cura_SteamEngine 5.9.1
M82 ;absolute extrusion mode
M220 S100 ;Reset Feedrate
M221 S100 ;Reset Flowrate

G28 ;Home

M420 S1; Use saved mesh leveling data

G92 E0 ;Reset Extruder
G1 Z2.0 F3000 ;Move Z Axis up
G1 X-3 Y20 Z0.28 F5000.0 ;Move to start position
M190 S60 ; Set bed temperature and wait
M109 S200 ; Set hotend temperature and wait
G1 X-3 Y100.0 Z0.28 F1500.0 E15 ;Draw the first line
G1 X-2 Y100.0 Z0.28 F5000.0 ;Move to side a little
G1 X-2 Y20 Z0.28 F1500.0 E30 ;Draw the second line
G92 E0 ;Reset Extruder
G1 E-1.0000 F1800 ;Retract a bit
G1 Z2.0 F3000 ;Move Z Axis up
G1 E0.0000 F1800 

G92 E0
G92 E0
G1 F2400 E-0.8
;LAYER_COUNT:32
;LAYER:0
M107
G0 F9000 X94.882 Y150.445 Z0.2
;TYPE:SKIRT
G1 F2400 E0
G1 F1800 X90.454 Y147.113 E0.18431
G1 X87.852 Y143.025 E0.34549
G1 X80.689 Y125.235 E0.98335
G1 X79.023 Y118.624 E1.21011
G1 X79.371 Y111.073 E1.46152
G1 X85.806 Y74.861 E2.6848
G1 X86.859 Y72.149 E2.78157
G1 X87.67 Y70.854 E2.83239
G1 X89.661 Y68.832 E2.92677
G1 X90.851 Y67.898 E2.97708
G1 X93.651 Y66.723 E3.07808
G1 X94.977 Y66.359 E3.12382
G1 X97.987 Y66.29 E3.22395
G1 X130.85 Y72.041 E4.33359
G1 X134.752 Y73.718 E4.47485
G1 X136.137 Y74.677 E4.53088
G1 X139.049 Y78.149 E4.6816
G1 X139.864 Y79.605 E4.7371
G1 X140.925 Y84.137 E4.89191
G1 X140.92 Y133.27 E6.52608
G1 X139.411 Y140.366 E6.76737
G1 X138.765 Y141.839 E6.82087
G1 X134.567 Y147.573 E7.05723
G1 X133.526 Y148.668 E7.10748
G1 X126.938 Y152.479 E7.36062
G1 X125.436 Y152.973 E7.41321
G1 X118.18 Y153.724 E7.65583
G1 X99.183 Y151.675 E8.29134
G1 X94.882 Y150.445 E8.44013
G0 F9000 X95.062 Y150.08
G1 F1800 X90.752 Y146.837 E8.61953
G1 X88.209 Y142.842 E8.77704
G1 X81.077 Y125.137 E9.41189
G1 X79.426 Y118.584 E9.63665
G1 X79.765 Y111.143 E9.8844
G1 X86.193 Y74.97 E11.10637
G1 X87.219 Y72.327 E11.20066
G1 X87.986 Y71.102 E11.24874
G1 X89.908 Y69.147 E11.33992
G1 X91.056 Y68.246 E11.38846
G1 X93.757 Y67.109 E11.48593
G1 X95.036 Y66.758 E11.53004
G1 X97.957 Y66.691 E11.62722
G1 X130.737 Y72.427 E12.73405
G1 X134.554 Y74.068 E12.87224
G1 X135.867 Y74.977 E12.92536
G1 X138.718 Y78.376 E13.07291
G1 X139.488 Y79.752 E13.12536
G1 X140.525 Y84.181 E13.27665
G1 X140.52 Y133.229 E14.90799
G1 X139.029 Y140.242 E15.14646
G1 X138.417 Y141.637 E15.19713
G1 X134.277 Y147.297 E15.43036
G1 X133.274 Y148.352 E15.47878
G1 X126.775 Y152.111 E15.72849
G1 X125.352 Y152.579 E15.77831
G1 X118.182 Y153.322 E16.01806
G1 X99.293 Y151.29 E16.64994
G1 X95.062 Y150.08 E16.7963
G0 F9000 X95.242 Y149.715
G1 F1800 X91.05 Y146.561 E16.97079
G1 X88.567 Y142.66 E17.12459
G1 X81.465 Y125.039 E17.75648
G1 X79.829 Y118.544 E17.97925
G1 X80.159 Y111.213 E18.22333
G1 X86.58 Y75.079 E19.44398
G1 X87.579 Y72.505 E19.53581
G1 X88.302 Y71.35 E19.58113
G1 X90.155 Y69.462 E19.66912
G1 X91.263 Y68.593 E19.71595
G1 X93.863 Y67.495 E19.80982
G1 X95.095 Y67.157 E19.85231
G1 X97.927 Y67.092 E19.94653
G1 X130.62 Y72.813 E21.05043
G1 X134.36 Y74.42 E21.18582
G1 X135.597 Y75.277 E21.23587
G1 X138.387 Y78.603 E21.38026
G1 X139.112 Y79.899 E21.42965
G1 X140.125 Y84.225 E21.57743
G1 X140.12 Y133.188 E23.20594
G1 X138.647 Y140.118 E23.44158
G1 X138.069 Y141.435 E23.48942
G1 X133.987 Y147.021 E23.71953
G1 X133.022 Y148.036 E23.76611
G1 X126.612 Y151.743 E24.0124
G1 X125.268 Y152.185 E24.05945
G1 X118.184 Y152.92 E24.29633
G1 X99.403 Y150.905 E24.92458
G1 X95.242 Y149.715 E25.06852
G0 F9000 X95.422 Y149.35
G1 F1800 X91.348 Y146.285 E25.23809
G1 X88.925 Y142.478 E25.38818
G1 X81.853 Y124.941 E26.0171
G1 X80.232 Y118.504 E26.23788
G1 X80.553 Y111.283 E26.47829
G1 X86.967 Y75.188 E27.69762
G1 X87.939 Y72.683 E27.78699
G1 X88.617 Y71.601 E27.82946
G1 X90.402 Y69.777 E27.91434
G1 X91.47 Y68.94 E27.95947
G1 X93.969 Y67.881 E28.04975
G1 X95.154 Y67.556 E28.09062
G1 X97.897 Y67.493 E28.18187
G1 X130.503 Y73.199 E29.28283
G1 X134.166 Y74.773 E29.41544
G1 X135.327 Y75.577 E29.46241
G1 X138.056 Y78.83 E29.60363
G1 X138.736 Y80.046 E29.64997
G1 X139.725 Y84.269 E29.79423
G1 X139.72 Y133.147 E31.41992
G1 X138.265 Y139.994 E31.65274
G1 X137.721 Y141.234 E31.69777
G1 X133.697 Y146.745 E31.92473
G1 X132.77 Y147.72 E31.96948
G1 X126.449 Y151.375 E32.21233
G1 X125.184 Y151.791 E32.25662
G1 X118.186 Y152.518 E32.49063
G1 X99.513 Y150.52 E33.11524
G1 X95.422 Y149.35 E33.25676
G0 F9000 X95.604 Y148.986
G1 F1800 X91.645 Y146.007 E33.42155
G1 X89.283 Y142.296 E33.56786
G1 X82.241 Y124.843 E34.19382
G1 X80.635 Y118.464 E34.41261
G1 X80.947 Y111.353 E34.64935
G1 X87.354 Y75.297 E35.86736
G1 X88.299 Y72.862 E35.95424
G1 X88.934 Y71.849 E35.994
G1 X90.649 Y70.092 E36.07566
G1 X91.677 Y69.286 E36.11911
G1 X94.075 Y68.267 E36.20577
G1 X95.213 Y67.955 E36.24502
G1 X97.867 Y67.894 E36.33332
G1 X130.39 Y73.585 E37.43147
G1 X133.968 Y75.123 E37.561
G1 X135.057 Y75.877 E37.60506
G1 X137.725 Y79.057 E37.74312
G1 X138.36 Y80.193 E37.78641
G1 X139.325 Y84.313 E37.92715
G1 X139.32 Y133.106 E39.55001
G1 X137.883 Y139.87 E39.78
G1 X137.373 Y141.033 E39.82224
G1 X133.407 Y146.469 E40.04605
G1 X132.518 Y147.404 E40.08896
G1 X126.286 Y151.007 E40.32838
G1 X125.1 Y151.397 E40.36991
G1 X118.187 Y152.116 E40.60107
G1 X99.623 Y150.135 E41.22202
G1 X95.604 Y148.986 E41.36105
G0 F9000 X95.784 Y148.621
G1 F1800 X91.943 Y145.731 E41.52092
G1 X89.641 Y142.114 E41.66352
G1 X82.629 Y124.745 E42.28652
G1 X81.038 Y118.424 E42.50331
G1 X81.341 Y111.423 E42.73639
G1 X87.741 Y75.406 E43.95308
G1 X88.658 Y73.043 E44.03739
G1 X89.251 Y72.098 E44.07449
G1 X90.896 Y70.407 E44.15296
G1 X91.883 Y69.633 E44.19468
G1 X94.181 Y68.653 E44.27777
G1 X95.272 Y68.354 E44.31539
G1 X97.837 Y68.295 E44.40073
G1 X130.273 Y73.971 E45.49595
G1 X133.774 Y75.475 E45.62268
G1 X134.787 Y76.177 E45.66367
G1 X137.394 Y79.284 E45.79857
G1 X137.984 Y80.34 E45.8388
G1 X138.925 Y84.357 E45.97603
G1 X138.92 Y133.065 E47.59606
G1 X137.501 Y139.746 E47.82323
G1 X137.025 Y140.832 E47.86267
G1 X133.117 Y146.193 E48.08332
G1 X132.266 Y147.088 E48.1244
G1 X126.123 Y150.639 E48.36039
G1 X125.016 Y151.003 E48.39915
G1 X118.188 Y151.714 E48.62748
G1 X99.733 Y149.75 E49.24476
G1 X95.784 Y148.621 E49.38137
G0 F9000 X95.964 Y148.256
G1 F1800 X92.241 Y145.455 E49.53633
G1 X89.999 Y141.932 E49.67522
G1 X83.017 Y124.647 E50.29525
G1 X81.44 Y118.384 E50.51006
G1 X81.735 Y111.493 E50.73947
G1 X88.128 Y75.515 E51.95484
G1 X89.017 Y73.224 E52.03658
G1 X89.568 Y72.346 E52.07106
G1 X91.183 Y70.686 E52.14809
G1 X92.086 Y69.982 E52.18617
G1 X94.287 Y69.039 E52.26581
G1 X95.331 Y68.753 E52.30181
G1 X97.807 Y68.696 E52.38419
G1 X130.156 Y74.357 E53.47647
G1 X133.58 Y75.828 E53.60042
G1 X134.517 Y76.477 E53.63833
G1 X137.063 Y79.511 E53.77006
G1 X137.608 Y80.487 E53.80724
G1 X138.525 Y84.401 E53.94095
G1 X138.52 Y133.024 E55.55815
G1 X137.118 Y139.624 E55.78257
G1 X136.678 Y140.629 E55.81906
G1 X132.794 Y145.957 E56.03836
G1 X132.016 Y146.771 E56.07581
G1 X125.96 Y150.271 E56.30845
G1 X124.932 Y150.609 E56.34444
G1 X118.189 Y151.312 E56.56993
G1 X99.843 Y149.365 E57.18355
G1 X95.964 Y148.256 E57.31773
G0 F9000 X96.146 Y147.892
G1 F1800 X92.538 Y145.177 E57.46792
G1 X90.357 Y141.75 E57.60302
G1 X83.405 Y124.549 E58.22009
G1 X81.842 Y118.343 E58.43295
G1 X82.129 Y111.563 E58.65866
G1 X88.515 Y75.624 E59.87272
G1 X89.377 Y73.403 E59.95195
G1 X89.883 Y72.596 E59.98364
G1 X91.47 Y70.965 E60.05932
G1 X92.289 Y70.331 E60.09377
G1 X94.445 Y69.407 E60.17179
G1 X95.388 Y69.152 E60.20428
G1 X97.777 Y69.097 E60.28376
G1 X130.043 Y74.743 E61.37324
G1 X133.382 Y76.178 E61.49411
G1 X134.247 Y76.777 E61.52911
G1 X136.732 Y79.738 E61.65768
G1 X137.232 Y80.634 E61.69181
G1 X138.125 Y84.445 E61.82199
G1 X138.12 Y132.983 E63.43637
G1 X136.735 Y139.502 E63.65804
G1 X136.331 Y140.426 E63.69158
G1 X132.471 Y145.721 E63.90952
G1 X131.767 Y146.454 E63.94332
G1 X125.798 Y149.903 E64.17261
G1 X124.849 Y150.215 E64.20584
G1 X118.189 Y150.91 E64.42855
G1 X99.953 Y148.98 E65.03847
G1 X96.146 Y147.892 E65.17016
G0 F9000 X96.326 Y147.527
G1 F1800 X92.836 Y144.901 E65.31543
G1 X90.715 Y141.568 E65.44683
G1 X83.776 Y124.399 E66.06275
G1 X82.244 Y118.303 E66.2718
G1 X82.523 Y111.633 E66.49384
G1 X88.902 Y75.733 E67.70659
G1 X89.736 Y73.584 E67.78326
G1 X90.202 Y72.842 E67.8124
G1 X91.715 Y71.281 E67.8847
G1 X92.491 Y70.68 E67.91735
G1 X94.603 Y69.775 E67.99377
G1 X95.447 Y69.551 E68.02281
G1 X97.747 Y69.498 E68.09933
G1 X129.93 Y75.129 E69.18601
G1 X133.184 Y76.528 E69.30381
G1 X133.977 Y77.077 E69.33589
G1 X136.401 Y79.965 E69.4613
G1 X136.856 Y80.781 E69.49237
G1 X137.725 Y84.489 E69.61904
G1 X137.72 Y132.942 E71.2306
G1 X136.353 Y139.376 E71.44937
G1 X135.981 Y140.227 E71.48026
G1 X132.148 Y145.485 E71.69668
G1 X131.518 Y146.136 E71.72681
G1 X125.636 Y149.535 E71.95276
G1 X124.766 Y149.821 E71.98322
G1 X118.189 Y150.508 E72.20316
G1 X100.063 Y148.595 E72.80938
G1 X96.326 Y147.527 E72.93865
G0 F9000 X96.506 Y147.162
G1 F1800 X93.134 Y144.625 E73.079
G1 X91.073 Y141.386 E73.20669
G1 X84.164 Y124.301 E73.81965
G1 X82.646 Y118.262 E74.02675
G1 X82.917 Y111.703 E74.24509
G1 X89.289 Y75.842 E75.45652
G1 X90.095 Y73.765 E75.53062
G1 X90.521 Y73.087 E75.55725
G1 X92.002 Y71.559 E75.62802
G1 X92.692 Y71.03 E75.65694
G1 X94.761 Y70.143 E75.73181
G1 X95.503 Y69.95 E75.75731
G1 X97.717 Y69.899 E75.83097
G1 X129.813 Y75.515 E76.91471
G1 X132.99 Y76.88 E77.02972
G1 X133.707 Y77.377 E77.05873
G1 X136.07 Y80.192 E77.18097
G1 X136.48 Y80.928 E77.209
G1 X137.325 Y84.533 E77.33215
G1 X137.32 Y132.901 E78.94087
G1 X135.971 Y139.252 E79.15682
G1 X135.631 Y140.028 E79.185
G1 X131.86 Y145.207 E79.39808
G1 X131.268 Y145.819 E79.4264
G1 X125.474 Y149.167 E79.64897
G1 X124.683 Y149.427 E79.67666
G1 X118.189 Y150.106 E79.89383
G1 X100.173 Y148.21 E80.49635
G1 X96.506 Y147.162 E80.6232
G0 F9000 X96.686 Y146.797
G1 F1800 X93.432 Y144.349 E80.75864
G1 X91.431 Y141.204 E80.88262
G1 X84.552 Y124.203 E81.49261
G1 X83.048 Y118.221 E81.69776
G1 X83.311 Y111.773 E81.9124
G1 X89.676 Y75.951 E83.12251
G1 X90.454 Y73.946 E83.19404
G1 X90.838 Y73.335 E83.21804
G1 X92.245 Y71.877 E83.28543
G1 X92.895 Y71.379 E83.31267
G1 X94.919 Y70.511 E83.38592
G1 X95.559 Y70.349 E83.40787
G1 X97.687 Y70.3 E83.47867
G1 X129.696 Y75.901 E84.55947
G1 X132.796 Y77.233 E84.67169
G1 X133.437 Y77.677 E84.69763
G1 X135.736 Y80.415 E84.81654
G1 X136.105 Y81.078 E84.84177
G1 X136.925 Y84.577 E84.9613
G1 X136.92 Y132.86 E86.5672
G1 X135.588 Y139.13 E86.7804
G1 X135.284 Y139.824 E86.8056
G1 X131.572 Y144.929 E87.01553
G1 X131.018 Y145.502 E87.04204
G1 X125.312 Y148.799 E87.26123
G1 X124.6 Y149.033 E87.28615
G1 X118.189 Y149.704 E87.50055
G1 X100.283 Y147.825 E88.09938
G1 X96.686 Y146.797 E88.2238
G0 F9000 X96.868 Y146.433
G1 F1800 X93.729 Y144.071 E88.35446
G1 X91.789 Y141.022 E88.47466
G1 X84.94 Y124.105 E89.08169
G1 X83.45 Y118.18 E89.28489
G1 X83.705 Y111.843 E89.49583
G1 X90.063 Y76.06 E90.70462
G1 X90.813 Y74.127 E90.77358
G1 X91.155 Y73.583 E90.79495
G1 X92.488 Y72.195 E90.85896
G1 X93.098 Y71.728 E90.88451
G1 X95.077 Y70.879 E90.95613
G1 X95.615 Y70.748 E90.97455
G1 X97.657 Y70.701 E91.04248
G1 X129.579 Y76.287 E92.12035
G1 X132.602 Y77.586 E92.22978
G1 X133.167 Y77.977 E92.25263
G1 X135.403 Y80.64 E92.36829
G1 X135.729 Y81.226 E92.39059
G1 X136.525 Y84.621 E92.50657
G1 X136.52 Y132.819 E94.10964
G1 X135.206 Y139.006 E94.32001
G1 X134.936 Y139.622 E94.34238
G1 X131.284 Y144.651 E94.5491
G1 X130.768 Y145.185 E94.5738
G1 X125.15 Y148.431 E94.7896
G1 X124.517 Y148.639 E94.81176
G1 X118.189 Y149.302 E95.02338
G1 X100.393 Y147.44 E95.61851
G1 X96.868 Y146.433 E95.74045
G0 F9000 X97.05 Y146.069
G1 F1800 X94.026 Y143.793 E95.86633
G1 X92.147 Y140.84 E95.98274
G1 X85.328 Y124.007 E96.5868
G1 X83.852 Y118.139 E96.78805
G1 X84.099 Y111.913 E96.99529
G1 X90.45 Y76.169 E98.20277
G1 X91.172 Y74.308 E98.26916
G1 X91.472 Y73.831 E98.2879
G1 X92.777 Y72.472 E98.35057
G1 X93.301 Y72.076 E98.37241
G1 X95.172 Y71.268 E98.4402
G1 X95.669 Y71.147 E98.45721
G1 X97.627 Y71.102 E98.52235
G1 X129.462 Y76.673 E99.59728
G1 X132.408 Y77.938 E99.70391
G1 X132.897 Y78.277 E99.7237
G1 X135.07 Y80.865 E99.8361
G1 X135.353 Y81.374 E99.85547
G1 X136.125 Y84.665 E99.9679
G1 X136.12 Y132.778 E101.56814
G1 X134.824 Y138.882 E101.77569
G1 X134.588 Y139.42 E101.79523
G1 X130.96 Y144.416 E102.00059
G1 X130.52 Y144.867 E102.02154
G1 X124.988 Y148.063 E102.23404
G1 X124.434 Y148.245 E102.25343
G1 X118.189 Y148.9 E102.46228
G1 X100.503 Y147.055 E103.05371
G1 X97.05 Y146.069 E103.17315
G0 F9000 X97.234 Y145.706
G1 F1800 X94.323 Y143.515 E103.29433
G1 X92.505 Y140.658 E103.40696
G1 X85.716 Y123.909 E104.00806
G1 X84.254 Y118.098 E104.20736
G1 X84.493 Y111.983 E104.4109
G1 X90.838 Y76.276 E105.61712
G1 X91.531 Y74.487 E105.68093
G1 X91.786 Y74.082 E105.69685
G1 X93.066 Y72.749 E105.75832
G1 X93.501 Y72.426 E105.77634
G1 X95.267 Y71.657 E105.8404
G1 X95.723 Y71.546 E105.85601
G1 X97.597 Y71.503 E105.91836
G1 X129.345 Y77.059 E106.99035
G1 X132.214 Y78.291 E107.0942
G1 X132.627 Y78.577 E107.11091
G1 X134.737 Y81.09 E107.22005
G1 X134.977 Y81.522 E107.23648
G1 X135.725 Y84.709 E107.34536
G1 X135.72 Y132.737 E108.94278
G1 X134.442 Y138.758 E109.1475
G1 X134.24 Y139.218 E109.16421
G1 X130.636 Y144.181 E109.36821
G1 X130.273 Y144.548 E109.38538
G1 X124.826 Y147.695 E109.59461
G1 X124.351 Y147.851 E109.61124
G1 X118.189 Y148.498 E109.81732
G1 X100.545 Y146.657 E110.40734
G1 X97.234 Y145.706 E110.52192
G0 F9000 X97.416 Y145.342
G1 F1800 X94.621 Y143.239 E110.63826
G1 X92.863 Y140.476 E110.74718
G1 X86.104 Y123.811 E111.34532
G1 X84.656 Y118.056 E111.54269
G1 X84.887 Y112.053 E111.7425
G1 X91.226 Y76.382 E112.94751
G1 X91.89 Y74.666 E113.00871
G1 X92.1 Y74.333 E113.0218
G1 X93.355 Y73.026 E113.08207
G1 X93.702 Y72.775 E113.09631
G1 X95.362 Y72.046 E113.15662
G1 X95.777 Y71.945 E113.17082
G1 X97.567 Y71.904 E113.23037
G1 X129.228 Y77.445 E114.29943
G1 X132.02 Y78.643 E114.40048
G1 X132.357 Y78.877 E114.41412
G1 X134.404 Y81.315 E114.52
G1 X134.601 Y81.67 E114.53351
G1 X135.325 Y84.753 E114.63884
G1 X135.32 Y132.696 E116.23343
G1 X134.06 Y138.634 E116.43532
G1 X133.892 Y139.016 E116.4492
G1 X130.312 Y143.946 E116.65185
G1 X130.027 Y144.228 E116.66518
G1 X124.664 Y147.327 E116.8712
G1 X124.268 Y147.457 E116.88506
G1 X118.189 Y148.096 E117.08836
G1 X100.587 Y146.259 E117.67699
G1 X97.416 Y145.342 E117.78678
G0 F9000 X97.599 Y144.979
G1 F1800 X94.918 Y142.961 E117.89838
G1 X93.221 Y140.294 E118.00352
G1 X86.492 Y123.713 E118.59869
G1 X85.058 Y118.014 E118.79415
G1 X85.281 Y112.123 E118.99023
G1 X91.614 Y76.488 E120.19402
G1 X92.248 Y74.848 E120.2525
G1 X92.416 Y74.582 E120.26297
G1 X93.644 Y73.303 E120.32194
G1 X93.9 Y73.125 E120.33231
G1 X95.523 Y72.412 E120.39127
G1 X95.827 Y72.344 E120.40163
G1 X97.537 Y72.305 E120.45852
G1 X129.111 Y77.831 E121.52464
G1 X131.826 Y78.996 E121.6229
G1 X132.087 Y79.177 E121.63347
G1 X134.071 Y81.54 E121.73609
G1 X134.225 Y81.818 E121.74666
G1 X134.925 Y84.797 E121.84844
G1 X134.92 Y132.655 E123.4402
G1 X133.678 Y138.51 E123.63928
G1 X133.544 Y138.814 E123.65033
G1 X129.988 Y143.711 E123.85161
G1 X129.783 Y143.908 E123.86107
G1 X124.501 Y146.959 E124.06395
G1 X124.185 Y147.063 E124.07502
G1 X118.189 Y147.694 E124.27555
G1 X100.629 Y145.861 E124.86277
G1 X97.599 Y144.979 E124.96773
G0 F9000 X97.965 Y144.252
G1 F1800 X95.513 Y142.407 E125.06979
G1 X93.937 Y139.93 E125.16744
G1 X87.234 Y123.413 E125.76031
G1 X85.862 Y117.932 E125.94823
G1 X86.069 Y112.263 E126.13691
G1 X92.39 Y76.7 E127.33828
G1 X92.994 Y75.136 E127.39404
G1 X94.222 Y73.857 E127.45302
G1 X95.845 Y73.144 E127.51198
G1 X97.477 Y73.107 E127.56627
G1 X128.877 Y78.603 E128.62652
G1 X131.51 Y79.732 E128.7218
G1 X133.459 Y82.054 E128.82263
G1 X134.125 Y84.887 E128.91942
G1 X134.12 Y132.573 E130.50547
G1 X132.896 Y138.344 E130.70168
G1 X129.34 Y143.241 E130.90297
G1 X124.101 Y146.267 E131.1042
G1 X118.189 Y146.89 E131.30192
G1 X100.781 Y145.073 E131.88406
G1 X97.965 Y144.252 E131.98162
G0 F9000 X97.781 Y144.615
G1 F1800 X95.216 Y142.685 E132.08838
