;FLAVOR:Marlin
;TIME:760
;Filament used: 0.225392m
;Layer height: 0.16
;MINX:99.45
;MINY:99.526
;MINZ:0.2
;MAXX:120.549
;MAXY:120.473
;MAXZ:17.96
;TARGET_MACHINE.NAME:Creality Ender-3 V3 SE
;Generated with Cura_SteamEngine 5.9.1
M82 ;absolute extrusion mode
M220 S100 ;Reset Feedrate
M221 S100 ;Reset Flowrate

G28 ;Home

M420 S1; Use saved mesh leveling data

G92 E0 ;Reset Extruder
G1 Z2.0 F3000 ;Move Z Axis up
G1 X-3 Y20 Z0.28 F5000.0 ;Move to start position
M190 S60 ; Set bed temperature and wait
M109 S200 ; Set hotend temperature and wait
G1 X-3 Y100.0 Z0.28 F1500.0 E15 ;Draw the first line
G1 X-2 Y100.0 Z0.28 F5000.0 ;Move to side a little
G1 X-2 Y20 Z0.28 F1500.0 E30 ;Draw the second line
G92 E0 ;Reset Extruder
G1 E-1.0000 F1800 ;Retract a bit
G1 Z2.0 F3000 ;Move Z Axis up
G1 E0.0000 F1800 

G92 E0
G92 E0
G1 F2400 E-0.8
;LAYER_COUNT:91
;LAYER:0
M107
G0 F9000 X111.241 Y120.473 Z0.2
;TYPE:SKIRT
G1 F2400 E0
G1 F1800 X108.667 Y120.468 E0.08561
G1 X106.229 Y119.85 E0.16926
G1 X103.936 Y118.635 E0.25557
G1 X102.044 Y116.936 E0.34015
G1 X100.642 Y114.875 E0.42306
G1 X99.748 Y112.45 E0.50902
G1 X99.45 Y109.901 E0.59438
G1 X99.767 Y107.443 E0.67681
G1 X100.698 Y105.035 E0.76268
G1 X102.155 Y102.942 E0.8475
G1 X104.047 Y101.292 E0.93099
G1 X106.331 Y100.108 E1.01656
G1 X108.779 Y99.526 E1.10025
G1 X111.232 Y99.526 E1.18184
G1 X113.777 Y100.15 E1.26899
G1 X116.032 Y101.35 E1.35395
G1 X117.927 Y103.054 E1.43871
G1 X119.332 Y105.095 E1.52113
G1 X120.245 Y107.489 E1.60634
G1 X120.549 Y110.109 E1.69407
G1 X120.232 Y112.558 E1.7762
G1 X119.299 Y114.972 E1.86228
G1 X117.855 Y117.042 E1.94623
G1 X116.049 Y118.639 E2.02641
G1 X113.765 Y119.854 E2.11246
G1 X111.241 Y120.473 E2.19889
G0 F9000 X111.191 Y120.073
G1 F1800 X108.718 Y120.068 E2.28115
G1 X106.371 Y119.473 E2.36168
G1 X104.169 Y118.306 E2.44457
G1 X102.348 Y116.671 E2.52596
G1 X100.999 Y114.688 E2.60573
G1 X100.14 Y112.357 E2.68836
G1 X99.853 Y109.905 E2.77047
G1 X100.158 Y107.54 E2.84978
G1 X101.054 Y105.223 E2.93241
G1 X102.452 Y103.214 E3.01381
G1 X104.276 Y101.624 E3.09429
G1 X106.471 Y100.486 E3.17653
G1 X108.826 Y99.926 E3.25704
G1 X111.182 Y99.926 E3.3354
G1 X113.635 Y100.527 E3.4194
G1 X115.801 Y101.68 E3.50101
G1 X117.625 Y103.321 E3.58262
G1 X118.974 Y105.28 E3.66173
G1 X119.854 Y107.588 E3.74388
G1 X120.146 Y110.104 E3.82813
G1 X119.841 Y112.461 E3.90718
G1 X118.944 Y114.782 E3.98994
G1 X117.555 Y116.773 E4.07068
G1 X115.818 Y118.309 E4.1478
G1 X113.623 Y119.477 E4.2305
G1 X111.191 Y120.073 E4.31378
G0 F9000 X111.145 Y119.673
G1 F1800 X108.769 Y119.668 E4.39281
G1 X106.513 Y119.096 E4.47022
G1 X104.402 Y117.977 E4.54968
G1 X102.652 Y116.406 E4.6279
G1 X101.356 Y114.501 E4.70453
G1 X100.532 Y112.264 E4.78382
G1 X100.256 Y109.909 E4.86269
G1 X100.549 Y107.637 E4.93888
G1 X101.409 Y105.413 E5.01819
G1 X102.753 Y103.482 E5.09644
G1 X104.502 Y101.957 E5.17362
G1 X106.611 Y100.864 E5.25263
G1 X108.873 Y100.326 E5.32996
G1 X111.136 Y100.326 E5.40523
G1 X113.49 Y100.903 E5.48584
G1 X115.572 Y102.011 E5.56428
G1 X117.322 Y103.585 E5.64257
G1 X118.617 Y105.466 E5.71852
G1 X119.463 Y107.685 E5.79751
G1 X119.743 Y110.099 E5.87834
G1 X119.45 Y112.364 E5.9543
G1 X118.589 Y114.592 E6.03374
G1 X117.255 Y116.504 E6.11128
G1 X115.587 Y117.979 E6.18534
G1 X113.478 Y119.101 E6.2648
G1 X111.145 Y119.673 E6.34469
G0 F9000 X111.099 Y119.273
G1 F1800 X108.82 Y119.268 E6.42049
G1 X106.655 Y118.719 E6.49478
G1 X104.635 Y117.648 E6.57082
G1 X102.956 Y116.141 E6.64586
G1 X101.713 Y114.314 E6.71936
G1 X100.923 Y112.171 E6.79532
G1 X100.659 Y109.914 E6.8709
G1 X100.94 Y107.734 E6.94401
G1 X101.764 Y105.603 E7.02
G1 X103.054 Y103.75 E7.0951
G1 X104.728 Y102.29 E7.16898
G1 X106.752 Y101.241 E7.2448
G1 X108.919 Y100.726 E7.31888
G1 X111.09 Y100.726 E7.39109
G1 X113.345 Y101.279 E7.46831
G1 X115.343 Y102.342 E7.54359
G1 X117.019 Y103.849 E7.61855
G1 X118.26 Y105.652 E7.69135
G1 X119.072 Y107.782 E7.76717
G1 X119.34 Y110.094 E7.84458
G1 X119.059 Y112.267 E7.91746
G1 X118.234 Y114.402 E7.99358
G1 X116.955 Y116.235 E8.06792
G1 X115.356 Y117.649 E8.13892
G1 X113.333 Y118.725 E8.21513
G1 X111.099 Y119.273 E8.29164
G0 F9000 X111.049 Y118.873
G1 F1800 X108.871 Y118.868 E8.36408
G1 X106.797 Y118.342 E8.43524
G1 X104.868 Y117.319 E8.50786
G1 X103.26 Y115.876 E8.57972
G1 X102.07 Y114.127 E8.65008
G1 X101.315 Y112.078 E8.72271
G1 X101.062 Y109.918 E8.79505
G1 X101.331 Y107.831 E8.86503
G1 X102.12 Y105.791 E8.93778
G1 X103.351 Y104.022 E9.00946
G1 X104.957 Y102.622 E9.08033
G1 X106.892 Y101.619 E9.15282
G1 X108.966 Y101.126 E9.22372
G1 X111.04 Y101.126 E9.2927
G1 X113.203 Y101.656 E9.36677
G1 X115.112 Y102.672 E9.4387
G1 X116.717 Y104.116 E9.51051
G1 X117.903 Y105.838 E9.58005
G1 X118.681 Y107.879 E9.6527
G1 X118.937 Y110.089 E9.72669
G1 X118.668 Y112.17 E9.79648
G1 X117.879 Y114.212 E9.8693
G1 X116.655 Y115.966 E9.94043
G1 X115.125 Y117.319 E10.00837
G1 X113.191 Y118.348 E10.08123
G1 X111.049 Y118.873 E10.15458
G0 F9000 X111.003 Y118.473
G1 F1800 X108.922 Y118.468 E10.22379
G1 X106.939 Y117.965 E10.29184
G1 X105.101 Y116.99 E10.36104
G1 X103.564 Y115.611 E10.42972
G1 X102.427 Y113.94 E10.49694
G1 X101.706 Y111.985 E10.56625
G1 X101.465 Y109.923 E10.6353
G1 X101.722 Y107.928 E10.7022
G1 X102.475 Y105.981 E10.77163
G1 X103.652 Y104.29 E10.84016
G1 X105.183 Y102.955 E10.90772
G1 X107.032 Y101.997 E10.97698
G1 X109.013 Y101.526 E11.04471
G1 X110.994 Y101.526 E11.11059
G1 X113.058 Y102.032 E11.18128
G1 X114.883 Y103.003 E11.25003
G1 X116.414 Y104.38 E11.31852
G1 X117.546 Y106.024 E11.38491
G1 X118.29 Y107.976 E11.45439
G1 X118.534 Y110.084 E11.52497
G1 X118.277 Y112.073 E11.59167
G1 X117.524 Y114.022 E11.66117
G1 X116.355 Y115.697 E11.7291
G1 X114.894 Y116.989 E11.79397
G1 X113.046 Y117.972 E11.86359
G1 X111.003 Y118.473 E11.93355
G0 F9000 X110.953 Y118.073
G1 F1800 X108.973 Y118.068 E11.99941
G1 X107.081 Y117.588 E12.06433
G1 X105.334 Y116.661 E12.13011
G1 X103.868 Y115.346 E12.19561
G1 X102.784 Y113.753 E12.2597
G1 X102.098 Y111.892 E12.32567
G1 X101.868 Y109.927 E12.39147
G1 X102.113 Y108.025 E12.45525
G1 X102.83 Y106.171 E12.52137
G1 X103.953 Y104.558 E12.58674
G1 X105.409 Y103.288 E12.651
G1 X107.172 Y102.375 E12.71703
G1 X109.06 Y101.926 E12.78158
G1 X110.948 Y101.926 E12.84437
G1 X112.913 Y102.408 E12.91167
G1 X114.654 Y103.334 E12.97726
G1 X116.111 Y104.644 E13.04242
G1 X117.189 Y106.21 E13.10566
G1 X117.899 Y108.073 E13.17197
G1 X118.131 Y110.079 E13.23913
G1 X117.886 Y111.976 E13.30275
G1 X117.169 Y113.832 E13.36893
G1 X116.055 Y115.428 E13.43366
G1 X114.663 Y116.659 E13.49547
G1 X112.904 Y117.595 E13.56174
G1 X110.953 Y118.073 E13.62855
G0 F9000 X110.907 Y117.673
G1 F1800 X109.024 Y117.668 E13.69118
G1 X107.225 Y117.212 E13.7529
G1 X105.565 Y116.331 E13.81541
G1 X104.172 Y115.081 E13.87766
G1 X103.141 Y113.566 E13.93861
G1 X102.49 Y111.799 E14.00124
G1 X102.271 Y109.931 E14.0638
G1 X102.504 Y108.122 E14.12446
G1 X103.186 Y106.359 E14.18734
G1 X104.25 Y104.83 E14.24929
G1 X105.638 Y103.62 E14.31054
G1 X107.312 Y102.753 E14.37324
G1 X109.107 Y102.326 E14.43461
G1 X110.898 Y102.326 E14.49417
G1 X112.771 Y102.785 E14.55831
G1 X114.423 Y103.664 E14.62055
G1 X115.809 Y104.911 E14.68256
G1 X116.832 Y106.396 E14.74254
G1 X117.508 Y108.17 E14.80568
G1 X117.728 Y110.074 E14.86943
G1 X117.495 Y111.879 E14.92996
G1 X116.814 Y113.642 E14.99282
G1 X115.755 Y115.159 E15.05436
G1 X114.432 Y116.329 E15.1131
G1 X112.759 Y117.219 E15.17613
G1 X110.907 Y117.673 E15.23955
G0 F9000 X110.857 Y117.273
G1 F1800 X109.075 Y117.268 E15.29882
G1 X107.369 Y116.836 E15.35735
G1 X105.796 Y116.001 E15.41658
G1 X104.476 Y114.816 E15.47558
G1 X103.498 Y113.379 E15.5334
G1 X102.881 Y111.706 E15.59271
G1 X102.674 Y109.936 E15.65198
G1 X102.895 Y108.219 E15.70956
G1 X103.541 Y106.549 E15.76911
G1 X104.549 Y105.101 E15.82779
G1 X105.867 Y103.952 E15.88595
G1 X107.452 Y103.131 E15.94532
G1 X109.154 Y102.726 E16.00351
G1 X110.852 Y102.726 E16.05998
G1 X112.626 Y103.161 E16.12073
G1 X114.194 Y103.995 E16.1798
G1 X115.506 Y105.175 E16.23849
G1 X116.475 Y106.582 E16.29532
G1 X117.117 Y108.267 E16.35529
G1 X117.325 Y110.069 E16.41562
G1 X117.104 Y111.782 E16.47307
G1 X116.459 Y113.452 E16.53261
G1 X115.455 Y114.89 E16.59094
G1 X114.201 Y115.999 E16.64662
G1 X112.617 Y116.842 E16.7063
G1 X110.857 Y117.273 E16.76657
G0 F9000 X110.812 Y116.873
G1 F1800 X109.126 Y116.868 E16.82265
G1 X107.513 Y116.46 E16.87799
G1 X106.027 Y115.671 E16.93395
G1 X104.78 Y114.551 E16.98969
G1 X103.855 Y113.192 E17.04437
G1 X103.273 Y111.613 E17.10034
G1 X103.077 Y109.94 E17.15637
G1 X103.286 Y108.316 E17.21083
G1 X103.896 Y106.739 E17.26707
G1 X104.85 Y105.369 E17.32259
G1 X106.093 Y104.285 E17.37745
G1 X107.592 Y103.509 E17.43359
G1 X109.201 Y103.126 E17.4886
G1 X110.806 Y103.126 E17.54198
G1 X112.481 Y103.537 E17.59934
G1 X113.965 Y104.326 E17.65525
G1 X115.203 Y105.439 E17.71062
G1 X116.118 Y106.768 E17.76428
G1 X116.726 Y108.364 E17.82109
G1 X116.922 Y110.064 E17.878
G1 X116.713 Y111.685 E17.93236
G1 X116.104 Y113.262 E17.98859
G1 X115.155 Y114.621 E18.04372
G1 X113.97 Y115.669 E18.09634
G1 X112.472 Y116.466 E18.15277
G1 X110.812 Y116.873 E18.20962
G0 F9000 X110.763 Y116.473
G1 F1800 X109.177 Y116.468 E18.26237
G1 X107.657 Y116.084 E18.31451
G1 X106.258 Y115.341 E18.3672
G1 X105.084 Y114.286 E18.4197
G1 X104.212 Y113.005 E18.47124
G1 X103.664 Y111.52 E18.52389
G1 X103.48 Y109.945 E18.57663
G1 X103.677 Y108.413 E18.628
G1 X104.252 Y106.927 E18.681
G1 X105.147 Y105.641 E18.73311
G1 X106.322 Y104.617 E18.78495
G1 X107.732 Y103.887 E18.83776
G1 X109.248 Y103.526 E18.88959
G1 X110.756 Y103.526 E18.93974
G1 X112.339 Y103.914 E18.99395
G1 X113.734 Y104.656 E19.04651
G1 X114.901 Y105.706 E19.09872
G1 X115.761 Y106.954 E19.14913
G1 X116.335 Y108.461 E19.20277
G1 X116.519 Y110.059 E19.25627
G1 X116.322 Y111.588 E19.30754
G1 X115.749 Y113.072 E19.36045
G1 X114.855 Y114.352 E19.41238
G1 X113.739 Y115.339 E19.46193
G1 X112.33 Y116.089 E19.51502
G1 X110.763 Y116.473 E19.56868
G0 F9000 X110.714 Y116.073
G1 F1800 X109.228 Y116.068 E19.61811
G1 X107.801 Y115.708 E19.66706
G1 X106.487 Y115.01 E19.71654
G1 X105.39 Y114.024 E19.7656
G1 X104.569 Y112.818 E19.81413
G1 X104.056 Y111.427 E19.86344
G1 X103.883 Y109.949 E19.91293
G1 X104.068 Y108.51 E19.96119
G1 X104.607 Y107.117 E20.01086
G1 X105.446 Y105.912 E20.0597
G1 X106.551 Y104.949 E20.10845
G1 X107.872 Y104.265 E20.15793
G1 X109.295 Y103.926 E20.20658
G1 X110.71 Y103.926 E20.25365
G1 X112.194 Y104.29 E20.30447
G1 X113.505 Y104.987 E20.35385
G1 X114.598 Y105.97 E20.40274
G1 X115.404 Y107.14 E20.45
G1 X115.944 Y108.558 E20.50046
G1 X116.116 Y110.054 E20.55055
G1 X115.931 Y111.491 E20.59874
G1 X115.394 Y112.882 E20.64833
G1 X114.555 Y114.083 E20.69706
G1 X113.508 Y115.009 E20.74355
G1 X112.188 Y115.712 E20.79329
G1 X110.714 Y116.073 E20.84376
G0 F9000 X110.665 Y115.673
G1 F1800 X109.279 Y115.668 E20.88986
G1 X107.945 Y115.332 E20.93562
G1 X106.719 Y114.68 E20.9818
G1 X105.694 Y113.759 E21.02763
G1 X104.926 Y112.631 E21.07302
G1 X104.448 Y111.334 E21.119
G1 X104.286 Y109.953 E21.16524
G1 X104.459 Y108.607 E21.21038
G1 X104.962 Y107.307 E21.25674
G1 X105.745 Y106.183 E21.3023
G1 X106.78 Y105.281 E21.34797
G1 X108.012 Y104.643 E21.39411
G1 X109.342 Y104.326 E21.43959
G1 X110.66 Y104.326 E21.48342
G1 X112.052 Y104.667 E21.53109
G1 X113.276 Y105.318 E21.5772
G1 X114.295 Y106.234 E21.62277
G1 X115.047 Y107.326 E21.66687
G1 X115.553 Y108.655 E21.71417
G1 X115.713 Y110.049 E21.76084
G1 X115.54 Y111.394 E21.80594
G1 X115.039 Y112.692 E21.85222
G1 X114.255 Y113.814 E21.89774
G1 X113.277 Y114.679 E21.94117
G1 X112.046 Y115.335 E21.98756
G1 X110.665 Y115.673 E22.03485
G0 F9000 X110.616 Y115.273
G1 F1800 X109.33 Y115.268 E22.07762
G1 X108.089 Y114.956 E22.12019
G1 X106.951 Y114.35 E22.16307
G1 X105.998 Y113.494 E22.20567
G1 X105.283 Y112.444 E22.24792
G1 X104.839 Y111.241 E22.29057
G1 X104.689 Y109.958 E22.33354
G1 X104.85 Y108.704 E22.37559
G1 X105.317 Y107.497 E22.41863
G1 X106.044 Y106.454 E22.46092
G1 X107.009 Y105.613 E22.50349
G1 X108.152 Y105.021 E22.54631
G1 X109.389 Y104.726 E22.5886
G1 X110.614 Y104.726 E22.62935
G1 X111.907 Y105.043 E22.67363
G1 X113.045 Y105.648 E22.71649
G1 X113.993 Y106.501 E22.75891
G1 X114.69 Y107.512 E22.79975
G1 X115.162 Y108.752 E22.84388
G1 X115.31 Y110.044 E22.88713
G1 X115.149 Y111.297 E22.92915
G1 X114.684 Y112.502 E22.97211
G1 X113.955 Y113.545 E23.01443
G1 X113.046 Y114.349 E23.0548
G1 X111.904 Y114.958 E23.09784
G1 X110.616 Y115.273 E23.14194
G0 F9000 X110.571 Y114.873
G1 F1800 X109.38 Y114.868 E23.18156
G1 X108.234 Y114.58 E23.22086
G1 X107.183 Y114.02 E23.26047
G1 X106.302 Y113.229 E23.29985
G1 X105.641 Y112.258 E23.33892
G1 X105.23 Y111.146 E23.37835
G1 X105.092 Y109.963 E23.41796
G1 X105.241 Y108.801 E23.45693
G1 X105.672 Y107.687 E23.49665
G1 X106.343 Y106.725 E23.53566
G1 X107.238 Y105.945 E23.57515
G1 X108.292 Y105.399 E23.61463
G1 X109.436 Y105.126 E23.65375
G1 X110.568 Y105.126 E23.6914
G1 X111.762 Y105.419 E23.73229
G1 X112.813 Y105.978 E23.77188
G1 X113.692 Y106.768 E23.81119
G1 X114.333 Y107.698 E23.84876
G1 X114.771 Y108.849 E23.88972
G1 X114.907 Y110.038 E23.92952
G1 X114.758 Y111.2 E23.96849
G1 X114.329 Y112.312 E24.00813
G1 X113.655 Y113.276 E24.04725
G1 X112.815 Y114.019 E24.08455
G1 X111.758 Y114.582 E24.12438
G1 X110.571 Y114.873 E24.16503
G0 F9000 X110.522 Y114.473
G1 F1800 X109.43 Y114.468 E24.20135
G1 X108.379 Y114.204 E24.2374
G1 X107.415 Y113.69 E24.27373
G1 X106.606 Y112.964 E24.30989
G1 X105.999 Y112.072 E24.34577
G1 X105.621 Y111.051 E24.38198
G1 X105.495 Y109.968 E24.41825
G1 X105.632 Y108.898 E24.45412
G1 X106.027 Y107.877 E24.49054
G1 X106.642 Y106.996 E24.52627
G1 X107.467 Y106.277 E24.56267
G1 X108.432 Y105.777 E24.59882
G1 X109.483 Y105.526 E24.63476
G1 X110.518 Y105.526 E24.66918
G1 X111.62 Y105.796 E24.70692
G1 X112.584 Y106.309 E24.74324
G1 X113.389 Y107.033 E24.77925
G1 X113.976 Y107.884 E24.81363
G1 X114.38 Y108.946 E24.85143
G1 X114.504 Y110.032 E24.88778
G1 X114.367 Y111.103 E24.92369
G1 X113.974 Y112.122 E24.96002
G1 X113.355 Y113.007 E24.99594
G1 X112.584 Y113.689 E25.03018
G1 X111.616 Y114.205 E25.06666
G1 X110.522 Y114.473 E25.10412
G0 F9000 X110.424 Y113.673
G1 F1800 X109.53 Y113.668 E25.13386
G1 X108.669 Y113.452 E25.16338
G1 X107.879 Y113.03 E25.19317
G1 X107.214 Y112.434 E25.22287
G1 X106.715 Y111.7 E25.25239
G1 X106.403 Y110.861 E25.28216
G1 X106.301 Y109.978 E25.31173
G1 X106.414 Y109.092 E25.34144
G1 X106.737 Y108.257 E25.37121
G1 X107.244 Y107.532 E25.40064
G1 X107.919 Y106.943 E25.43043
G1 X108.712 Y106.533 E25.46013
G1 X109.577 Y106.326 E25.48971
G1 X110.422 Y106.326 E25.51781
G1 X111.332 Y106.549 E25.54898
G1 X112.12 Y106.969 E25.57867
G1 X112.787 Y107.567 E25.60847
G1 X113.262 Y108.256 E25.6363
G1 X113.598 Y109.14 E25.66776
G1 X113.698 Y110.021 E25.69725
G1 X113.585 Y110.909 E25.72702
G1 X113.264 Y111.742 E25.75671
G1 X112.755 Y112.469 E25.78623
G1 X112.122 Y113.029 E25.81434
G1 X111.332 Y113.451 E25.84413
G1 X110.424 Y113.673 E25.87522
G0 F9000 X110.473 Y114.073
G1 F1800 X109.48 Y114.068 E25.90825
G1 X108.524 Y113.828 E25.94103
G1 X107.647 Y113.36 E25.97409
G1 X106.91 Y112.699 E26.00702
G1 X106.357 Y111.886 E26.03972
G1 X106.012 Y110.956 E26.07272
G1 X105.898 Y109.973 E26.10563
G1 X106.023 Y108.995 E26.13842
G1 X106.382 Y108.067 E26.17152
G1 X106.943 Y107.264 E26.2041
G1 X107.693 Y106.61 E26.23719
G1 X108.572 Y106.155 E26.27011
G1 X109.53 Y105.926 E26.30288
G1 X110.472 Y105.926 E26.33421
G1 X111.474 Y106.172 E26.36852
G1 X112.352 Y106.639 E26.4016
G1 X113.088 Y107.3 E26.4345
G1 X113.619 Y108.07 E26.46561
G1 X113.989 Y109.043 E26.50023
G1 X114.101 Y110.026 E26.53314
G1 X113.976 Y111.006 E26.566
G1 X113.619 Y111.932 E26.59901
G1 X113.055 Y112.738 E26.63173
G1 X112.353 Y113.359 E26.6629
G1 X111.474 Y113.828 E26.69604
G1 X110.473 Y114.073 E26.73031
G1 F2400 E25.93031
G0 F9000 X110.046 Y110.457
G1 F2400 E26.73031
G1 F1800 X109.628 Y110.27 E26.74554
G1 X109.581 Y109.812 E26.76086
G1 X109.952 Y109.543 E26.7761
G1 X110.371 Y109.731 E26.79137
G1 X110.419 Y110.188 E26.80666
G1 X110.046 Y110.457 E26.82195
G0 F9000 X110.094 Y110.916
