;FLAVOR:Marlin
;TIME:2091
;Filament used: 2.90451m
;Layer height: 0.16
;MINX:59.5
;MINY:61
;MINZ:0.2
;MAXX:160.5
;MAXY:159
;MAXZ:0.92
;TARGET_MACHINE.NAME:Creality Ender-3 V3 SE
;Generated with Cura_SteamEngine 5.9.1
M82 ;absolute extrusion mode
M220 S100 ;Reset Feedrate
M221 S100 ;Reset Flowrate

G28 ;Home

M420 S1; Use saved mesh leveling data

G92 E0 ;Reset Extruder
G1 Z2.0 F3000 ;Move Z Axis up
G1 X-3 Y20 Z0.28 F5000.0 ;Move to start position
M190 S60 ; Set bed temperature and wait
M109 S200 ; Set hotend temperature and wait
G1 X-3 Y100.0 Z0.28 F1500.0 E15 ;Draw the first line
G1 X-2 Y100.0 Z0.28 F5000.0 ;Move to side a little
G1 X-2 Y20 Z0.28 F1500.0 E30 ;Draw the second line
G92 E0 ;Reset Extruder
G1 E-1.0000 F1800 ;Retract a bit
G1 Z2.0 F3000 ;Move Z Axis up
G1 E0.0000 F1800 

G92 E0
G92 E0
G1 F2400 E-0.8
;LAYER_COUNT:5
;LAYER:0
M107
G0 F9000 X65.67 Y61 Z0.2
;TYPE:SKIRT
G1 F2400 E0
G1 F1800 X153.724 Y61.033 E2.92869
G1 X155.305 Y61.237 E2.98171
G1 X157.454 Y62.397 E3.06293
G1 X159.103 Y64.046 E3.1405
G1 X160.263 Y66.195 E3.22172
G1 X160.467 Y67.776 E3.27474
G1 X160.5 Y152.462 E6.09141
G1 X159.963 Y154.576 E6.16395
G1 X158.61 Y156.543 E6.24336
G1 X158.138 Y157.068 E6.26684
G1 X156.381 Y158.255 E6.33736
G1 X154.33 Y159 E6.40994
G1 X66.038 Y159 E9.34655
G1 X63.924 Y158.463 E9.41909
G1 X61.957 Y157.11 E9.4985
G1 X61.432 Y156.638 E9.52198
G1 X60.245 Y154.881 E9.5925
G1 X59.5 Y152.83 E9.66508
G1 X59.5 Y67.538 E12.5019
G1 X60.037 Y65.424 E12.57445
G1 X61.39 Y63.457 E12.65385
G1 X61.862 Y62.932 E12.67733
G1 X63.619 Y61.745 E12.74786
G1 X65.67 Y61 E12.82044
G0 F9000 X65.741 Y61.4
G1 F1800 X153.673 Y61.43 E15.74507
G1 X155.181 Y61.625 E15.79564
G1 X157.212 Y62.721 E15.8724
G1 X158.779 Y64.288 E15.94611
G1 X159.875 Y66.319 E16.02287
G1 X160.07 Y67.827 E16.07344
G1 X160.1 Y152.411 E18.88671
G1 X159.593 Y154.407 E18.95521
G1 X158.28 Y156.316 E19.03227
G1 X157.873 Y156.765 E19.05243
G1 X156.2 Y157.895 E19.11958
G1 X154.259 Y158.6 E19.18826
G1 X66.089 Y158.6 E22.12081
G1 X64.093 Y158.093 E22.1893
G1 X62.184 Y156.78 E22.26636
G1 X61.735 Y156.373 E22.28652
G1 X60.605 Y154.7 E22.35367
G1 X59.9 Y152.759 E22.42235
G1 X59.9 Y67.589 E25.25512
G1 X60.407 Y65.593 E25.32361
G1 X61.72 Y63.684 E25.40068
G1 X62.127 Y63.235 E25.42083
G1 X63.8 Y62.105 E25.48798
G1 X65.741 Y61.4 E25.55666
G0 F9000 X65.812 Y61.8
G1 F1800 X153.622 Y61.827 E28.47724
G1 X155.057 Y62.013 E28.52536
G1 X156.97 Y63.045 E28.59766
G1 X158.455 Y64.53 E28.66751
G1 X159.487 Y66.443 E28.7398
G1 X159.673 Y67.878 E28.78793
G1 X159.7 Y152.36 E31.59781
G1 X159.223 Y154.238 E31.66226
G1 X157.95 Y156.089 E31.73698
G1 X157.611 Y156.459 E31.75367
G1 X156.016 Y157.536 E31.81768
G1 X154.188 Y158.2 E31.88237
G1 X66.14 Y158.2 E34.81085
G1 X64.262 Y157.723 E34.8753
G1 X62.411 Y156.45 E34.95002
G1 X62.041 Y156.111 E34.96671
G1 X60.964 Y154.516 E35.03072
G1 X60.3 Y152.688 E35.09541
G1 X60.3 Y67.64 E37.92411
G1 X60.777 Y65.762 E37.98856
G1 X62.05 Y63.911 E38.06328
G1 X62.389 Y63.541 E38.07997
G1 X63.984 Y62.464 E38.14398
G1 X65.812 Y61.8 E38.20867
G0 F9000 X65.883 Y62.2
G1 F1800 X153.57 Y62.224 E41.12515
G1 X154.933 Y62.401 E41.17086
G1 X156.728 Y63.369 E41.23869
G1 X158.131 Y64.772 E41.30469
G1 X159.099 Y66.567 E41.37252
G1 X159.276 Y67.93 E41.41823
G1 X159.3 Y152.309 E44.22469
G1 X158.853 Y154.071 E44.28515
G1 X157.655 Y155.819 E44.35563
G1 X157.35 Y156.152 E44.37065
G1 X155.832 Y157.177 E44.43157
G1 X154.117 Y157.8 E44.49226
G1 X66.191 Y157.8 E47.41669
G1 X64.429 Y157.353 E47.47715
G1 X62.681 Y156.155 E47.54763
G1 X62.348 Y155.85 E47.56265
G1 X61.323 Y154.332 E47.62357
G1 X60.7 Y152.617 E47.68426
G1 X60.7 Y67.691 E50.50891
G1 X61.147 Y65.929 E50.56937
G1 X62.345 Y64.181 E50.63985
G1 X62.65 Y63.848 E50.65487
G1 X64.168 Y62.823 E50.71579
G1 X65.883 Y62.2 E50.77648
G0 F9000 X65.954 Y62.6
G1 F1800 X153.518 Y62.621 E53.68887
G1 X154.809 Y62.789 E53.73217
G1 X156.486 Y63.693 E53.79554
G1 X157.807 Y65.014 E53.85768
G1 X158.711 Y66.691 E53.92104
G1 X158.879 Y67.982 E53.96434
G1 X158.9 Y152.258 E56.76737
G1 X158.482 Y153.904 E56.82386
G1 X157.325 Y155.593 E56.89195
G1 X157.087 Y155.847 E56.90353
G1 X155.651 Y156.817 E56.96116
G1 X154.046 Y157.4 E57.01796
G1 X66.242 Y157.4 E59.93833
G1 X64.596 Y156.982 E59.99482
G1 X62.907 Y155.825 E60.06291
G1 X62.653 Y155.587 E60.07449
G1 X61.683 Y154.151 E60.13212
G1 X61.1 Y152.546 E60.18892
G1 X61.1 Y67.742 E63.00951
G1 X61.518 Y66.096 E63.06599
G1 X62.675 Y64.407 E63.13409
G1 X62.913 Y64.153 E63.14566
G1 X64.349 Y63.183 E63.2033
G1 X65.954 Y62.6 E63.2601
G0 F9000 X66.025 Y63
G1 F1800 X153.466 Y63.018 E66.1684
G1 X154.685 Y63.177 E66.20928
G1 X156.244 Y64.017 E66.26818
G1 X157.483 Y65.256 E66.32646
G1 X158.323 Y66.815 E66.38536
G1 X158.482 Y68.034 E66.42625
G1 X158.5 Y152.207 E69.22586
G1 X158.111 Y153.739 E69.27843
G1 X157.033 Y155.32 E69.34207
G1 X156.826 Y155.541 E69.35214
G1 X155.47 Y156.457 E69.40657
G1 X153.975 Y157 E69.45947
G1 X66.293 Y157 E72.37579
G1 X64.761 Y156.611 E72.42836
G1 X63.18 Y155.533 E72.492
G1 X62.959 Y155.326 E72.50207
G1 X62.043 Y153.97 E72.5565
G1 X61.5 Y152.475 E72.6094
G1 X61.5 Y67.793 E75.42594
G1 X61.889 Y66.261 E75.47851
G1 X62.967 Y64.68 E75.54215
G1 X63.174 Y64.459 E75.55223
G1 X64.53 Y63.543 E75.60665
G1 X66.025 Y63 E75.65956
G0 F9000 X66.096 Y63.4
G1 F1800 X153.414 Y63.415 E78.56376
G1 X154.561 Y63.565 E78.60224
G1 X156.002 Y64.341 E78.65667
G1 X157.159 Y65.498 E78.7111
G1 X157.935 Y66.939 E78.76553
G1 X158.085 Y68.086 E78.804
G1 X158.1 Y152.156 E81.60018
G1 X157.74 Y153.573 E81.64881
G1 X156.741 Y155.047 E81.70804
G1 X156.565 Y155.235 E81.7166
G1 X155.289 Y156.097 E81.76782
G1 X153.904 Y156.6 E81.81683
G1 X66.344 Y156.6 E84.72908
G1 X64.927 Y156.24 E84.77771
G1 X63.453 Y155.241 E84.83694
G1 X63.265 Y155.065 E84.8455
G1 X62.403 Y153.789 E84.89672
G1 X61.9 Y152.404 E84.94573
G1 X61.9 Y67.844 E87.7582
G1 X62.26 Y66.427 E87.80683
G1 X63.259 Y64.953 E87.86605
G1 X63.435 Y64.765 E87.87462
G1 X64.711 Y63.903 E87.92584
G1 X66.096 Y63.4 E87.97485
G0 F9000 X66.167 Y63.8
G1 F1800 X153.362 Y63.812 E90.87496
G1 X154.437 Y63.953 E90.91102
G1 X155.76 Y64.665 E90.96099
G1 X156.835 Y65.74 E91.01156
G1 X157.547 Y67.063 E91.06153
G1 X157.688 Y68.138 E91.09759
G1 X157.7 Y152.105 E93.89034
G1 X157.369 Y153.408 E93.93506
G1 X156.41 Y154.823 E93.99191
G1 X156.303 Y154.93 E93.99695
G1 X155.108 Y155.737 E94.04491
G1 X153.833 Y156.2 E94.09002
G1 X66.395 Y156.2 E96.99822
G1 X65.092 Y155.869 E97.04294
G1 X63.677 Y154.91 E97.09979
G1 X63.57 Y154.803 E97.10482
G1 X62.763 Y153.608 E97.15278
G1 X62.3 Y152.333 E97.1979
G1 X62.3 Y67.895 E100.00632
G1 X62.631 Y66.592 E100.05103
G1 X63.59 Y65.177 E100.10789
G1 X63.697 Y65.07 E100.11292
G1 X64.892 Y64.263 E100.16088
G1 X66.167 Y63.8 E100.20599
G0 F9000 X66.238 Y64.2
G1 F1800 X153.31 Y64.209 E103.10202
G1 X154.314 Y64.341 E103.1357
G1 X155.517 Y64.988 E103.18113
G1 X156.512 Y65.983 E103.22794
G1 X157.159 Y67.186 E103.27337
G1 X157.291 Y68.19 E103.30705
G1 X157.3 Y152.054 E106.09638
G1 X156.998 Y153.243 E106.13718
G1 X156.079 Y154.599 E106.19166
G1 X154.927 Y155.377 E106.2379
G1 X153.762 Y155.8 E106.27912
G1 X66.446 Y155.8 E109.18326
G1 X65.257 Y155.498 E109.22406
G1 X63.901 Y154.579 E109.27855
G1 X63.123 Y153.427 E109.32478
G1 X62.7 Y152.262 E109.366
G1 X62.7 Y67.946 E112.17036
G1 X63.002 Y66.757 E112.21117
G1 X63.921 Y65.401 E112.26565
G1 X65.073 Y64.623 E112.31188
G1 X66.238 Y64.2 E112.35311
G0 F9000 X66.309 Y64.6
G1 F1800 X153.258 Y64.606 E115.24504
G1 X154.191 Y64.729 E115.27634
G1 X155.274 Y65.311 E115.31724
G1 X156.189 Y66.226 E115.36027
G1 X156.771 Y67.309 E115.40117
G1 X156.894 Y68.242 E115.43247
G1 X156.9 Y152.003 E118.21837
G1 X156.627 Y153.078 E118.25526
G1 X155.793 Y154.309 E118.30471
G1 X154.743 Y155.018 E118.34685
G1 X153.691 Y155.4 E118.38408
G1 X66.497 Y155.4 E121.28416
G1 X65.422 Y155.127 E121.32105
G1 X64.191 Y154.293 E121.37051
G1 X63.482 Y153.243 E121.41265
G1 X63.1 Y152.191 E121.44987
G1 X63.1 Y67.997 E124.25018
G1 X63.373 Y66.922 E124.28706
G1 X64.207 Y65.691 E124.33652
G1 X65.257 Y64.982 E124.37866
G1 X66.309 Y64.6 E124.41588
G0 F9000 X66.38 Y65
G1 F1800 X153.206 Y65.003 E127.30373
G1 X154.068 Y65.117 E127.33265
G1 X155.031 Y65.634 E127.369
G1 X155.866 Y66.469 E127.40828
G1 X156.383 Y67.432 E127.44463
G1 X156.497 Y68.294 E127.47355
G1 X156.5 Y151.952 E130.25603
G1 X156.256 Y152.913 E130.289
G1 X155.507 Y154.019 E130.33343
G1 X154.559 Y154.659 E130.37148
G1 X153.62 Y155 E130.4047
G1 X66.548 Y155 E133.30073
G1 X65.587 Y154.756 E133.33371
G1 X64.481 Y154.007 E133.37813
G1 X63.841 Y153.059 E133.41618
G1 X63.5 Y152.12 E133.4494
G1 X63.5 Y68.048 E136.24565
G1 X63.744 Y67.087 E136.27863
G1 X64.493 Y65.981 E136.32305
G1 X65.441 Y65.341 E136.3611
G1 X66.38 Y65 E136.39432
G0 F9000 X66.451 Y65.4
G1 F1800 X153.153 Y65.4 E139.27804
G1 X153.946 Y65.505 E139.30465
G1 X154.788 Y65.957 E139.33643
G1 X155.543 Y66.712 E139.37195
G1 X155.995 Y67.554 E139.40373
G1 X156.1 Y68.347 E139.43034
G1 X156.1 Y151.901 E142.20936
G1 X155.885 Y152.748 E142.23842
G1 X155.219 Y153.731 E142.27791
G1 X154.378 Y154.299 E142.31167
G1 X153.549 Y154.6 E142.341
G1 X66.599 Y154.6 E145.23297
G1 X65.752 Y154.385 E145.26203
G1 X64.769 Y153.719 E145.30153
G1 X64.201 Y152.878 E145.33528
G1 X63.9 Y152.049 E145.36461
G1 X63.9 Y68.099 E148.1568
G1 X64.115 Y67.252 E148.18587
G1 X64.781 Y66.269 E148.22536
G1 X65.622 Y65.701 E148.25911
G1 X66.451 Y65.4 E148.28845
G0 F9000 X66.522 Y65.8
G1 F1800 X153.153 Y65.8 E151.16981
G1 X153.822 Y65.892 E151.19227
G1 X154.545 Y66.28 E151.21956
G1 X155.22 Y66.955 E151.25131
G1 X155.608 Y67.678 E151.2786
G1 X155.7 Y68.347 E151.30106
G1 X155.7 Y151.85 E154.07838
G1 X155.514 Y152.583 E154.10353
G1 X154.933 Y153.441 E154.138
G1 X154.194 Y153.94 E154.16765
G1 X153.478 Y154.2 E154.19299
G1 X66.65 Y154.2 E157.0809
G1 X65.917 Y154.014 E157.10605
G1 X65.059 Y153.433 E157.14052
G1 X64.56 Y152.694 E157.17018
G1 X64.3 Y151.978 E157.19551
G1 X64.3 Y68.15 E159.98364
G1 X64.486 Y67.417 E160.00879
G1 X65.067 Y66.559 E160.04326
G1 X65.806 Y66.06 E160.07292
G1 X66.522 Y65.8 E160.09825
G0 F9000 X66.593 Y66.2
G1 F1800 X153.153 Y66.2 E162.97725
G1 X153.696 Y66.279 E162.9955
G1 X154.304 Y66.605 E163.01845
G1 X154.895 Y67.196 E163.04624
G1 X155.221 Y67.804 E163.06919
G1 X155.3 Y68.347 E163.08744
G1 X155.3 Y151.799 E165.86306
G1 X155.143 Y152.418 E165.8843
G1 X154.647 Y153.151 E165.91374
G1 X154.01 Y153.581 E165.9393
G1 X153.407 Y153.8 E165.96064
G1 X66.701 Y153.8 E168.84449
G1 X66.082 Y153.643 E168.86573
G1 X65.349 Y153.147 E168.89517
G1 X64.919 Y152.51 E168.92073
G1 X64.7 Y151.907 E168.94207
G1 X64.7 Y68.201 E171.72614
G1 X64.857 Y67.582 E171.74738
G1 X65.353 Y66.849 E171.77682
G1 X65.99 Y66.419 E171.80238
G1 X66.593 Y66.2 E171.82372
G0 F9000 X66.664 Y66.6
G1 F1800 X153.153 Y66.6 E174.70036
G1 X153.567 Y66.664 E174.71429
G1 X154.063 Y66.93 E174.73301
G1 X154.57 Y67.437 E174.75686
G1 X154.836 Y67.933 E174.77558
G1 X154.9 Y68.347 E174.78951
G1 X154.9 Y151.748 E177.56344
G1 X154.772 Y152.253 E177.58077
G1 X154.359 Y152.863 E177.60527
G1 X153.829 Y153.221 E177.62654
G1 X153.336 Y153.4 E177.64398
G1 X66.752 Y153.4 E180.52378
G1 X66.247 Y153.272 E180.54111
G1 X65.637 Y152.859 E180.56561
G1 X65.279 Y152.329 E180.58688
G1 X65.1 Y151.836 E180.60433
G1 X65.1 Y68.252 E183.38434
G1 X65.228 Y67.747 E183.40167
G1 X65.641 Y67.137 E183.42617
G1 X66.171 Y66.779 E183.44744
G1 X66.664 Y66.6 E183.46489
G0 F9000 X66.735 Y67
G1 F1800 X153.153 Y67 E186.33916
G1 X153.438 Y67.048 E186.34877
G1 X153.82 Y67.253 E186.36319
G1 X154.247 Y67.68 E186.38328
G1 X154.452 Y68.062 E186.3977
G1 X154.5 Y68.347 E186.40731
G1 X154.5 Y151.697 E189.17954
G1 X154.401 Y152.088 E189.19296
G1 X154.073 Y152.573 E189.21243
G1 X153.645 Y152.862 E189.22961
G1 X153.265 Y153 E189.24305
G1 X66.803 Y153 E192.11879
G1 X66.412 Y152.901 E192.13221
G1 X65.927 Y152.573 E192.15168
G1 X65.638 Y152.145 E192.16886
G1 X65.5 Y151.765 E192.1823
G1 X65.5 Y68.303 E194.95826
G1 X65.599 Y67.912 E194.97168
G1 X65.927 Y67.427 E194.99115
G1 X66.355 Y67.138 E195.00833
G1 X66.735 Y67 E195.02177
G0 F9000 X66.803 Y67.8
G1 F1800 X153.153 Y67.8 E197.89379
G1 X153.294 Y67.859 E197.89887
G1 X153.641 Y68.206 E197.91519
G1 X153.7 Y68.347 E197.92028
G1 X153.7 Y151.697 E200.69251
G1 X153.497 Y151.997 E200.70456
G1 X153.197 Y152.2 E200.7166
G1 X66.803 Y152.2 E203.59008
G1 X66.503 Y151.997 E203.60213
G1 X66.3 Y151.697 E203.61417
G1 X66.3 Y68.303 E206.38787
G1 X66.503 Y68.003 E206.39992
G1 X66.803 Y67.8 E206.41197
G0 F9000 X66.803 Y67.4
G1 F1800 X153.153 Y67.4 E209.28398
G1 X153.307 Y67.431 E209.2892
G1 X153.577 Y67.576 E209.2994
G1 X153.924 Y67.923 E209.31572
G1 X154.069 Y68.193 E209.32591
G1 X154.1 Y68.347 E209.33114
G1 X154.1 Y151.697 E212.10337
G1 X154.031 Y151.921 E212.11116
G1 X153.785 Y152.285 E212.12578
G1 X153.421 Y152.531 E212.14039
G1 X153.197 Y152.6 E212.14818
G1 X66.803 Y152.6 E215.02166
G1 X66.579 Y152.531 E215.02946
G1 X66.215 Y152.285 E215.04407
G1 X65.969 Y151.921 E215.05868
G1 X65.9 Y151.697 E215.06648
G1 X65.9 Y68.303 E217.84017
G1 X65.969 Y68.079 E217.84797
G1 X66.215 Y67.715 E217.86258
G1 X66.579 Y67.469 E217.87719
G1 X66.803 Y67.4 E217.88499
G1 F2400 E217.08499
;MESH:Facemask96.stl
G0 F9000 X84.725 Y97.546
G0 X84.765 Y106.589
G0 X86.978 Y111.546
G0 X88.928 Y112.99
G0 X90.462 Y113.318
;TYPE:WALL-INNER
G1 F2400 E217.88499
G1 F1800 X89.025 Y113.148 E217.93312
G1 X88.652 Y112.976 E217.94678
G1 X87.018 Y111.764 E218.01444
G1 X86.808 Y111.538 E218.0247
G1 X84.657 Y106.717 E218.20029
G1 X84.621 Y106.48 E218.20826
G1 X84.899 Y97.642 E218.50236
G1 X84.967 Y97.393 E218.51094
G1 X87.091 Y93.46 E218.65961
G1 X87.292 Y93.22 E218.67003
G1 X88.972 Y92.174 E218.73585
G1 X89.246 Y92.073 E218.74556
G1 X90.101 Y91.947 E218.7743
G1 X90.374 Y91.962 E218.7834
G1 X91.826 Y92.351 E218.8334
G1 X92.176 Y92.554 E218.84685
G1 X94.035 Y94.414 E218.93432
G1 X94.196 Y94.683 E218.94474
G1 X96.074 Y101.13 E219.16809
G1 X96.079 Y101.412 E219.17747
G1 X94.844 Y109.324 E219.44381
G1 X94.748 Y109.608 E219.45378
G1 X92.714 Y112.343 E219.56714
G1 X92.465 Y112.57 E219.57835
G1 X90.804 Y113.294 E219.63861
G1 X90.462 Y113.318 E219.65002
G0 F9000 X90.491 Y112.919
G1 F1800 X89.09 Y112.758 E219.69692
G1 X88.89 Y112.655 E219.7044
G1 X87.247 Y111.433 E219.77251
G1 X87.111 Y111.241 E219.78033
G1 X85.016 Y106.534 E219.9517
G1 X85.299 Y97.713 E220.24523
G1 X85.367 Y97.495 E220.25283
G1 X87.429 Y93.674 E220.39724
G1 X87.548 Y93.531 E220.40343
G1 X89.247 Y92.476 E220.46995
G1 X90.205 Y92.334 E220.50216
G1 X91.733 Y92.743 E220.55477
G1 X91.909 Y92.852 E220.56165
G1 X93.743 Y94.691 E220.64804
G1 X93.811 Y94.808 E220.65254
G1 X95.696 Y101.281 E220.87677
G1 X94.452 Y109.243 E221.1448
G1 X94.372 Y109.441 E221.15191
G1 X92.374 Y112.124 E221.26317
G1 X92.221 Y112.239 E221.26953
G1 X90.754 Y112.88 E221.32278
G1 X90.491 Y112.919 E221.33162
G1 F2400 E220.53162
G0 F9000 X90.456 Y113.225
G0 X92.638 Y112.661
G0 X126.566 Y111.98
G0 X128.598 Y113.075
G0 X130.17 Y113.404
G1 F2400 E221.33162
G1 F1800 X128.763 Y113.245 E221.37872
G1 X128.429 Y113.14 E221.39036
G1 X126.617 Y111.794 E221.46544
G1 X126.441 Y111.536 E221.47583
G1 X124.359 Y106.871 E221.64574
G1 X124.292 Y106.476 E221.65906
G1 X124.569 Y97.801 E221.94774
G1 X124.65 Y97.461 E221.95937
G1 X126.75 Y93.564 E222.1066
G1 X126.868 Y93.406 E222.11316
G1 X127.078 Y93.231 E222.12225
G1 X128.69 Y92.232 E222.18533
G1 X128.913 Y92.157 E222.19316
G1 X129.769 Y92.031 E222.22193
G1 X130.042 Y92.046 E222.23103
G1 X131.606 Y92.465 E222.28488
G1 X131.884 Y92.676 E222.29649
G1 X133.677 Y94.473 E222.38092
G1 X133.861 Y94.78 E222.39282
G1 X135.742 Y101.225 E222.61613
G1 X135.746 Y101.459 E222.62391
G1 X134.514 Y109.381 E222.89057
G1 X134.375 Y109.741 E222.9034
G1 X132.329 Y112.499 E223.01762
G1 X132.055 Y112.688 E223.02869
G1 X130.473 Y113.377 E223.08608
G1 X130.17 Y113.404 E223.0962
G0 F9000 X130.159 Y113.003
G1 F1800 X128.778 Y112.841 E223.14245
G1 X128.575 Y112.751 E223.14983
G1 X126.942 Y111.537 E223.21751
G1 X126.816 Y111.398 E223.22375
G1 X124.732 Y106.726 E223.3939
G1 X124.693 Y106.551 E223.39986
G1 X124.971 Y97.793 E223.6913
G1 X125.006 Y97.647 E223.69629
G1 X127.093 Y93.77 E223.84274
