;FLAVOR:Marlin
;TIME:935
;Filament used: 0.653413m
;Layer height: 0.16
;MINX:94.198
;MINY:69.911
;MINZ:0.2
;MAXX:129.739
;MAXY:149.434
;MAXZ:4.4
;TARGET_MACHINE.NAME:Creality Ender-3 V3 SE
;Generated with Cura_SteamEngine 5.9.1
M82 ;absolute extrusion mode
M220 S100 ;Reset Feedrate
M221 S100 ;Reset Flowrate

G28 ;Home

M420 S1; Use saved mesh leveling data

G92 E0 ;Reset Extruder
G1 Z2.0 F3000 ;Move Z Axis up
G1 X-3 Y20 Z0.28 F5000.0 ;Move to start position
M190 S60 ; Set bed temperature and wait
M109 S200 ; Set hotend temperature and wait
G1 X-3 Y100.0 Z0.28 F1500.0 E15 ;Draw the first line
G1 X-2 Y100.0 Z0.28 F5000.0 ;Move to side a little
G1 X-2 Y20 Z0.28 F1500.0 E30 ;Draw the second line
G92 E0 ;Reset Extruder
G1 E-1.0000 F1800 ;Retract a bit
G1 Z2.0 F3000 ;Move Z Axis up
G1 E0.0000 F1800 

G92 E0
G92 E0
G1 F2400 E-0.8
;LAYER_COUNT:22
;LAYER:0
M107
G0 F9000 X111.511 Y149.307 Z0.2
;TYPE:SKIRT
G1 F2400 E0
G1 F1800 X110.338 Y149.434 E0.03924
G1 X108.195 Y149.055 E0.11162
G1 X106.511 Y148.301 E0.17299
G1 X105.841 Y147.768 E0.20147
G1 X105.293 Y147.609 E0.22045
G1 X104.421 Y147.051 E0.25488
G1 X103.802 Y146.696 E0.27861
G1 X102.549 Y145.84 E0.32908
G1 X102.32 Y145.653 E0.33892
G1 X101.135 Y145.147 E0.38177
G1 X99.308 Y143.399 E0.46587
G1 X98.315 Y141.791 E0.52873
G1 X97.949 Y140.624 E0.56941
G1 X97.489 Y139.83 E0.59993
G1 X97.41 Y139.652 E0.60641
G1 X97.159 Y139.475 E0.61662
G1 X95.868 Y138.059 E0.68035
G1 X94.899 Y136.26 E0.74832
G1 X94.423 Y134.531 E0.80796
G1 X94.355 Y133.519 E0.8417
G1 X94.198 Y132.026 E0.89163
G1 X94.597 Y129.839 E0.96557
G1 X95.516 Y127.687 E1.0434
G1 X97.19 Y125.915 E1.12448
G1 X97.721 Y125.47 E1.14752
G1 X107.011 Y74.902 E2.85757
G1 X107.791 Y73.147 E2.92144
G1 X109.387 Y71.393 E3.00032
G1 X111.199 Y70.419 E3.06874
G1 X111.949 Y70.151 E3.09523
G1 X113.941 Y69.911 E3.16196
G1 X115.243 Y70.143 E3.20595
G1 X116.751 Y70.603 E3.25839
G1 X118.533 Y71.75 E3.32887
G1 X119.851 Y73.466 E3.40084
G1 X120.273 Y74.418 E3.43547
G1 X120.591 Y75.569 E3.47519
G1 X126.569 Y122.59 E5.0517
G1 X127.431 Y123.558 E5.09482
G1 X128.253 Y125.218 E5.15643
G1 X128.615 Y126.043 E5.18639
G1 X128.942 Y126.957 E5.21868
G1 X129.457 Y129.041 E5.29008
G1 X129.498 Y129.3 E5.2988
G1 X129.739 Y130.568 E5.34173
G1 X129.666 Y132.119 E5.39337
G1 X129.599 Y132.452 E5.40467
G1 X129.69 Y132.786 E5.41618
G1 X129.634 Y134.614 E5.47701
G1 X129.216 Y136.401 E5.53805
G1 X128.975 Y137.318 E5.56959
G1 X128.594 Y138.398 E5.60768
G1 X128.151 Y139.38 E5.64351
G1 X127.33 Y141.11 E5.7072
G1 X126.265 Y142.225 E5.75848
G1 X126.115 Y142.684 E5.77454
G1 X124.831 Y144.183 E5.84019
G1 X123.576 Y145.313 E5.89636
G1 X122.542 Y146.1 E5.93958
G1 X121.356 Y146.859 E5.98641
G1 X119.161 Y148.065 E6.06971
G1 X117.557 Y148.284 E6.12355
G1 X115.988 Y149.009 E6.18104
G1 X114.332 Y149.127 E6.23626
G1 X113.719 Y149.185 E6.25674
G1 X112.838 Y149.229 E6.28608
G1 X111.996 Y149.206 E6.31409
G1 X111.511 Y149.307 E6.33057
G0 F9000 X112.847 Y148.829
G1 F1800 X112.099 Y148.813 E6.35545
G1 X111.973 Y148.803 E6.35966
G1 X111.468 Y148.909 E6.37682
G1 X110.351 Y149.03 E6.41419
G1 X108.312 Y148.669 E6.48306
G1 X106.721 Y147.957 E6.54104
G1 X106.028 Y147.406 E6.57048
G1 X105.461 Y147.241 E6.59012
G1 X104.637 Y146.714 E6.62266
G1 X104.027 Y146.365 E6.64603
G1 X102.802 Y145.53 E6.69534
G1 X102.529 Y145.307 E6.70706
G1 X101.36 Y144.808 E6.74934
G1 X99.62 Y143.143 E6.82944
G1 X98.683 Y141.626 E6.88874
G1 X98.318 Y140.462 E6.92932
G1 X97.855 Y139.668 E6.95989
G1 X97.731 Y139.389 E6.97004
G1 X97.427 Y139.174 E6.98243
G1 X96.196 Y137.824 E7.04319
G1 X95.273 Y136.111 E7.10791
G1 X94.819 Y134.462 E7.1648
G1 X94.753 Y133.477 E7.19763
G1 X94.602 Y132.039 E7.24572
G1 X94.982 Y129.957 E7.31611
G1 X95.856 Y127.911 E7.39011
G1 X97.481 Y126.19 E7.46884
G1 X98.088 Y125.685 E7.4951
G1 X107.395 Y75.024 E9.20829
G1 X108.131 Y73.368 E9.26856
G1 X109.637 Y71.713 E9.34299
G1 X111.333 Y70.796 E9.40712
G1 X112.042 Y70.543 E9.43215
G1 X113.929 Y70.315 E9.49537
G1 X115.126 Y70.526 E9.5358
G1 X116.585 Y70.971 E9.58653
G1 X118.257 Y72.047 E9.65266
G1 X119.504 Y73.671 E9.72076
G1 X119.887 Y74.525 E9.75189
G1 X120.205 Y75.676 E9.79161
G1 X126.188 Y122.764 E11.37036
G1 X127.097 Y123.785 E11.41582
G1 X127.887 Y125.379 E11.47499
G1 X128.238 Y126.178 E11.50402
G1 X128.565 Y127.092 E11.53631
G1 X129.062 Y129.104 E11.60524
G1 X129.105 Y129.375 E11.61436
G1 X129.337 Y130.595 E11.65567
G1 X129.266 Y132.1 E11.70578
G1 X129.187 Y132.462 E11.7181
G1 X129.288 Y132.833 E11.73089
G1 X129.235 Y134.565 E11.78853
G1 X128.829 Y136.299 E11.84776
G1 X128.588 Y137.216 E11.87929
G1 X128.229 Y138.234 E11.9152
G1 X127.79 Y139.209 E11.95076
G1 X126.997 Y140.88 E12.01228
G1 X125.913 Y142.015 E12.06448
G1 X125.76 Y142.484 E12.08089
G1 X124.563 Y143.886 E12.1422
G1 X123.333 Y144.995 E12.19729
G1 X122.326 Y145.763 E12.23941
G1 X121.163 Y146.508 E12.28535
G1 X119.031 Y147.679 E12.36625
G1 X117.443 Y147.896 E12.41956
G1 X115.887 Y148.615 E12.47657
G1 X114.304 Y148.728 E12.52935
G1 X113.681 Y148.787 E12.55017
G1 X112.847 Y148.829 E12.57794
G0 F9000 X113.643 Y148.389
G1 F1800 X112.855 Y148.429 E12.60418
G1 X112.13 Y148.414 E12.6283
G1 X111.948 Y148.4 E12.63437
G1 X111.425 Y148.511 E12.65215
G1 X110.364 Y148.626 E12.68765
G1 X108.43 Y148.284 E12.75297
G1 X106.93 Y147.612 E12.80764
G1 X106.216 Y147.044 E12.83799
G1 X105.63 Y146.874 E12.85828
G1 X104.853 Y146.377 E12.88896
G1 X104.252 Y146.034 E12.91197
G1 X103.055 Y145.22 E12.96012
G1 X102.738 Y144.961 E12.97374
G1 X101.585 Y144.469 E13.01543
G1 X99.932 Y142.887 E13.09153
G1 X99.051 Y141.461 E13.14728
G1 X98.687 Y140.301 E13.18772
G1 X98.22 Y139.505 E13.21841
G1 X98.051 Y139.125 E13.23224
G1 X97.692 Y138.871 E13.24687
G1 X96.525 Y137.591 E13.30448
G1 X95.647 Y135.962 E13.36603
G1 X95.215 Y134.393 E13.42016
G1 X95.151 Y133.435 E13.45209
G1 X95.006 Y132.055 E13.49824
G1 X95.368 Y130.071 E13.56532
G1 X96.196 Y128.133 E13.63542
G1 X97.737 Y126.498 E13.71014
G1 X98.455 Y125.901 E13.7412
G1 X107.779 Y75.146 E15.45757
G1 X108.471 Y73.589 E15.51424
G1 X109.888 Y72.032 E15.58426
G1 X111.468 Y71.173 E15.64408
G1 X112.137 Y70.934 E15.6677
G1 X113.917 Y70.719 E15.72734
G1 X115.056 Y70.92 E15.76581
G1 X116.414 Y71.336 E15.81305
G1 X117.982 Y72.346 E15.87508
G1 X119.159 Y73.879 E15.93936
G1 X119.501 Y74.632 E15.96687
G1 X119.819 Y75.783 E16.00659
G1 X125.807 Y122.937 E17.58753
G1 X126.763 Y124.012 E17.63538
G1 X127.521 Y125.54 E17.69211
G1 X127.861 Y126.313 E17.7202
G1 X128.188 Y127.227 E17.75248
G1 X128.667 Y129.167 E17.81895
G1 X128.712 Y129.45 E17.82848
G1 X128.935 Y130.622 E17.86816
G1 X128.866 Y132.081 E17.91674
G1 X128.774 Y132.47 E17.93003
G1 X128.886 Y132.88 E17.94417
G1 X128.836 Y134.511 E17.99844
G1 X128.442 Y136.197 E18.05603
G1 X128.201 Y137.114 E18.08756
G1 X127.864 Y138.07 E18.12128
G1 X127.429 Y139.037 E18.15655
G1 X126.663 Y140.651 E18.21597
G1 X125.561 Y141.805 E18.26904
G1 X125.404 Y142.284 E18.2858
G1 X124.295 Y143.589 E18.34276
G1 X123.09 Y144.677 E18.39676
G1 X122.11 Y145.426 E18.43779
G1 X120.947 Y146.171 E18.48372
G1 X118.902 Y147.293 E18.56131
G1 X117.329 Y147.508 E18.61411
G1 X115.786 Y148.221 E18.67064
G1 X114.275 Y148.329 E18.72103
G1 X113.643 Y148.389 E18.74214
G0 F9000 X114.246 Y147.93
G1 F1800 X113.605 Y147.991 E18.76356
G1 X112.863 Y148.029 E18.78827
G1 X112.16 Y148.015 E18.81166
G1 X111.921 Y147.997 E18.81963
G1 X111.382 Y148.113 E18.83797
G1 X110.377 Y148.222 E18.87159
G1 X108.547 Y147.898 E18.9334
G1 X107.14 Y147.268 E18.98468
G1 X106.404 Y146.682 E19.01597
G1 X105.799 Y146.507 E19.03691
G1 X105.058 Y146.033 E19.06617
G1 X104.477 Y145.703 E19.0884
G1 X103.308 Y144.91 E19.13538
G1 X102.947 Y144.615 E19.15088
G1 X101.808 Y144.129 E19.19207
G1 X100.245 Y142.634 E19.26401
G1 X99.419 Y141.296 E19.31631
G1 X99.056 Y140.138 E19.35667
G1 X98.565 Y139.302 E19.38892
G1 X98.372 Y138.861 E19.40493
G1 X97.957 Y138.568 E19.42183
G1 X96.854 Y137.358 E19.47628
G1 X96.021 Y135.813 E19.53466
G1 X95.611 Y134.324 E19.58603
G1 X95.549 Y133.393 E19.61706
G1 X95.41 Y132.068 E19.66137
G1 X95.753 Y130.189 E19.7249
G1 X96.536 Y128.357 E19.79117
G1 X97.993 Y126.806 E19.86195
G1 X98.822 Y126.117 E19.8978
G1 X108.163 Y75.268 E21.61734
G1 X108.811 Y73.81 E21.67041
G1 X110.138 Y72.351 E21.73601
G1 X111.602 Y71.55 E21.79151
G1 X112.23 Y71.326 E21.81369
G1 X113.905 Y71.123 E21.8698
G1 X114.986 Y71.314 E21.90632
G1 X116.243 Y71.702 E21.95007
G1 X117.707 Y72.645 E22.00799
G1 X118.815 Y74.088 E22.0685
G1 X119.115 Y74.739 E22.09234
G1 X119.433 Y75.89 E22.13206
G1 X125.426 Y123.11 E23.7152
G1 X126.429 Y124.239 E23.76543
G1 X127.155 Y125.701 E23.81972
G1 X127.484 Y126.448 E23.84687
G1 X127.811 Y127.362 E23.87916
G1 X128.272 Y129.23 E23.94315
G1 X128.319 Y129.525 E23.95309
G1 X128.533 Y130.649 E23.99114
G1 X128.466 Y132.062 E24.03819
G1 X128.36 Y132.475 E24.05237
G1 X128.484 Y132.928 E24.06799
G1 X128.437 Y134.462 E24.11904
G1 X128.055 Y136.096 E24.17485
G1 X127.824 Y136.981 E24.20527
G1 X127.499 Y137.906 E24.23788
G1 X127.068 Y138.865 E24.27285
G1 X126.329 Y140.422 E24.33017
G1 X125.209 Y141.595 E24.38412
G1 X125.048 Y142.086 E24.4013
G1 X124.027 Y143.292 E24.45386
G1 X122.847 Y144.359 E24.50677
G1 X121.894 Y145.089 E24.5467
G1 X120.731 Y145.834 E24.59264
G1 X118.773 Y146.907 E24.6669
G1 X117.215 Y147.12 E24.7192
G1 X115.685 Y147.827 E24.77526
G1 X114.246 Y147.93 E24.82324
G0 F9000 X115.584 Y147.433
G1 F1800 X114.217 Y147.531 E24.86882
G1 X113.567 Y147.593 E24.89054
G1 X112.871 Y147.629 E24.91372
G1 X112.191 Y147.616 E24.93634
G1 X111.892 Y147.593 E24.94632
G1 X111.339 Y147.715 E24.96515
G1 X110.39 Y147.818 E24.9969
G1 X108.664 Y147.512 E25.0552
G1 X107.35 Y146.924 E25.10308
G1 X106.592 Y146.32 E25.13532
G1 X105.966 Y146.139 E25.15699
G1 X105.256 Y145.685 E25.18502
G1 X104.675 Y145.355 E25.20725
G1 X103.561 Y144.6 E25.25201
G1 X103.156 Y144.269 E25.2694
G1 X102.033 Y143.79 E25.31001
G1 X100.557 Y142.378 E25.37795
G1 X99.787 Y141.131 E25.42669
G1 X99.425 Y139.976 E25.46695
G1 X98.932 Y139.142 E25.49917
G1 X98.695 Y138.599 E25.51888
G1 X98.224 Y138.267 E25.53805
G1 X97.183 Y137.125 E25.58944
G1 X96.395 Y135.664 E25.64465
G1 X96.007 Y134.255 E25.69326
G1 X95.947 Y133.351 E25.72339
G1 X95.814 Y132.084 E25.76577
G1 X96.139 Y130.303 E25.82598
G1 X96.876 Y128.58 E25.88831
G1 X98.285 Y127.08 E25.95676
G1 X99.189 Y126.333 E25.99576
G1 X108.547 Y75.39 E27.71848
G1 X109.151 Y74.031 E27.76795
G1 X110.389 Y72.669 E27.82917
G1 X111.737 Y71.927 E27.88034
G1 X112.325 Y71.717 E27.90111
G1 X113.893 Y71.527 E27.95364
G1 X114.916 Y71.708 E27.9882
G1 X116.073 Y72.068 E28.0285
G1 X117.432 Y72.944 E28.08228
G1 X118.471 Y74.296 E28.13899
G1 X118.729 Y74.846 E28.15919
G1 X119.047 Y75.997 E28.19891
G1 X125.051 Y123.332 E29.78589
G1 X125.192 Y123.449 E29.79199
G1 X126.095 Y124.466 E29.83722
G1 X126.789 Y125.863 E29.8891
G1 X127.107 Y126.583 E29.91528
G1 X127.434 Y127.497 E29.94757
G1 X127.877 Y129.293 E30.0091
G1 X127.926 Y129.6 E30.01944
G1 X128.131 Y130.676 E30.05587
G1 X128.068 Y132.006 E30.10015
G1 X127.946 Y132.479 E30.1164
G1 X128.082 Y132.976 E30.13354
G1 X128.038 Y134.413 E30.18136
G1 X127.668 Y135.995 E30.23539
G1 X127.446 Y136.849 E30.26474
G1 X127.134 Y137.742 E30.2962
G1 X126.707 Y138.693 E30.33088
G1 X125.995 Y140.193 E30.3861
G1 X124.857 Y141.385 E30.44091
G1 X124.692 Y141.887 E30.45849
G1 X123.758 Y142.996 E30.50671
G1 X122.603 Y144.042 E30.55854
G1 X121.678 Y144.752 E30.59732
G1 X120.515 Y145.497 E30.64326
G1 X118.645 Y146.521 E30.71417
G1 X117.101 Y146.732 E30.766
G1 X115.584 Y147.433 E30.82159
G0 F9000 X115.483 Y147.039
G1 F1800 X114.188 Y147.132 E30.86477
G1 X113.529 Y147.195 E30.88679
G1 X112.878 Y147.229 E30.90847
G1 X112.221 Y147.217 E30.93032
G1 X111.865 Y147.19 E30.9422
G1 X111.296 Y147.317 E30.96159
G1 X110.403 Y147.414 E30.99147
G1 X108.782 Y147.127 E31.04622
G1 X107.559 Y146.579 E31.09079
G1 X106.78 Y145.958 E31.12393
G1 X106.133 Y145.771 E31.14633
G1 X105.454 Y145.337 E31.17313
G1 X104.873 Y145.007 E31.19535
G1 X103.814 Y144.29 E31.23789
G1 X103.365 Y143.923 E31.25718
G1 X102.258 Y143.451 E31.2972
G1 X100.869 Y142.122 E31.36114
G1 X100.154 Y140.964 E31.40641
G1 X99.824 Y139.928 E31.44257
G1 X99.801 Y139.826 E31.44605
G1 X99.299 Y138.982 E31.47871
G1 X99.018 Y138.337 E31.50211
G1 X98.493 Y137.968 E31.52345
G1 X97.51 Y136.89 E31.57198
G1 X96.769 Y135.515 E31.62393
G1 X96.403 Y134.186 E31.66978
G1 X96.345 Y133.309 E31.69901
G1 X96.218 Y132.097 E31.73954
G1 X96.524 Y130.421 E31.79621
G1 X97.216 Y128.803 E31.85474
G1 X98.577 Y127.354 E31.92086
G1 X99.555 Y126.549 E31.96299
G1 X108.931 Y75.512 E33.68889
G1 X109.491 Y74.252 E33.73475
G1 X110.64 Y72.988 E33.79157
G1 X111.872 Y72.304 E33.83843
G1 X112.42 Y72.108 E33.85779
G1 X113.882 Y71.931 E33.90677
G1 X114.797 Y72.09 E33.93766
G1 X115.902 Y72.434 E33.97615
G1 X117.157 Y73.243 E34.02582
G1 X118.129 Y74.508 E34.07888
G1 X118.343 Y74.953 E34.0953
G1 X118.661 Y76.104 E34.13502
G1 X124.675 Y123.552 E35.72577
G1 X124.893 Y123.714 E35.7348
G1 X125.76 Y124.691 E35.77825
G1 X126.423 Y126.025 E35.8278
G1 X126.741 Y126.745 E35.85397
G1 X127.057 Y127.631 E35.88526
G1 X127.482 Y129.356 E35.94435
G1 X127.533 Y129.675 E35.9551
G1 X127.729 Y130.703 E35.9899
G1 X127.67 Y131.949 E36.03139
G1 X127.532 Y132.483 E36.04974
G1 X127.68 Y133.024 E36.06839
G1 X127.639 Y134.364 E36.11298
G1 X127.281 Y135.895 E36.16527
G1 X127.068 Y136.717 E36.19352
G1 X126.756 Y137.61 E36.22498
G1 X126.525 Y138.108 E36.24324
G1 X126.346 Y138.521 E36.25821
G1 X125.661 Y139.964 E36.31134
G1 X124.637 Y141.037 E36.36067
G1 X124.519 Y141.132 E36.36571
G1 X124.336 Y141.69 E36.38524
G1 X123.489 Y142.7 E36.42908
G1 X122.334 Y143.746 E36.48091
G1 X121.462 Y144.415 E36.51746
G1 X120.299 Y145.16 E36.5634
G1 X118.517 Y146.135 E36.63096
G1 X116.987 Y146.344 E36.68232
G1 X115.483 Y147.039 E36.73743
G0 F9000 X115.38 Y146.645
G1 F1800 X114.159 Y146.733 E36.77814
G1 X113.508 Y146.796 E36.7999
G1 X112.885 Y146.829 E36.82065
G1 X112.251 Y146.818 E36.84174
G1 X111.836 Y146.787 E36.85558
G1 X111.253 Y146.919 E36.87546
G1 X110.416 Y147.01 E36.90346
G1 X108.899 Y146.741 E36.95471
G1 X107.769 Y146.235 E36.99589
G1 X106.968 Y145.596 E37.02997
G1 X106.3 Y145.403 E37.05309
G1 X105.652 Y144.989 E37.07867
G1 X105.071 Y144.659 E37.10089
G1 X104.067 Y143.98 E37.14121
G1 X103.574 Y143.577 E37.16238
G1 X102.483 Y143.112 E37.20183
G1 X101.181 Y141.866 E37.26177
G1 X100.52 Y140.796 E37.3036
G1 X100.205 Y139.807 E37.33812
G1 X100.181 Y139.683 E37.34232
G1 X99.666 Y138.822 E37.37569
G1 X99.34 Y138.075 E37.4028
G1 X98.759 Y137.667 E37.42641
G1 X97.839 Y136.657 E37.47185
G1 X97.143 Y135.366 E37.52063
G1 X96.799 Y134.117 E37.56372
G1 X96.743 Y133.267 E37.59206
G1 X96.622 Y132.11 E37.63075
G1 X96.909 Y130.539 E37.68386
G1 X97.556 Y129.024 E37.73866
G1 X98.831 Y127.663 E37.80068
G1 X99.921 Y126.765 E37.84766
G1 X109.315 Y75.634 E39.57674
G1 X109.831 Y74.473 E39.619
G1 X110.892 Y73.305 E39.67148
G1 X112.007 Y72.681 E39.71398
G1 X112.515 Y72.499 E39.73193
G1 X113.872 Y72.335 E39.77739
G1 X114.678 Y72.472 E39.80458
G1 X115.731 Y72.8 E39.84127
G1 X116.882 Y73.542 E39.88681
G1 X117.786 Y74.718 E39.93615
G1 X117.957 Y75.06 E39.94887
G1 X118.275 Y76.211 E39.98858
G1 X124.301 Y123.784 E41.58351
G1 X124.594 Y123.979 E41.59522
G1 X125.425 Y124.916 E41.63687
G1 X126.057 Y126.187 E41.68408
G1 X126.375 Y126.907 E41.71026
G1 X126.68 Y127.765 E41.74055
G1 X127.087 Y129.419 E41.7972
G1 X127.14 Y129.75 E41.80835
G1 X127.327 Y130.73 E41.84153
G1 X127.272 Y131.892 E41.88023
G1 X127.118 Y132.487 E41.90067
G1 X127.278 Y133.072 E41.92084
G1 X127.24 Y134.315 E41.9622
G1 X126.894 Y135.795 E42.01275
G1 X126.69 Y136.585 E42.03989
G1 X126.378 Y137.478 E42.07135
G1 X126.158 Y137.949 E42.08864
G1 X125.985 Y138.349 E42.10314
G1 X125.327 Y139.735 E42.15417
G1 X124.348 Y140.761 E42.20134
G1 X124.178 Y140.888 E42.20839
G1 X123.98 Y141.491 E42.2295
G1 X123.182 Y142.443 E42.27082
G1 X122.09 Y143.429 E42.31975
G1 X121.246 Y144.078 E42.35517
G1 X120.083 Y144.823 E42.4011
G1 X118.389 Y145.749 E42.46531
G1 X116.854 Y145.959 E42.51684
G1 X116.771 Y146.008 E42.52005
G1 X115.38 Y146.645 E42.57094
G0 F9000 X115.279 Y146.251
G1 F1800 X114.13 Y146.334 E42.60925
