;FLAVOR:Marlin
;TIME:741
;Filament used: 0.368408m
;Layer height: 0.2
;MINX:91.849
;MINY:84.4
;MINZ:0.2
;MAXX:128.127
;MAXY:135.582
;MAXZ:6.2
;TARGET_MACHINE.NAME:Creality Ender-3 V3 SE
;Generated with Cura_SteamEngine 5.10.0
M220 S100 ;Reset Feedrate
M221 S100 ;Reset Flowrate

G28 ;Home

M420 S1; Use saved mesh leveling data

G92 E0 ;Reset Extruder
G1 Z2.0 F3000 ;Move Z Axis up
G1 X-3 Y20 Z0.28 F5000.0 ;Move to start position
M190 S60 ; Set bed temperature and wait
M109 S200 ; Set hotend temperature and wait
G1 X-3 Y100.0 Z0.28 F1500.0 E15 ;Draw the first line
G1 X-2 Y100.0 Z0.28 F5000.0 ;Move to side a little
G1 X-2 Y20 Z0.28 F1500.0 E30 ;Draw the second line
G92 E0 ;Reset Extruder
G1 E-1.0000 F1800 ;Retract a bit
G1 Z2.0 F3000 ;Move Z Axis up
G1 E0.0000 F1800 

M82 ;absolute extrusion mode
G92 E0
G92 E0
G1 F2400 E-0.8
;LAYER_COUNT:31
;LAYER:0
M107
G0 F9000 X94.955 Y88.325 Z0.2
;TYPE:SKIRT
G1 F2400 E0
G1 F1800 X96.314 Y87.176 E0.05919
G1 X97.227 Y86.603 E0.09504
G1 X98.378 Y86.049 E0.13753
G1 X99.438 Y85.687 E0.17478
G1 X101.28 Y85.319 E0.23726
G1 X101.964 Y85.276 E0.26005
G1 X102.944 Y85.325 E0.29269
G1 X104.022 Y84.912 E0.33109
G1 X104.781 Y84.71 E0.35721
G1 X106.635 Y84.423 E0.41961
G1 X107.101 Y84.4 E0.43513
G1 X109.322 Y84.558 E0.50918
G1 X110.333 Y84.767 E0.54352
G1 X111.847 Y85.249 E0.59637
G1 X112.409 Y85.495 E0.61677
G1 X113.924 Y86.35 E0.67463
G1 X115.105 Y87.224 E0.7235
G1 X115.77 Y87.836 E0.75356
G1 X116.803 Y88.944 E0.80394
G1 X117.942 Y90.906 E0.8794
G1 X118.027 Y91.364 E0.89489
G1 X118.899 Y92.993 E0.95634
G1 X119.033 Y94 E0.99013
G1 X119.444 Y94.153 E1.00472
G1 X121.426 Y94.813 E1.0742
G1 X122.765 Y95.442 E1.1234
G1 X123.635 Y95.988 E1.15757
G1 X125.231 Y97.326 E1.22684
G1 X125.535 Y97.657 E1.24178
G1 X126.726 Y99.352 E1.31068
G1 X127.398 Y100.738 E1.36192
G1 X127.896 Y102.299 E1.41641
G1 X128.005 Y102.854 E1.43522
G1 X128.127 Y105.273 E1.51578
G1 X128.04 Y106.051 E1.54182
G1 X127.67 Y107.702 E1.5981
G1 X127.141 Y109.056 E1.64644
G1 X126.404 Y110.372 E1.69661
G1 X125.427 Y111.639 E1.74983
G1 X124.541 Y112.511 E1.79117
G1 X123.591 Y113.244 E1.83108
G1 X122.198 Y114.047 E1.88456
G1 X120.735 Y114.634 E1.93699
G1 X120.423 Y114.723 E1.94778
G1 X119.524 Y115.019 E1.97926
G1 X119.119 Y115.172 E1.99366
G1 X119.078 Y115.337 E1.99932
G1 X119.246 Y115.869 E2.01787
G1 X119.227 Y124.369 E2.30058
G1 X119.168 Y125.083 E2.32441
G1 X118.828 Y126.879 E2.38521
G1 X118.402 Y128.192 E2.43112
G1 X118.152 Y128.764 E2.45188
G1 X117.194 Y130.454 E2.51649
G1 X116.841 Y130.944 E2.53658
G1 X115.706 Y132.214 E2.59323
G1 X114.637 Y133.144 E2.64036
G1 X113.297 Y134.044 E2.69405
G1 X112.426 Y134.494 E2.72665
G1 X111.332 Y134.939 E2.76594
G1 X109.735 Y135.365 E2.82091
G1 X108.305 Y135.558 E2.8689
G1 X106.95 Y135.582 E2.91398
G1 X105.783 Y135.481 E2.95294
G1 X104.821 Y135.303 E2.98548
G1 X103.704 Y134.983 E3.02412
G1 X101.915 Y134.213 E3.0889
G1 X100.875 Y133.594 E3.12916
G1 X99.832 Y132.807 E3.17261
G1 X99.064 Y132.096 E3.20742
G1 X97.916 Y130.751 E3.26624
G1 X97.412 Y129.995 E3.29646
G1 X96.646 Y128.535 E3.3513
G1 X96.286 Y127.606 E3.38443
G1 X95.844 Y125.973 E3.4407
G1 X95.767 Y125.511 E3.45628
G1 X95.646 Y123.82 E3.51267
G1 X95.64 Y121.487 E3.59026
G1 X94.974 Y120.911 E3.61955
G1 X94.261 Y120.122 E3.65492
G1 X93.374 Y118.873 E3.70587
G1 X92.839 Y117.873 E3.74359
G1 X92.265 Y116.385 E3.79664
G1 X92.114 Y115.786 E3.81718
G1 X91.854 Y113.456 E3.89516
G1 X91.908 Y112.347 E3.93209
G1 X92.08 Y111.229 E3.96971
G1 X92.207 Y110.708 E3.98755
G1 X92.38 Y109.861 E4.0163
G1 X92.573 Y108.704 E4.05531
G1 X92.714 Y107.608 E4.09207
G1 X92.807 Y106.635 E4.12458
G1 X92.853 Y105.712 E4.15532
G1 X92.878 Y104.439 E4.19766
G1 X92.852 Y103.428 E4.2313
G1 X92.81 Y102.594 E4.25907
G1 X92.711 Y101.593 E4.29253
G1 X92.539 Y100.271 E4.33687
G1 X92.409 Y99.504 E4.36275
G1 X92.001 Y97.527 E4.42989
G1 X91.849 Y95.776 E4.48834
G1 X91.875 Y95.04 E4.51284
G1 X92.191 Y93.144 E4.57677
G1 X92.622 Y91.818 E4.62314
G1 X93.223 Y90.594 E4.6685
G1 X94.094 Y89.294 E4.72054
G1 X94.955 Y88.325 E4.76366
G0 F9000 X95.254 Y88.591
G1 F1800 X96.527 Y87.515 E4.8191
G1 X97.44 Y86.942 E4.85495
G1 X98.507 Y86.428 E4.89434
G1 X99.567 Y86.066 E4.93159
G1 X101.306 Y85.718 E4.99058
G1 X101.944 Y85.676 E5.01185
G1 X103.008 Y85.729 E5.04728
G1 X104.165 Y85.286 E5.08848
G1 X104.843 Y85.105 E5.11182
G1 X106.655 Y84.823 E5.17282
G1 X107.121 Y84.8 E5.18834
G1 X109.241 Y84.95 E5.25902
G1 X110.252 Y85.159 E5.29336
G1 X111.688 Y85.616 E5.34348
G1 X112.213 Y85.844 E5.36252
G1 X113.686 Y86.672 E5.41872
G1 X114.867 Y87.546 E5.46759
G1 X115.477 Y88.109 E5.4952
G1 X116.48 Y89.185 E5.54412
G1 X117.562 Y91.048 E5.61578
G1 X117.646 Y91.5 E5.63107
G1 X118.513 Y93.12 E5.69218
G1 X118.669 Y94.291 E5.73147
G1 X119.312 Y94.531 E5.7543
G1 X121.3 Y95.193 E5.82399
G1 X122.552 Y95.781 E5.87
G1 X123.422 Y96.327 E5.90416
G1 X124.936 Y97.597 E5.96989
G1 X125.24 Y97.928 E5.98483
G1 X126.366 Y99.527 E6.04988
G1 X127.038 Y100.913 E6.10111
G1 X127.503 Y102.376 E6.15217
G1 X127.612 Y102.931 E6.17098
G1 X127.729 Y105.229 E6.24751
G1 X127.642 Y106.007 E6.27355
G1 X127.297 Y107.556 E6.32633
G1 X126.768 Y108.91 E6.37468
G1 X126.087 Y110.128 E6.42109
G1 X125.146 Y111.354 E6.4725
G1 X124.26 Y112.226 E6.51385
G1 X123.391 Y112.897 E6.55036
G1 X121.998 Y113.7 E6.60384
G1 X120.625 Y114.249 E6.65302
G1 X120.313 Y114.338 E6.66381
G1 X119.39 Y114.642 E6.69613
G1 X118.782 Y114.872 E6.71775
G1 X118.663 Y115.35 E6.73414
G1 X118.846 Y115.932 E6.75443
G1 X118.828 Y124.336 E7.03395
G1 X118.769 Y125.05 E7.05778
G1 X118.435 Y126.804 E7.11716
G1 X118.035 Y128.032 E7.16012
G1 X117.785 Y128.604 E7.18088
G1 X116.869 Y130.22 E7.24266
G1 X116.516 Y130.71 E7.26275
G1 X115.443 Y131.912 E7.31634
G1 X114.374 Y132.842 E7.36347
G1 X113.113 Y133.689 E7.41399
G1 X112.275 Y134.123 E7.44538
G1 X111.181 Y134.568 E7.48466
G1 X109.681 Y134.969 E7.5363
G1 X108.297 Y135.158 E7.58276
G1 X106.984 Y135.183 E7.62644
G1 X105.817 Y135.082 E7.6654
G1 X104.931 Y134.918 E7.69537
G1 X103.814 Y134.598 E7.73402
G1 X102.12 Y133.869 E7.79535
G1 X101.08 Y133.25 E7.83561
G1 X100.104 Y132.513 E7.87629
G1 X99.336 Y131.802 E7.9111
G1 X98.249 Y130.529 E7.96677
G1 X97.745 Y129.773 E7.99699
G1 X97.019 Y128.39 E8.04894
G1 X96.659 Y127.461 E8.08208
G1 X96.239 Y125.907 E8.13562
G1 X96.162 Y125.445 E8.1512
G1 X96.046 Y123.819 E8.20542
G1 X96.039 Y121.303 E8.2891
G1 X95.27 Y120.642 E8.32283
G1 X94.587 Y119.89 E8.35662
G1 X93.727 Y118.684 E8.40588
G1 X93.192 Y117.684 E8.4436
G1 X92.652 Y116.285 E8.49348
G1 X92.512 Y115.742 E8.51213
G1 X92.252 Y113.412 E8.59011
G1 X92.303 Y112.408 E8.62354
G1 X92.469 Y111.324 E8.66002
G1 X92.596 Y110.803 E8.67785
G1 X92.775 Y109.927 E8.70759
G1 X92.968 Y108.77 E8.74661
G1 X93.111 Y107.659 E8.78386
G1 X93.207 Y106.655 E8.81741
G1 X93.253 Y105.732 E8.84815
G1 X93.278 Y104.447 E8.89089
G1 X93.252 Y103.418 E8.92513
G1 X93.21 Y102.574 E8.95323
G1 X93.108 Y101.541 E8.98776
G1 X92.936 Y100.219 E9.0321
G1 X92.801 Y99.423 E9.05895
G1 X92.4 Y97.492 E9.12455
G1 X92.248 Y95.741 E9.18301
G1 X92.27 Y95.105 E9.20417
G1 X92.572 Y93.267 E9.26612
G1 X92.982 Y91.993 E9.31064
G1 X93.556 Y90.816 E9.35419
G1 X94.393 Y89.56 E9.40439
G1 X95.254 Y88.591 E9.44751
G0 F9000 X95.552 Y88.858
G1 F1800 X96.74 Y87.853 E9.49926
G1 X97.615 Y87.302 E9.53365
G1 X98.638 Y86.806 E9.57147
G1 X99.646 Y86.458 E9.60694
G1 X101.334 Y86.117 E9.66421
G1 X101.924 Y86.076 E9.68388
G1 X103.072 Y86.133 E9.72211
G1 X104.308 Y85.66 E9.76613
G1 X104.905 Y85.5 E9.78669
G1 X106.675 Y85.223 E9.84627
G1 X107.141 Y85.2 E9.86179
G1 X109.16 Y85.342 E9.92911
G1 X110.171 Y85.551 E9.96345
G1 X111.53 Y85.984 E10.01089
G1 X112.017 Y86.193 E10.02851
G1 X113.49 Y87.021 E10.08471
G1 X114.596 Y87.84 E10.13049
G1 X115.184 Y88.382 E10.15709
G1 X116.157 Y89.426 E10.20455
G1 X117.182 Y91.19 E10.27241
G1 X117.265 Y91.636 E10.2875
G1 X118.127 Y93.247 E10.34827
G1 X118.305 Y94.582 E10.39306
G1 X119.18 Y94.909 E10.42413
G1 X121.174 Y95.573 E10.49403
G1 X122.339 Y96.12 E10.53684
G1 X123.209 Y96.666 E10.571
G1 X124.641 Y97.868 E10.63319
G1 X124.945 Y98.199 E10.64813
G1 X126.006 Y99.702 E10.70932
G1 X126.678 Y101.088 E10.76055
G1 X127.11 Y102.453 E10.80817
G1 X127.219 Y103.008 E10.82699
G1 X127.331 Y105.186 E10.89952
G1 X127.251 Y105.921 E10.92411
G1 X126.924 Y107.41 E10.97482
G1 X126.395 Y108.764 E11.02317
G1 X125.738 Y109.932 E11.06774
G1 X124.865 Y111.069 E11.11542
G1 X123.979 Y111.941 E11.15676
G1 X123.191 Y112.55 E11.18989
G1 X121.798 Y113.353 E11.24337
G1 X120.515 Y113.864 E11.2893
G1 X120.203 Y113.953 E11.30009
G1 X119.256 Y114.265 E11.33325
G1 X118.445 Y114.572 E11.36209
G1 X118.248 Y115.363 E11.38921
G1 X118.446 Y115.994 E11.4112
G1 X118.429 Y124.303 E11.68756
G1 X118.37 Y125.017 E11.71139
G1 X118.054 Y126.681 E11.76772
G1 X117.668 Y127.872 E11.80937
G1 X117.418 Y128.444 E11.83013
G1 X116.544 Y129.986 E11.88908
G1 X116.191 Y130.476 E11.90917
G1 X115.145 Y131.645 E11.96134
G1 X114.15 Y132.51 E12.00519
G1 X112.928 Y133.334 E12.05421
G1 X112.124 Y133.752 E12.08435
G1 X111.03 Y134.197 E12.12363
G1 X109.626 Y134.573 E12.17198
G1 X108.289 Y134.758 E12.21687
G1 X107.018 Y134.784 E12.25915
G1 X105.851 Y134.683 E12.29811
G1 X105.041 Y134.533 E12.32551
G1 X103.924 Y134.213 E12.36416
G1 X102.325 Y133.525 E12.42205
G1 X101.285 Y132.906 E12.46231
G1 X100.376 Y132.219 E12.5002
G1 X99.608 Y131.508 E12.53501
G1 X98.581 Y130.306 E12.5876
G1 X98.099 Y129.587 E12.61639
G1 X97.392 Y128.245 E12.66684
G1 X97.032 Y127.316 E12.69998
G1 X96.634 Y125.841 E12.75079
G1 X96.557 Y125.379 E12.76637
G1 X96.446 Y123.818 E12.81842
G1 X96.439 Y121.118 E12.90822
G1 X95.565 Y120.372 E12.94644
G1 X94.912 Y119.657 E12.97864
G1 X94.08 Y118.495 E13.02618
G1 X93.545 Y117.495 E13.0639
G1 X93.039 Y116.182 E13.1107
G1 X92.91 Y115.698 E13.12736
G1 X92.65 Y113.368 E13.20534
G1 X92.698 Y112.468 E13.23531
G1 X92.858 Y111.419 E13.27061
G1 X92.985 Y110.898 E13.28844
G1 X93.17 Y109.993 E13.31917
G1 X93.363 Y108.836 E13.35818
G1 X93.508 Y107.71 E13.39594
G1 X93.607 Y106.675 E13.43052
G1 X93.653 Y105.752 E13.46126
G1 X93.678 Y104.455 E13.50441
G1 X93.652 Y103.408 E13.53924
G1 X93.608 Y102.535 E13.56831
G1 X93.505 Y101.489 E13.60327
G1 X93.333 Y100.167 E13.64761
G1 X93.193 Y99.341 E13.67548
G1 X92.799 Y97.457 E13.73949
G1 X92.647 Y95.706 E13.79795
G1 X92.67 Y95.121 E13.81742
G1 X92.953 Y93.39 E13.87576
G1 X93.363 Y92.116 E13.92027
G1 X93.889 Y91.038 E13.96017
G1 X94.726 Y89.782 E14.01037
G1 X95.552 Y88.858 E14.05159
G0 F9000 X95.849 Y89.126
G1 F1800 X96.954 Y88.191 E14.09974
G1 X97.79 Y87.662 E14.13264
G1 X98.77 Y87.184 E14.16891
G1 X99.726 Y86.85 E14.20259
G1 X101.364 Y86.516 E14.25819
G1 X101.904 Y86.476 E14.2762
G1 X103.136 Y86.537 E14.31723
G1 X104.451 Y86.034 E14.36405
G1 X105.007 Y85.887 E14.38318
G1 X106.695 Y85.623 E14.44001
G1 X107.161 Y85.6 E14.45552
G1 X109.079 Y85.734 E14.51947
G1 X110.09 Y85.943 E14.55381
G1 X111.372 Y86.352 E14.59857
G1 X111.859 Y86.561 E14.61619
G1 X113.252 Y87.343 E14.66933
G1 X114.325 Y88.135 E14.71368
G1 X114.891 Y88.655 E14.73925
G1 X115.834 Y89.667 E14.78525
G1 X116.802 Y91.332 E14.84931
G1 X116.884 Y91.772 E14.8642
G1 X117.74 Y93.372 E14.92455
G1 X117.938 Y94.862 E14.97454
G1 X118.232 Y94.984 E14.98513
G1 X119.054 Y95.289 E15.01429
G1 X121.048 Y95.953 E15.08419
G1 X122.126 Y96.459 E15.1238
G1 X122.996 Y97.005 E15.15796
G1 X124.346 Y98.139 E15.2166
G1 X124.65 Y98.47 E15.23155
G1 X125.647 Y99.878 E15.28893
G1 X126.297 Y101.209 E15.3382
G1 X126.717 Y102.53 E15.3843
G1 X126.826 Y103.085 E15.40312
G1 X126.933 Y105.144 E15.47169
G1 X126.86 Y105.835 E15.4948
G1 X126.533 Y107.324 E15.54551
G1 X126.046 Y108.568 E15.58994
G1 X125.389 Y109.736 E15.63451
G1 X124.548 Y110.825 E15.68028
G1 X123.733 Y111.625 E15.71826
G1 X122.991 Y112.203 E15.74954
G1 X121.598 Y113.006 E15.80302
G1 X120.405 Y113.479 E15.8457
G1 X120.093 Y113.568 E15.8565
G1 X119.131 Y113.885 E15.89018
G1 X118.046 Y114.295 E15.92876
G1 X118.034 Y114.567 E15.93782
G1 X117.832 Y115.376 E15.96555
G1 X118.046 Y116.056 E15.98926
G1 X118.03 Y124.27 E16.26246
G1 X117.971 Y124.984 E16.28629
G1 X117.661 Y126.606 E16.34121
G1 X117.301 Y127.712 E16.3799
G1 X117.051 Y128.284 E16.40066
G1 X116.219 Y129.752 E16.45678
G1 X115.866 Y130.242 E16.47687
G1 X114.882 Y131.344 E16.52601
G1 X113.926 Y132.179 E16.56823
G1 X112.743 Y132.979 E16.61573
G1 X111.973 Y133.381 E16.64462
G1 X110.879 Y133.826 E16.6839
G1 X109.57 Y134.177 E16.72897
G1 X108.28 Y134.358 E16.7723
G1 X107.052 Y134.385 E16.81315
G1 X105.885 Y134.284 E16.85211
G1 X105.151 Y134.148 E16.87694
G1 X104.034 Y133.828 E16.91559
G1 X102.53 Y133.181 E16.97004
G1 X101.49 Y132.562 E17.0103
G1 X100.648 Y131.925 E17.04541
G1 X99.88 Y131.214 E17.08022
G1 X98.913 Y130.082 E17.12974
G1 X98.453 Y129.4 E17.1571
G1 X97.765 Y128.1 E17.20602
G1 X97.418 Y127.211 E17.23776
G1 X97.029 Y125.775 E17.28724
G1 X96.952 Y125.313 E17.30282
G1 X96.846 Y123.817 E17.3527
G1 X96.839 Y120.932 E17.44866
G1 X95.86 Y120.101 E17.49137
G1 X95.237 Y119.423 E17.522
G1 X94.433 Y118.306 E17.56777
G1 X93.898 Y117.306 E17.60549
G1 X93.426 Y116.079 E17.64922
G1 X93.297 Y115.595 E17.66588
G1 X93.049 Y113.389 E17.73971
G1 X93.094 Y112.528 E17.76839
G1 X93.247 Y111.514 E17.80249
G1 X93.374 Y110.993 E17.82033
G1 X93.565 Y110.059 E17.85204
G1 X93.758 Y108.902 E17.89105
G1 X93.905 Y107.761 E17.92931
G1 X94.007 Y106.695 E17.96493
G1 X94.053 Y105.772 E17.99567
G1 X94.078 Y104.463 E18.03921
G1 X94.052 Y103.398 E18.07465
G1 X94.006 Y102.496 E18.10469
G1 X93.902 Y101.437 E18.14008
G1 X93.73 Y100.115 E18.18442
G1 X93.585 Y99.259 E18.2133
G1 X93.191 Y97.375 E18.27731
G1 X93.047 Y95.719 E18.3326
G1 X93.065 Y95.185 E18.35037
G1 X93.334 Y93.513 E18.4067
G1 X93.744 Y92.239 E18.45121
G1 X94.222 Y91.26 E18.48745
G1 X95.059 Y90.004 E18.53765
G1 X95.849 Y89.126 E18.57693
G0 F9000 X96.145 Y89.395
G1 F1800 X97.169 Y88.528 E18.62156
G1 X97.966 Y88.021 E18.65297
G1 X98.903 Y87.561 E18.68769
G1 X99.806 Y87.242 E18.71954
G1 X101.444 Y86.908 E18.77515
G1 X101.884 Y86.876 E18.78982
G1 X103.198 Y86.941 E18.83358
G1 X104.553 Y86.421 E18.88185
G1 X105.109 Y86.274 E18.90098
G1 X106.715 Y86.023 E18.95504
G1 X107.181 Y86 E18.97056
G1 X108.998 Y86.126 E19.03114
G1 X110.009 Y86.335 E19.06547
G1 X111.214 Y86.72 E19.10755
G1 X111.701 Y86.929 E19.12518
G1 X113.014 Y87.665 E19.17524
G1 X114.087 Y88.457 E19.2196
G1 X114.598 Y88.928 E19.24271
G1 X115.511 Y89.908 E19.28726
G1 X116.422 Y91.474 E19.34752
G1 X116.503 Y91.908 E19.3622
G1 X117.353 Y93.497 E19.42214
G1 X117.571 Y95.144 E19.47739
G1 X118.079 Y95.354 E19.49568
G1 X118.928 Y95.669 E19.5258
G1 X120.922 Y96.333 E19.5957
G1 X121.913 Y96.798 E19.63211
G1 X122.783 Y97.344 E19.66627
G1 X124.051 Y98.41 E19.72137
G1 X124.355 Y98.741 E19.73631
G1 X125.288 Y100.055 E19.78991
G1 X125.916 Y101.331 E19.83722
G1 X126.324 Y102.607 E19.88177
G1 X126.433 Y103.162 E19.90058
G1 X126.535 Y105.103 E19.96523
G1 X126.469 Y105.749 E19.98683
G1 X126.142 Y107.238 E20.03753
G1 X125.697 Y108.372 E20.07805
G1 X125.04 Y109.54 E20.12262
G1 X124.267 Y110.54 E20.16466
G1 X123.487 Y111.309 E20.20109
G1 X122.745 Y111.887 E20.23238
G1 X121.45 Y112.634 E20.2821
G1 X120.295 Y113.094 E20.32345
G1 X119.983 Y113.183 E20.33424
G1 X119.006 Y113.505 E20.36846
G1 X117.646 Y114.019 E20.41681
G1 X117.646 Y114.47 E20.43181
G1 X117.417 Y115.389 E20.46331
G1 X117.646 Y116.118 E20.48873
G1 X117.631 Y124.237 E20.75877
G1 X117.572 Y124.951 E20.7826
G1 X117.28 Y126.483 E20.83447
G1 X116.934 Y127.552 E20.87184
G1 X116.684 Y128.124 E20.8926
G1 X115.894 Y129.518 E20.94589
G1 X115.541 Y130.008 E20.96598
G1 X114.584 Y131.077 E21.0137
G1 X113.664 Y131.877 E21.05425
G1 X112.557 Y132.625 E21.09869
G1 X111.822 Y133.01 E21.12628
G1 X110.728 Y133.455 E21.16557
G1 X109.514 Y133.781 E21.20737
G1 X108.271 Y133.958 E21.24913
G1 X107.086 Y133.986 E21.28856
G1 X105.919 Y133.885 E21.32752
G1 X105.261 Y133.763 E21.34978
G1 X104.144 Y133.443 E21.38842
G1 X102.734 Y132.837 E21.43947
G1 X101.731 Y132.243 E21.47824
G1 X100.92 Y131.631 E21.51203
G1 X100.152 Y130.92 E21.54684
G1 X99.244 Y129.857 E21.59334
G1 X98.806 Y129.212 E21.61927
G1 X98.138 Y127.955 E21.66661
G1 X97.791 Y127.066 E21.69836
G1 X97.424 Y125.709 E21.74511
