;FLAVOR:Marlin
;TIME:9027
;Filament used: 6.38888m
;Layer height: 0.16
;MINX:76.034
;MINY:72.768
;MINZ:0.2
;MAXX:138.635
;MAXY:147.37
;MAXZ:34.92
;TARGET_MACHINE.NAME:Creality Ender-3 V3 SE
;Generated with Cura_SteamEngine 5.9.1
M82 ;absolute extrusion mode
M220 S100 ;Reset Feedrate
M221 S100 ;Reset Flowrate

G28 ;Home

M420 S1; Use saved mesh leveling data

G92 E0 ;Reset Extruder
G1 Z2.0 F3000 ;Move Z Axis up
G1 X-3 Y20 Z0.28 F5000.0 ;Move to start position
M190 S60 ; Set bed temperature and wait
M109 S200 ; Set hotend temperature and wait
G1 X-3 Y100.0 Z0.28 F1500.0 E15 ;Draw the first line
G1 X-2 Y100.0 Z0.28 F5000.0 ;Move to side a little
G1 X-2 Y20 Z0.28 F1500.0 E30 ;Draw the second line
G92 E0 ;Reset Extruder
G1 E-1.0000 F1800 ;Retract a bit
G1 Z2.0 F3000 ;Move Z Axis up
G1 E0.0000 F1800 

G92 E0
G92 E0
G1 F2400 E-0.8
;LAYER_COUNT:242
;LAYER:0
M107
G0 F9000 X91.666 Y144.876 Z0.2
;TYPE:SKIRT
G1 F2400 E0
G1 F1800 X91.044 Y145.097 E0.02195
G1 X89.084 Y145.066 E0.08715
G1 X87.763 Y144.892 E0.13147
G1 X87.089 Y144.902 E0.15389
G1 X86.096 Y144.871 E0.18693
G1 X84.93 Y144.58 E0.2269
G1 X83.302 Y143.799 E0.28696
G1 X80.759 Y141.644 E0.39782
G1 X79.782 Y140.235 E0.45485
G1 X79.287 Y139.308 E0.4898
G1 X78.468 Y135.797 E0.60972
G1 X78.47 Y133.971 E0.67045
G1 X78.703 Y133.156 E0.69864
G1 X78.703 Y122.645 E1.04824
G1 X78.355 Y122.232 E1.0662
G1 X77.506 Y119.794 E1.15207
G1 X77.5 Y117.692 E1.22198
G1 X77.437 Y117.343 E1.23377
G1 X77.353 Y116.239 E1.2706
G1 X77.38 Y115.968 E1.27966
G1 X77.086 Y115.303 E1.30384
G1 X76.165 Y112.379 E1.4058
G1 X76.034 Y110.447 E1.47021
G1 X76.05 Y109.989 E1.48545
G1 X76.044 Y109.005 E1.51818
G1 X76.207 Y107.486 E1.56899
G1 X77.271 Y104.144 E1.68565
G1 X77.376 Y103.91 E1.69418
G1 X77.322 Y103.081 E1.72181
G1 X77.489 Y102.17 E1.75261
G1 X77.526 Y101.17 E1.7859
G1 X77.589 Y100.009 E1.82457
G1 X78.171 Y98.261 E1.88584
G1 X78.699 Y97.347 E1.92095
G1 X78.703 Y86.806 E2.27155
G1 X78.412 Y85.817 E2.30584
G1 X78.398 Y85.663 E2.31098
G1 X78.609 Y83.625 E2.37913
G1 X79.263 Y80.814 E2.47512
G1 X80.13 Y79.195 E2.5362
G1 X80.7 Y78.416 E2.5683
G1 X83.166 Y76.319 E2.67597
G1 X84.692 Y75.544 E2.7329
G1 X85.746 Y75.167 E2.77013
G1 X87.208 Y75.094 E2.81881
G1 X87.842 Y75.105 E2.8399
G1 X89.74 Y74.844 E2.90363
G1 X91.371 Y75.02 E2.95819
G1 X91.671 Y75.125 E2.96876
G1 X114.309 Y75.124 E3.7217
G1 X114.537 Y75.058 E3.7296
G1 X115.619 Y74.242 E3.77467
G1 X116.848 Y73.517 E3.82213
G1 X119.343 Y72.768 E3.90877
G1 X121.647 Y72.811 E3.98542
G1 X123.448 Y72.772 E4.04533
G1 X126.16 Y73.454 E4.13834
G1 X127.966 Y74.68 E4.21094
G1 X128.659 Y74.521 E4.23459
G1 X130.829 Y74.521 E4.30677
G1 X132.932 Y75.147 E4.37975
G1 X134.551 Y76.025 E4.441
G1 X136.014 Y77.364 E4.50697
G1 X136.916 Y78.385 E4.55228
G1 X137.768 Y80.062 E4.61484
G1 X138.075 Y80.94 E4.64578
G1 X138.635 Y83.25 E4.72483
G1 X138.445 Y86.098 E4.81977
G1 X137.684 Y87.74 E4.87996
G1 X137.472 Y88.747 E4.91419
G1 X136.835 Y90.668 E4.9815
G1 X136.149 Y91.858 E5.02719
G1 X134.83 Y93.239 E5.09071
G1 X133.513 Y94.298 E5.14691
G1 X131.451 Y95.166 E5.22132
G1 X130.242 Y95.288 E5.26174
G1 X128.787 Y95.585 E5.31113
G1 X127.787 Y95.412 E5.34489
G1 X127.58 Y95.467 E5.35201
G1 X127.336 Y95.665 E5.36246
G1 X126.816 Y96.032 E5.38363
G1 X125.75 Y96.685 E5.42521
G1 X124.838 Y97.121 E5.45883
G1 X123.282 Y97.684 E5.51387
G1 X120.36 Y97.93 E5.6114
G1 X118.641 Y97.644 E5.66936
G1 X117.196 Y97.188 E5.71975
G1 X115.915 Y96.593 E5.76673
G1 X114.543 Y95.52 E5.82466
G1 X113.653 Y94.661 E5.8658
G1 X113.469 Y94.404 E5.87632
G1 X113.19 Y94.271 E5.8866
G1 X112.941 Y94.068 E5.89728
G1 X97.061 Y94.053 E6.42545
G1 X97.061 Y101.295 E6.66632
G1 X97.6 Y101.683 E6.68841
G1 X98.723 Y103.341 E6.75502
G1 X99.483 Y105.347 E6.82636
G1 X99.615 Y105.979 E6.84784
G1 X99.615 Y114.02 E7.11528
G1 X98.997 Y116.258 E7.1925
G1 X97.469 Y118.438 E7.28105
G1 X97.061 Y118.705 E7.29727
G1 X97.061 Y125.949 E7.5382
G1 X112.944 Y125.931 E8.06647
G1 X113.302 Y125.662 E8.08137
G1 X114.288 Y125.209 E8.11746
G1 X115.796 Y124.051 E8.1807
G1 X118.625 Y123.041 E8.2806
G1 X120.012 Y122.735 E8.32785
G1 X123.293 Y122.739 E8.43697
G1 X125.201 Y123.31 E8.50321
G1 X126.242 Y123.718 E8.5404
G1 X127.512 Y124.28 E8.58659
G1 X127.851 Y124.566 E8.60135
G1 X128.584 Y124.447 E8.62604
G1 X130.262 Y124.712 E8.68255
G1 X130.383 Y124.739 E8.68667
G1 X131.614 Y124.851 E8.72778
G1 X133.76 Y125.888 E8.80705
G1 X135.56 Y127.353 E8.88425
G1 X136.791 Y129.23 E8.9589
G1 X137.602 Y131.58 E9.04159
G1 X137.691 Y132.23 E9.06341
G1 X137.794 Y132.449 E9.07146
G1 X138.305 Y133.734 E9.11745
G1 X138.594 Y135.551 E9.17865
G1 X138.549 Y137.156 E9.23205
G1 X137.846 Y140.097 E9.33262
G1 X136.509 Y142.066 E9.41178
G1 X135.602 Y143.052 E9.45634
G1 X134.31 Y144.187 E9.51354
G1 X131.822 Y145.339 E9.60473
G1 X129.031 Y145.569 E9.69788
G1 X128.009 Y145.324 E9.73283
G1 X127.777 Y145.49 E9.74232
G1 X126.685 Y146.195 E9.78555
G1 X125.409 Y146.647 E9.83058
G1 X123.882 Y147.23 E9.88494
G1 X122.616 Y147.37 E9.9273
G1 X119.486 Y147.319 E10.03142
G1 X115.819 Y145.987 E10.16118
G1 X114.332 Y144.875 E10.22294
G1 X91.666 Y144.876 E10.97681
G0 F9000 X91.597 Y144.476
G1 F1800 X90.978 Y144.696 E10.99866
G1 X89.136 Y144.669 E11.05994
G1 X87.788 Y144.491 E11.10516
G1 X87.102 Y144.502 E11.12798
G1 X86.15 Y144.472 E11.15966
G1 X85.068 Y144.202 E11.19675
G1 X83.521 Y143.46 E11.25382
G1 X81.056 Y141.371 E11.36128
G1 X80.135 Y140.047 E11.41493
G1 X79.666 Y139.168 E11.44806
G1 X78.868 Y135.749 E11.56484
G1 X78.87 Y134.029 E11.62204
G1 X79.103 Y133.214 E11.65024
G1 X79.103 Y122.498 E12.00665
G1 X78.709 Y122.031 E12.02697
G1 X77.906 Y119.725 E12.10819
G1 X77.9 Y117.654 E12.17707
G1 X77.831 Y117.272 E12.18998
G1 X77.752 Y116.209 E12.22544
G1 X77.791 Y115.909 E12.2355
G1 X77.468 Y115.183 E12.26193
G1 X76.561 Y112.303 E12.36235
G1 X76.434 Y110.461 E12.42376
G1 X76.45 Y110.003 E12.43901
G1 X76.442 Y109.048 E12.47077
G1 X76.601 Y107.566 E12.52034
G1 X77.636 Y104.307 E12.63407
G1 X77.781 Y103.982 E12.64591
G1 X77.724 Y103.103 E12.67521
G1 X77.888 Y102.208 E12.70547
G1 X77.925 Y101.192 E12.73929
G1 X77.985 Y100.087 E12.77609
G1 X78.539 Y98.423 E12.83442
G1 X79.099 Y97.454 E12.87165
G1 X79.103 Y86.747 E13.22777
G1 X78.796 Y85.704 E13.26393
G1 X78.999 Y83.716 E13.33039
G1 X79.641 Y80.956 E13.42464
G1 X80.483 Y79.384 E13.48395
G1 X80.994 Y78.691 E13.51259
G1 X83.39 Y76.654 E13.61719
G1 X84.827 Y75.921 E13.67084
G1 X85.825 Y75.564 E13.7061
G1 X87.228 Y75.494 E13.75282
G1 X87.863 Y75.505 E13.77394
G1 X89.743 Y75.247 E13.83706
G1 X91.282 Y75.413 E13.88854
G1 X91.602 Y75.525 E13.89982
G1 X114.365 Y75.524 E14.65692
G1 X114.721 Y75.421 E14.66924
G1 X115.822 Y74.587 E14.71518
G1 X117.011 Y73.886 E14.76109
G1 X119.398 Y73.169 E14.84399
G1 X121.649 Y73.211 E14.91887
G1 X123.402 Y73.173 E14.97719
G1 X125.994 Y73.825 E15.06608
G1 X127.885 Y75.109 E15.14211
G1 X128.704 Y74.921 E15.17006
G1 X130.772 Y74.921 E15.23884
G1 X132.774 Y75.517 E15.30831
G1 X134.319 Y76.355 E15.36677
G1 X135.714 Y77.629 E15.42961
G1 X136.583 Y78.613 E15.47327
G1 X137.39 Y80.194 E15.53231
G1 X137.697 Y81.072 E15.56325
G1 X138.232 Y83.286 E15.639
G1 X138.051 Y85.997 E15.72937
G1 X137.301 Y87.615 E15.78869
G1 X137.092 Y88.621 E15.82286
G1 X136.468 Y90.503 E15.88881
G1 X135.826 Y91.617 E15.93157
G1 X134.579 Y92.927 E15.99173
G1 X133.305 Y93.951 E16.04609
G1 X131.35 Y94.774 E16.11664
G1 X130.181 Y94.892 E16.15572
G1 X128.78 Y95.178 E16.20328
G1 X127.769 Y95.003 E16.2374
G1 X127.394 Y95.103 E16.25031
G1 X127.105 Y95.338 E16.2627
G1 X126.606 Y95.691 E16.28303
G1 X125.577 Y96.324 E16.32321
G1 X124.665 Y96.76 E16.35684
G1 X123.198 Y97.289 E16.4087
G1 X120.376 Y97.527 E16.5029
G1 X118.707 Y97.249 E16.55917
G1 X117.365 Y96.825 E16.60598
G1 X116.126 Y96.249 E16.65143
G1 X114.821 Y95.232 E16.70646
G1 X113.931 Y94.373 E16.7476
G1 X113.739 Y94.09 E16.75897
G1 X113.403 Y93.929 E16.77136
G1 X113.082 Y93.668 E16.78512
G1 X96.661 Y93.653 E17.33129
G1 X96.661 Y101.501 E17.59231
G1 X97.31 Y101.968 E17.61891
G1 X98.364 Y103.524 E17.68141
G1 X99.091 Y105.429 E17.74923
G1 X99.215 Y106.023 E17.76941
G1 X99.215 Y113.965 E18.03357
G1 X98.63 Y116.084 E18.10668
G1 X97.185 Y118.146 E18.19043
G1 X96.661 Y118.488 E18.21124
G1 X96.661 Y126.349 E18.4727
G1 X113.078 Y126.331 E19.01873
G1 X113.505 Y126.009 E19.03652
G1 X114.494 Y125.555 E19.07271
G1 X115.989 Y124.407 E19.1354
G1 X118.711 Y123.432 E19.23157
G1 X120.057 Y123.135 E19.27742
G1 X123.235 Y123.139 E19.38312
G1 X125.055 Y123.683 E19.4463
G1 X126.08 Y124.084 E19.4829
G1 X127.298 Y124.623 E19.5272
G1 X127.734 Y124.99 E19.54616
G1 X128.586 Y124.852 E19.57487
G1 X130.176 Y125.103 E19.6284
G1 X130.316 Y125.134 E19.63317
G1 X131.505 Y125.242 E19.67288
G1 X133.545 Y126.228 E19.74824
G1 X135.258 Y127.622 E19.8217
G1 X136.429 Y129.408 E19.89273
G1 X137.212 Y131.675 E19.9725
G1 X137.304 Y132.347 E19.99506
G1 X137.422 Y132.597 E20.00426
G1 X137.917 Y133.842 E20.04882
G1 X138.193 Y135.576 E20.10722
G1 X138.15 Y137.104 E20.15806
G1 X137.474 Y139.932 E20.25477
G1 X136.178 Y141.841 E20.33151
G1 X135.338 Y142.751 E20.3727
G1 X134.088 Y143.849 E20.42804
G1 X131.719 Y144.946 E20.51487
G1 X129.061 Y145.165 E20.60358
G1 X127.924 Y144.893 E20.64246
G1 X127.56 Y145.154 E20.65736
G1 X126.508 Y145.833 E20.699
G1 X125.266 Y146.273 E20.74283
G1 X123.784 Y146.839 E20.79559
G1 X122.623 Y146.97 E20.83445
G1 X119.56 Y146.92 E20.93634
G1 X116.011 Y145.631 E21.06192
G1 X114.513 Y144.511 E21.12413
G1 X114.4 Y144.475 E21.12808
G1 X91.597 Y144.476 E21.88651
G0 F9000 X91.528 Y144.076
G1 F1800 X90.912 Y144.295 E21.90825
G1 X89.188 Y144.272 E21.9656
G1 X87.813 Y144.091 E22.01173
G1 X87.115 Y144.102 E22.03495
G1 X86.204 Y144.073 E22.06526
G1 X85.206 Y143.824 E22.09947
G1 X83.74 Y143.121 E22.15355
G1 X81.354 Y141.099 E22.25757
G1 X80.488 Y139.859 E22.30788
G1 X80.045 Y139.028 E22.3392
G1 X79.268 Y135.701 E22.45283
G1 X79.27 Y134.087 E22.50651
G1 X79.503 Y133.272 E22.53471
G1 X79.503 Y122.352 E22.89791
G1 X79.063 Y121.83 E22.92061
G1 X78.306 Y119.656 E22.99718
G1 X78.3 Y117.616 E23.06503
G1 X78.225 Y117.201 E23.07906
G1 X78.154 Y116.221 E23.11174
G1 X78.202 Y115.85 E23.12418
G1 X77.85 Y115.063 E23.15285
G1 X76.957 Y112.226 E23.25178
G1 X76.834 Y110.475 E23.31016
G1 X76.85 Y110.017 E23.3254
G1 X76.84 Y109.091 E23.3562
G1 X76.995 Y107.646 E23.40454
G1 X78.001 Y104.471 E23.51531
G1 X78.187 Y104.056 E23.53044
G1 X78.126 Y103.125 E23.56147
G1 X78.287 Y102.247 E23.59116
G1 X78.324 Y101.214 E23.62554
G1 X78.381 Y100.165 E23.66048
G1 X78.907 Y98.585 E23.71587
G1 X79.375 Y97.775 E23.74698
G1 X79.499 Y97.618 E23.75364
G1 X79.503 Y86.688 E24.11717
G1 X79.202 Y85.666 E24.1526
G1 X79.389 Y83.807 E24.21475
G1 X80.019 Y81.098 E24.30725
G1 X80.836 Y79.573 E24.3648
G1 X81.289 Y78.966 E24.38999
G1 X83.615 Y76.988 E24.49154
G1 X84.962 Y76.298 E24.54188
G1 X85.904 Y75.961 E24.57515
G1 X87.248 Y75.894 E24.61991
G1 X87.884 Y75.905 E24.64107
G1 X89.746 Y75.65 E24.70358
G1 X91.193 Y75.806 E24.75198
G1 X91.533 Y75.925 E24.76396
G1 X114.434 Y75.924 E25.52565
G1 X114.698 Y75.832 E25.53495
G1 X114.887 Y75.797 E25.54135
G1 X116.025 Y74.932 E25.58889
G1 X117.174 Y74.255 E25.63324
G1 X119.453 Y73.57 E25.71239
G1 X121.651 Y73.611 E25.78551
G1 X123.356 Y73.574 E25.84223
G1 X125.828 Y74.196 E25.92702
G1 X127.443 Y75.293 E25.99195
G1 X127.771 Y75.547 E26.00575
G1 X128.751 Y75.321 E26.0392
G1 X130.715 Y75.321 E26.10452
G1 X132.616 Y75.887 E26.17049
G1 X134.087 Y76.685 E26.22615
G1 X135.414 Y77.894 E26.28586
G1 X136.251 Y78.841 E26.3279
G1 X137.012 Y80.326 E26.3834
G1 X137.319 Y81.204 E26.41433
G1 X137.829 Y83.321 E26.48676
G1 X137.657 Y85.896 E26.5726
G1 X136.918 Y87.489 E26.631
G1 X136.712 Y88.495 E26.66516
G1 X136.101 Y90.338 E26.72974
G1 X135.503 Y91.376 E26.76958
G1 X134.289 Y92.651 E26.82813
G1 X133.099 Y93.603 E26.87882
G1 X131.249 Y94.382 E26.94558
G1 X130.12 Y94.496 E26.98333
G1 X128.773 Y94.771 E27.02905
G1 X127.732 Y94.591 E27.06419
G1 X127.597 Y94.64 E27.06897
G1 X127.21 Y94.737 E27.08224
G1 X126.874 Y95.011 E27.09666
G1 X126.375 Y95.364 E27.11699
G1 X125.368 Y95.983 E27.1563
G1 X124.529 Y96.384 E27.18723
G1 X123.114 Y96.894 E27.23726
G1 X120.392 Y97.124 E27.32811
G1 X118.773 Y96.854 E27.3827
G1 X117.534 Y96.462 E27.42593
G1 X116.334 Y95.904 E27.46994
G1 X115.099 Y94.944 E27.52197
G1 X114.209 Y94.085 E27.56311
G1 X114.015 Y93.778 E27.57519
G1 X113.618 Y93.588 E27.58983
G1 X113.225 Y93.268 E27.60668
G1 X96.261 Y93.253 E28.17091
G1 X96.261 Y101.707 E28.45209
G1 X97.02 Y102.253 E28.48319
G1 X98.008 Y103.711 E28.54177
G1 X98.699 Y105.511 E28.60589
G1 X98.815 Y106.067 E28.62479
G1 X98.815 Y113.91 E28.88564
G1 X98.263 Y115.91 E28.95465
G1 X96.9 Y117.855 E29.03365
G1 X96.261 Y118.271 E29.05901
G1 X96.261 Y126.749 E29.34099
G1 X113.212 Y126.731 E29.90478
G1 X113.712 Y126.354 E29.92561
G1 X114.717 Y125.892 E29.9624
G1 X114.799 Y125.819 E29.96605
G1 X116.185 Y124.761 E30.02404
G1 X118.797 Y123.823 E30.11635
G1 X120.102 Y123.535 E30.1608
G1 X123.178 Y123.539 E30.26311
G1 X124.909 Y124.055 E30.32318
G1 X125.918 Y124.45 E30.35922
G1 X127.084 Y124.966 E30.40163
G1 X127.617 Y125.415 E30.42481
G1 X128.588 Y125.257 E30.45753
G1 X130.089 Y125.494 E30.50807
G1 X130.247 Y125.529 E30.51346
G1 X131.396 Y125.633 E30.55183
G1 X133.328 Y126.567 E30.6232
G1 X134.957 Y127.893 E30.69306
G1 X136.067 Y129.586 E30.7604
G1 X136.821 Y131.77 E30.83724
G1 X136.917 Y132.464 E30.86055
G1 X137.05 Y132.745 E30.87089
G1 X137.529 Y133.95 E30.91401
G1 X137.792 Y135.601 E30.96962
G1 X137.751 Y137.052 E31.0179
G1 X137.102 Y139.767 E31.11074
G1 X135.847 Y141.616 E31.18507
G1 X135.074 Y142.45 E31.22289
G1 X133.866 Y143.511 E31.27637
G1 X131.616 Y144.553 E31.35884
G1 X129.091 Y144.761 E31.4431
G1 X127.84 Y144.462 E31.48588
G1 X127.343 Y144.818 E31.50622
G1 X126.331 Y145.471 E31.54628
G1 X125.123 Y145.899 E31.5889
G1 X123.686 Y146.448 E31.64007
G1 X122.63 Y146.57 E31.67542
G1 X119.634 Y146.521 E31.77508
G1 X116.203 Y145.275 E31.89649
G1 X114.783 Y144.216 E31.95541
G1 X114.716 Y144.156 E31.9584
G1 X114.463 Y144.075 E31.96723
G1 X91.528 Y144.076 E32.73006
G0 F9000 X91.459 Y143.676
G1 F1800 X90.845 Y143.894 E32.75173
G1 X89.24 Y143.875 E32.80511
G1 X87.838 Y143.691 E32.85214
G1 X87.128 Y143.702 E32.87576
G1 X86.258 Y143.674 E32.90471
G1 X85.344 Y143.446 E32.93604
G1 X83.959 Y142.782 E32.98713
G1 X81.651 Y140.826 E33.08775
G1 X80.841 Y139.671 E33.13467
G1 X80.424 Y138.888 E33.16418
G1 X79.668 Y135.653 E33.27468
G1 X79.67 Y134.145 E33.32483
G1 X79.903 Y133.33 E33.35302
G1 X79.903 Y122.206 E33.72301
G1 X79.417 Y121.629 E33.7481
G1 X78.706 Y119.587 E33.82002
G1 X78.7 Y117.58 E33.88677
G1 X78.624 Y117.172 E33.90058
G1 X78.556 Y116.234 E33.93186
G1 X78.614 Y115.789 E33.94678
G1 X78.232 Y114.943 E33.97765
G1 X77.353 Y112.149 E34.07507
G1 X77.234 Y110.489 E34.13043
G1 X77.25 Y110.031 E34.14567
G1 X77.238 Y109.134 E34.17551
G1 X77.389 Y107.726 E34.22261
G1 X78.366 Y104.634 E34.33046
G1 X78.592 Y104.129 E34.34886
G1 X78.528 Y103.147 E34.38159
G1 X78.686 Y102.286 E34.41071
G1 X78.723 Y101.236 E34.44565
G1 X78.777 Y100.243 E34.47873
G1 X79.275 Y98.747 E34.53117
G1 X79.721 Y97.975 E34.56082
G1 X79.899 Y97.765 E34.56998
G1 X79.903 Y86.629 E34.94036
G1 X79.608 Y85.627 E34.9751
G1 X79.779 Y83.898 E35.03289
G1 X80.398 Y81.238 E35.12373
G1 X81.157 Y79.812 E35.17746
G1 X81.583 Y79.241 E35.20115
G1 X83.838 Y77.323 E35.29961
G1 X85.097 Y76.675 E35.34671
G1 X85.983 Y76.358 E35.37801
G1 X87.268 Y76.294 E35.4208
G1 X87.905 Y76.305 E35.44199
G1 X89.749 Y76.053 E35.50389
G1 X91.104 Y76.199 E35.54922
G1 X91.464 Y76.325 E35.5619
G1 X114.507 Y76.324 E36.32832
G1 X114.772 Y76.225 E36.33773
G1 X115.055 Y76.172 E36.3473
G1 X116.228 Y75.277 E36.39638
G1 X117.337 Y74.624 E36.43918
G1 X119.508 Y73.971 E36.51458
G1 X121.653 Y74.011 E36.58594
G1 X123.31 Y73.975 E36.64106
G1 X125.662 Y74.567 E36.72173
G1 X127.199 Y75.61 E36.78351
G1 X127.677 Y75.979 E36.8036
G1 X128.798 Y75.721 E36.84186
G1 X130.658 Y75.721 E36.90372
G1 X132.458 Y76.257 E36.96619
G1 X133.855 Y77.015 E37.01905
G1 X135.114 Y78.159 E37.07563
G1 X135.918 Y79.068 E37.11599
G1 X136.634 Y80.458 E37.168
G1 X136.941 Y81.336 E37.19893
G1 X137.426 Y83.355 E37.26799
G1 X137.263 Y85.795 E37.34933
