;FLAVOR:Marlin
;TIME:842
;Filament used: 0.346395m
;Layer height: 0.16
;MINX:92.645
;MINY:85.202
;MINZ:0.2
;MAXX:127.33
;MAXY:134.797
;MAXZ:6.04
;TARGET_MACHINE.NAME:Creality Ender-3 V3 SE
;Generated with Cura_SteamEngine 5.9.1
M82 ;absolute extrusion mode
M220 S100 ;Reset Feedrate
M221 S100 ;Reset Flowrate

G28 ;Home

M420 S1; Use saved mesh leveling data

G92 E0 ;Reset Extruder
G1 Z2.0 F3000 ;Move Z Axis up
G1 X-3 Y20 Z0.28 F5000.0 ;Move to start position
M190 S60 ; Set bed temperature and wait
M109 S200 ; Set hotend temperature and wait
G1 X-3 Y100.0 Z0.28 F1500.0 E15 ;Draw the first line
G1 X-2 Y100.0 Z0.28 F5000.0 ;Move to side a little
G1 X-2 Y20 Z0.28 F1500.0 E30 ;Draw the second line
G92 E0 ;Reset Extruder
G1 E-1.0000 F1800 ;Retract a bit
G1 Z2.0 F3000 ;Move Z Axis up
G1 E0.0000 F1800 

G92 E0
G92 E0
G1 F2400 E-0.8
;LAYER_COUNT:35
;LAYER:0
M107
G0 F9000 X108.365 Y134.761 Z0.2
;TYPE:SKIRT
G1 F2400 E0
G1 F1800 X107.643 Y134.797 E0.02404
G1 X105.888 Y134.68 E0.08254
G1 X104.6 Y134.428 E0.1262
G1 X103.904 Y134.216 E0.1504
G1 X102.608 Y133.67 E0.19717
G1 X101.163 Y132.827 E0.25281
G1 X100.5 Y132.327 E0.28043
G1 X99.589 Y131.49 E0.32158
G1 X98.595 Y130.328 E0.37244
G1 X98.036 Y129.491 E0.40591
G1 X97.346 Y128.178 E0.45525
G1 X97.159 Y127.718 E0.47176
G1 X96.631 Y125.843 E0.53655
G1 X96.553 Y125.376 E0.5523
G1 X96.443 Y123.818 E0.60425
G1 X96.436 Y121.091 E0.69495
G1 X95.58 Y120.387 E0.73181
G1 X94.909 Y119.657 E0.76479
G1 X94.076 Y118.495 E0.81234
G1 X93.541 Y117.495 E0.85006
G1 X93.035 Y116.182 E0.89686
G1 X92.906 Y115.698 E0.91352
G1 X92.645 Y113.514 E0.98668
G1 X92.658 Y113 E1.00378
G1 X92.899 Y111.216 E1.06366
G1 X93.008 Y110.783 E1.07851
G1 X93.158 Y110.031 E1.10401
G1 X93.364 Y108.792 E1.14579
G1 X93.504 Y107.708 E1.18214
G1 X93.603 Y106.674 E1.21669
G1 X93.649 Y105.752 E1.24739
G1 X93.674 Y104.455 E1.29054
G1 X93.649 Y103.403 E1.32554
G1 X93.607 Y102.566 E1.35341
G1 X93.501 Y101.481 E1.38967
G1 X93.33 Y100.159 E1.43401
G1 X93.189 Y99.334 E1.46185
G1 X92.779 Y97.377 E1.52835
G1 X92.649 Y95.9 E1.57766
G1 X92.701 Y94.72 E1.61695
G1 X92.827 Y93.885 E1.64504
G1 X93.369 Y92.091 E1.70737
G1 X93.794 Y91.193 E1.74041
G1 X94.69 Y89.816 E1.79505
G1 X95.407 Y88.993 E1.83136
G1 X96.643 Y87.922 E1.88575
G1 X97.611 Y87.302 E1.92399
G1 X98.634 Y86.806 E1.9618
G1 X99.642 Y86.458 E1.99727
G1 X101.33 Y86.117 E2.05454
G1 X101.92 Y86.076 E2.07422
G1 X103.066 Y86.133 E2.11238
G1 X104.29 Y85.664 E2.15598
G1 X104.924 Y85.494 E2.17781
G1 X106.573 Y85.234 E2.23333
G1 X107.217 Y85.202 E2.25478
G1 X109.155 Y85.337 E2.31939
G1 X109.892 Y85.481 E2.34437
G1 X111.383 Y85.937 E2.39623
G1 X112.359 Y86.365 E2.43167
G1 X113.424 Y86.98 E2.47258
G1 X114.513 Y87.779 E2.5175
G1 X115.218 Y88.422 E2.54924
G1 X116.269 Y89.575 E2.60113
G1 X117.048 Y91.016 E2.65561
G1 X117.121 Y91.212 E2.66257
G1 X117.459 Y91.588 E2.67938
G1 X118.053 Y93.333 E2.74069
G1 X118.309 Y94.586 E2.78323
G1 X119.169 Y94.906 E2.81375
G1 X121.15 Y95.562 E2.88315
G1 X122.294 Y96.097 E2.92516
G1 X123.245 Y96.694 E2.9625
G1 X124.669 Y97.916 E3.02492
G1 X125.201 Y98.522 E3.05174
G1 X126.054 Y99.781 E3.10232
G1 X126.559 Y100.802 E3.1402
G1 X127.106 Y102.429 E3.19729
G1 X127.188 Y102.822 E3.21065
G1 X127.33 Y105.159 E3.28852
G1 X127.268 Y105.772 E3.30901
G1 X126.818 Y107.736 E3.37603
G1 X126.449 Y108.643 E3.40859
G1 X125.669 Y110.032 E3.46158
G1 X125.012 Y110.896 E3.49768
G1 X123.936 Y111.976 E3.54838
G1 X123.228 Y112.527 E3.57822
G1 X121.945 Y113.283 E3.62775
G1 X120.633 Y113.827 E3.67499
G1 X120.218 Y113.949 E3.68938
G1 X119.274 Y114.258 E3.72242
G1 X118.443 Y114.569 E3.75193
G1 X118.431 Y114.784 E3.75909
G1 X118.266 Y115.44 E3.78159
G1 X118.443 Y115.995 E3.80096
G1 X118.426 Y124.32 E4.07786
G1 X118.365 Y125.078 E4.10315
G1 X118.095 Y126.544 E4.15273
G1 X117.863 Y127.327 E4.17989
G1 X117.38 Y128.497 E4.22199
G1 X116.517 Y130.004 E4.27975
G1 X115.816 Y130.93 E4.31838
G1 X115.243 Y131.55 E4.34646
G1 X113.99 Y132.634 E4.40156
G1 X113.189 Y133.176 E4.43373
G1 X112.049 Y133.78 E4.47664
G1 X110.912 Y134.23 E4.51731
G1 X109.655 Y134.566 E4.56059
G1 X108.365 Y134.761 E4.60398
G0 F9000 X108.345 Y134.361
G1 F1800 X107.623 Y134.397 E4.62802
G1 X105.965 Y134.287 E4.68329
G1 X104.677 Y134.035 E4.72694
G1 X104.059 Y133.847 E4.74843
G1 X102.763 Y133.301 E4.7952
G1 X101.403 Y132.507 E4.84758
G1 X100.771 Y132.032 E4.87387
G1 X99.86 Y131.195 E4.91502
G1 X98.928 Y130.106 E4.9627
G1 X98.369 Y129.269 E4.99617
G1 X97.717 Y128.027 E5.04283
G1 X97.53 Y127.567 E5.05934
G1 X97.026 Y125.777 E5.12119
G1 X96.948 Y125.31 E5.13694
G1 X96.843 Y123.817 E5.18672
G1 X96.836 Y120.901 E5.28371
G1 X95.874 Y120.115 E5.32503
G1 X95.234 Y119.423 E5.35638
G1 X94.429 Y118.306 E5.40217
G1 X93.894 Y117.306 E5.43989
G1 X93.422 Y116.079 E5.48362
G1 X93.293 Y115.595 E5.50028
G1 X93.045 Y113.524 E5.56965
G1 X93.058 Y113.01 E5.58675
G1 X93.287 Y111.314 E5.64367
G1 X93.396 Y110.881 E5.65852
G1 X93.553 Y110.097 E5.68512
G1 X93.759 Y108.858 E5.72689
G1 X93.901 Y107.759 E5.76375
G1 X94.003 Y106.694 E5.79933
G1 X94.049 Y105.772 E5.83004
G1 X94.074 Y104.463 E5.87358
G1 X94.049 Y103.394 E5.90915
G1 X94.005 Y102.527 E5.93802
G1 X93.898 Y101.43 E5.97468
G1 X93.727 Y100.108 E6.01902
G1 X93.581 Y99.252 E6.0479
G1 X93.171 Y97.295 E6.1144
G1 X93.049 Y95.917 E6.16041
G1 X93.097 Y94.78 E6.19826
G1 X93.223 Y93.945 E6.22635
G1 X93.731 Y92.262 E6.28482
G1 X94.156 Y91.364 E6.31787
G1 X94.992 Y90.079 E6.36885
G1 X95.709 Y89.256 E6.40516
G1 X96.904 Y88.225 E6.45765
G1 X97.786 Y87.662 E6.49246
G1 X98.766 Y87.184 E6.52872
G1 X99.722 Y86.85 E6.5624
G1 X101.36 Y86.516 E6.618
G1 X101.9 Y86.476 E6.63601
G1 X103.13 Y86.537 E6.67697
G1 X104.433 Y86.038 E6.72338
G1 X105.026 Y85.881 E6.74378
G1 X106.593 Y85.634 E6.79655
G1 X107.237 Y85.602 E6.81799
G1 X109.079 Y85.73 E6.8794
G1 X109.776 Y85.864 E6.90301
G1 X111.223 Y86.304 E6.95331
G1 X112.16 Y86.712 E6.98731
G1 X113.188 Y87.303 E7.02674
G1 X114.243 Y88.075 E7.07022
G1 X114.948 Y88.718 E7.10196
G1 X115.94 Y89.808 E7.15098
G1 X116.696 Y91.206 E7.20384
G1 X116.77 Y91.419 E7.21134
G1 X117.106 Y91.794 E7.22809
G1 X117.674 Y93.462 E7.28669
G1 X117.959 Y94.875 E7.33464
G1 X118.205 Y94.976 E7.34348
G1 X119.043 Y95.286 E7.3732
G1 X121.024 Y95.942 E7.44261
G1 X122.081 Y96.436 E7.48141
G1 X123.032 Y97.033 E7.51876
G1 X124.368 Y98.18 E7.57733
G1 X124.9 Y98.786 E7.60415
G1 X125.695 Y99.958 E7.65125
G1 X126.2 Y100.979 E7.68913
G1 X126.714 Y102.511 E7.74288
G1 X126.796 Y102.904 E7.75623
G1 X126.932 Y105.121 E7.83011
G1 X126.878 Y105.684 E7.84892
G1 X126.447 Y107.586 E7.91379
G1 X126.1 Y108.447 E7.94466
G1 X125.32 Y109.836 E7.99764
G1 X124.728 Y110.614 E8.03016
G1 X123.69 Y111.66 E8.07917
G1 X122.982 Y112.211 E8.10901
G1 X121.791 Y112.914 E8.15501
G1 X120.52 Y113.443 E8.2008
G1 X120.105 Y113.565 E8.21519
G1 X119.134 Y113.883 E8.24917
G1 X118.043 Y114.291 E8.28791
G1 X118.043 Y114.687 E8.30108
G1 X117.851 Y115.453 E8.32735
G1 X118.043 Y116.056 E8.3484
G1 X118.027 Y124.288 E8.62219
G1 X117.966 Y125.046 E8.64749
G1 X117.711 Y126.43 E8.69429
G1 X117.479 Y127.213 E8.72146
G1 X117.033 Y128.298 E8.76047
G1 X116.17 Y129.805 E8.81823
G1 X115.521 Y130.659 E8.85391
G1 X114.981 Y131.247 E8.88046
G1 X113.728 Y132.331 E8.93557
G1 X112.966 Y132.844 E8.96612
G1 X111.902 Y133.408 E9.00617
G1 X110.765 Y133.858 E9.04684
G1 X109.595 Y134.171 E9.08713
G1 X108.345 Y134.361 E9.12918
G0 F9000 X108.325 Y133.961
G1 F1800 X107.603 Y133.997 E9.15322
G1 X105.992 Y133.888 E9.20693
G1 X104.792 Y133.652 E9.2476
G1 X104.214 Y133.478 E9.26768
G1 X102.918 Y132.932 E9.31445
G1 X101.643 Y132.187 E9.36357
G1 X101.042 Y131.737 E9.38854
G1 X100.131 Y130.9 E9.42969
G1 X99.261 Y129.884 E9.47418
G1 X98.702 Y129.047 E9.50765
G1 X98.088 Y127.876 E9.55163
G1 X97.901 Y127.416 E9.56815
G1 X97.421 Y125.711 E9.62706
G1 X97.343 Y125.244 E9.64281
G1 X97.243 Y123.816 E9.69042
G1 X97.236 Y120.71 E9.79373
G1 X96.167 Y119.842 E9.83952
G1 X95.559 Y119.189 E9.8692
G1 X94.754 Y118.072 E9.91499
G1 X94.247 Y117.118 E9.95093
G1 X93.809 Y115.976 E9.99161
G1 X93.68 Y115.492 E10.00827
G1 X93.445 Y113.534 E10.07386
G1 X93.458 Y113.02 E10.09096
G1 X93.675 Y111.412 E10.14493
G1 X93.784 Y110.979 E10.15978
G1 X93.948 Y110.163 E10.18746
G1 X94.154 Y108.924 E10.22924
G1 X94.298 Y107.81 E10.2666
G1 X94.403 Y106.714 E10.30322
G1 X94.449 Y105.792 E10.33392
G1 X94.474 Y104.471 E10.37786
G1 X94.449 Y103.385 E10.41399
G1 X94.403 Y102.488 E10.44387
G1 X94.295 Y101.379 E10.48093
G1 X94.124 Y100.057 E10.52526
G1 X93.973 Y99.17 E10.55519
G1 X93.563 Y97.213 E10.62169
G1 X93.449 Y95.933 E10.66444
G1 X93.493 Y94.84 E10.70082
G1 X93.619 Y94.005 E10.7289
G1 X94.093 Y92.432 E10.78355
G1 X94.492 Y91.581 E10.81481
G1 X95.294 Y90.342 E10.8639
G1 X96.011 Y89.519 E10.9002
G1 X97.165 Y88.528 E10.95079
G1 X97.962 Y88.021 E10.98221
G1 X98.899 Y87.561 E11.01693
G1 X99.802 Y87.242 E11.04878
G1 X101.44 Y86.908 E11.10438
G1 X101.88 Y86.876 E11.11906
G1 X103.193 Y86.941 E11.16278
G1 X104.535 Y86.425 E11.2106
G1 X105.128 Y86.268 E11.231
G1 X106.613 Y86.034 E11.281
G1 X107.257 Y86.002 E11.30245
G1 X109.003 Y86.123 E11.36066
G1 X109.7 Y86.257 E11.38427
G1 X111.064 Y86.671 E11.43168
G1 X111.961 Y87.059 E11.46418
G1 X112.952 Y87.626 E11.50216
G1 X113.973 Y88.371 E11.5442
G1 X114.678 Y89.014 E11.57593
G1 X115.612 Y90.042 E11.62213
G1 X116.318 Y91.337 E11.67119
G1 X116.418 Y91.626 E11.68136
G1 X116.754 Y92.001 E11.6981
G1 X117.282 Y93.542 E11.75228
G1 X117.538 Y94.803 E11.79508
G1 X117.575 Y95.149 E11.80665
G1 X118.058 Y95.348 E11.82403
G1 X118.918 Y95.666 E11.85453
G1 X120.856 Y96.305 E11.9224
G1 X121.868 Y96.775 E11.95951
G1 X122.819 Y97.372 E11.99686
G1 X124.067 Y98.444 E12.05157
G1 X124.599 Y99.05 E12.0784
G1 X125.336 Y100.135 E12.12202
G1 X125.841 Y101.156 E12.15991
G1 X126.322 Y102.593 E12.21031
G1 X126.404 Y102.986 E12.22366
G1 X126.534 Y105.085 E12.29361
G1 X126.488 Y105.596 E12.31067
G1 X126.075 Y107.438 E12.37346
G1 X125.751 Y108.251 E12.40257
G1 X124.971 Y109.64 E12.45555
G1 X124.444 Y110.333 E12.48451
G1 X123.444 Y111.344 E12.5318
G1 X122.736 Y111.895 E12.56164
G1 X121.637 Y112.545 E12.60411
G1 X120.407 Y113.059 E12.64845
G1 X119.992 Y113.181 E12.66284
G1 X118.994 Y113.508 E12.69777
G1 X117.643 Y114.013 E12.74574
G1 X117.643 Y114.638 E12.76652
G1 X117.435 Y115.466 E12.79492
G1 X117.643 Y116.118 E12.81768
G1 X117.628 Y124.256 E13.08835
G1 X117.567 Y125.014 E13.11365
G1 X117.327 Y126.316 E13.15768
G1 X117.095 Y127.099 E13.18484
G1 X116.686 Y128.1 E13.22081
G1 X115.851 Y129.563 E13.27683
G1 X115.226 Y130.388 E13.31126
G1 X114.686 Y130.976 E13.33781
G1 X113.504 Y132 E13.38983
G1 X112.778 Y132.491 E13.41898
G1 X111.755 Y133.036 E13.45753
G1 X110.618 Y133.486 E13.4982
G1 X109.535 Y133.776 E13.53549
G1 X108.325 Y133.961 E13.5762
G0 F9000 X108.305 Y133.561
G1 F1800 X107.583 Y133.597 E13.60025
G1 X106.069 Y133.495 E13.65072
G1 X104.906 Y133.268 E13.69013
G1 X104.369 Y133.109 E13.70876
G1 X103.073 Y132.563 E13.75553
G1 X101.882 Y131.867 E13.80141
G1 X101.313 Y131.442 E13.82503
G1 X100.402 Y130.605 E13.86618
G1 X99.593 Y129.661 E13.90753
G1 X99.056 Y128.861 E13.93958
G1 X98.459 Y127.725 E13.98226
G1 X98.272 Y127.265 E13.99877
G1 X97.816 Y125.645 E14.05475
G1 X97.738 Y125.178 E14.0705
G1 X97.643 Y123.815 E14.11594
G1 X97.636 Y120.519 E14.22557
G1 X96.459 Y119.568 E14.2759
G1 X95.884 Y118.955 E14.30385
G1 X95.079 Y117.838 E14.34964
G1 X94.62 Y116.974 E14.38218
G1 X94.196 Y115.873 E14.42143
G1 X94.067 Y115.389 E14.43808
G1 X93.845 Y113.543 E14.49993
G1 X93.855 Y113.073 E14.51556
G1 X94.063 Y111.51 E14.56801
G1 X94.172 Y111.077 E14.58286
G1 X94.343 Y110.229 E14.61163
G1 X94.549 Y108.99 E14.6534
G1 X94.695 Y107.861 E14.69127
G1 X94.803 Y106.734 E14.72892
G1 X94.849 Y105.812 E14.75963
G1 X94.874 Y104.479 E14.80397
G1 X94.849 Y103.376 E14.84067
G1 X94.801 Y102.449 E14.87154
G1 X94.692 Y101.328 E14.909
G1 X94.521 Y100.006 E14.95334
G1 X94.365 Y99.088 E14.98431
G1 X93.955 Y97.131 E15.05081
G1 X93.849 Y95.948 E15.09031
G1 X93.889 Y94.9 E15.1252
G1 X94.015 Y94.065 E15.15328
G1 X94.456 Y92.6 E15.20417
G1 X94.828 Y91.798 E15.23357
G1 X95.596 Y90.605 E15.28076
G1 X96.313 Y89.782 E15.31707
G1 X97.381 Y88.865 E15.36389
G1 X98.139 Y88.38 E15.39382
G1 X99.034 Y87.938 E15.42702
G1 X99.883 Y87.634 E15.45701
G1 X101.472 Y87.307 E15.51097
G1 X101.86 Y87.276 E15.52391
G1 X103.256 Y87.345 E15.5704
G1 X104.637 Y86.812 E15.61964
G1 X105.23 Y86.655 E15.64004
G1 X106.633 Y86.434 E15.68728
G1 X107.277 Y86.402 E15.70872
G1 X108.927 Y86.516 E15.76373
G1 X109.624 Y86.65 E15.78734
G1 X110.905 Y87.038 E15.83186
G1 X111.802 Y87.426 E15.86436
G1 X112.717 Y87.949 E15.89942
G1 X113.703 Y88.667 E15.93999
G1 X114.408 Y89.31 E15.97172
G1 X115.285 Y90.277 E16.01514
G1 X115.967 Y91.528 E16.06253
G1 X116.063 Y91.829 E16.07304
G1 X116.402 Y92.208 E16.08995
G1 X116.89 Y93.622 E16.13971
G1 X117.146 Y94.883 E16.1825
G1 X117.201 Y95.428 E16.20072
G1 X117.911 Y95.72 E16.22625
G1 X118.793 Y96.046 E16.25753
G1 X120.688 Y96.668 E16.32387
G1 X121.655 Y97.114 E16.35928
G1 X122.606 Y97.711 E16.39663
G1 X123.766 Y98.708 E16.4475
G1 X124.298 Y99.314 E16.47433
G1 X124.978 Y100.314 E16.51455
G1 X125.462 Y101.284 E16.5506
G1 X125.93 Y102.675 E16.59942
G1 X126.012 Y103.068 E16.61277
G1 X126.135 Y105.053 E16.67892
G1 X126.098 Y105.508 E16.6941
G1 X125.685 Y107.35 E16.75689
G1 X125.402 Y108.055 E16.78215
G1 X124.622 Y109.444 E16.83514
G1 X124.127 Y110.089 E16.86218
G1 X123.198 Y111.028 E16.90611
G1 X122.49 Y111.579 E16.93595
G1 X121.482 Y112.176 E16.97492
G1 X120.293 Y112.675 E17.0178
G1 X119.878 Y112.798 E17.0322
G1 X118.854 Y113.133 E17.06804
G1 X117.667 Y113.577 E17.11019
G1 X117.243 Y113.756 E17.12549
G1 X117.243 Y114.589 E17.1532
G1 X117.02 Y115.479 E17.18372
G1 X117.243 Y116.179 E17.20815
G1 X117.229 Y124.224 E17.47573
G1 X117.168 Y124.982 E17.50102
G1 X116.943 Y126.202 E17.54228
G1 X116.711 Y126.985 E17.56945
G1 X116.316 Y127.948 E17.60406
G1 X115.532 Y129.322 E17.65668
G1 X114.931 Y130.117 E17.68983
G1 X114.391 Y130.705 E17.71638
G1 X113.279 Y131.669 E17.76533
G1 X112.589 Y132.138 E17.79308
G1 X111.608 Y132.664 E17.8301
G1 X110.471 Y133.114 E17.87077
G1 X109.474 Y133.381 E17.9051
G1 X108.305 Y133.561 E17.94444
G0 F9000 X108.285 Y133.161
G1 F1800 X107.563 Y133.197 E17.96848
G1 X106.096 Y133.096 E18.01739
G1 X105.02 Y132.884 E18.05387
G1 X104.483 Y132.725 E18.07249
G1 X103.274 Y132.217 E18.11611
G1 X102.121 Y131.546 E18.16048
G1 X101.584 Y131.147 E18.18273
G1 X100.673 Y130.31 E18.22388
G1 X99.925 Y129.437 E18.26212
G1 X99.41 Y128.674 E18.29273
G1 X98.83 Y127.574 E18.33409
G1 X98.643 Y127.114 E18.35061
G1 X98.211 Y125.579 E18.40365
G1 X98.133 Y125.112 E18.4194
G1 X98.043 Y123.814 E18.46267
G1 X98.035 Y120.28 E18.58021
G1 X97.795 Y120.133 E18.58957
G1 X96.75 Y119.293 E18.63417
G1 X96.209 Y118.721 E18.66035
G1 X95.404 Y117.604 E18.70615
G1 X94.974 Y116.788 E18.73682
G1 X94.583 Y115.77 E18.7731
G1 X94.454 Y115.286 E18.78976
G1 X94.245 Y113.55 E18.84791
G1 X94.252 Y113.126 E18.86202
G1 X94.46 Y111.563 E18.91446
G1 X94.563 Y111.163 E18.9282
G1 X94.738 Y110.295 E18.95765
G1 X94.944 Y109.056 E18.99942
G1 X95.092 Y107.912 E19.03779
G1 X95.201 Y106.772 E19.07588
G1 X95.249 Y105.82 E19.10758
G1 X95.274 Y104.487 E19.15193
G1 X95.249 Y103.367 E19.18919
G1 X95.199 Y102.41 E19.22106
G1 X95.089 Y101.277 E19.25892
G1 X94.918 Y99.955 E19.30326
G1 X94.757 Y99.006 E19.33527
G1 X94.347 Y97.049 E19.40178
G1 X94.249 Y95.962 E19.43808
G1 X94.285 Y94.96 E19.47142
G1 X94.411 Y94.125 E19.49951
G1 X94.82 Y92.767 E19.54668
G1 X95.165 Y92.014 E19.57423
G1 X95.898 Y90.868 E19.61948
G1 X96.615 Y90.045 E19.65578
G1 X97.598 Y89.201 E19.69887
G1 X98.317 Y88.738 E19.72732
G1 X99.169 Y88.315 E19.75896
G1 X100.018 Y88.011 E19.78895
G1 X101.504 Y87.706 E19.8394
G1 X101.892 Y87.675 E19.85235
G1 X103.322 Y87.749 E19.89998
G1 X104.739 Y87.199 E19.95053
G1 X105.332 Y87.042 E19.97093
G1 X106.653 Y86.834 E20.01541
G1 X107.297 Y86.802 E20.03686
G1 X108.851 Y86.909 E20.08867
G1 X109.548 Y87.043 E20.11227
G1 X110.747 Y87.406 E20.15394
G1 X111.604 Y87.774 E20.18496
G1 X112.482 Y88.273 E20.21855
G1 X113.433 Y88.963 E20.25763
G1 X114.138 Y89.606 E20.28936
G1 X114.958 Y90.512 E20.33001
