;FLAVOR:Marlin
;TIME:849
;Filament used: 0.348276m
;Layer height: 0.16
;MINX:92.662
;MINY:85.203
;MINZ:0.2
;MAXX:127.319
;MAXY:134.797
;MAXZ:6.04
;TARGET_MACHINE.NAME:Creality Ender-3 V3 SE
;Generated with Cura_SteamEngine 5.9.1
M82 ;absolute extrusion mode
M220 S100 ;Reset Feedrate
M221 S100 ;Reset Flowrate

G28 ;Home

M420 S1; Use saved mesh leveling data

G92 E0 ;Reset Extruder
G1 Z2.0 F3000 ;Move Z Axis up
G1 X-3 Y20 Z0.28 F5000.0 ;Move to start position
M190 S60 ; Set bed temperature and wait
M109 S200 ; Set hotend temperature and wait
G1 X-3 Y100.0 Z0.28 F1500.0 E15 ;Draw the first line
G1 X-2 Y100.0 Z0.28 F5000.0 ;Move to side a little
G1 X-2 Y20 Z0.28 F1500.0 E30 ;Draw the second line
G92 E0 ;Reset Extruder
G1 E-1.0000 F1800 ;Retract a bit
G1 Z2.0 F3000 ;Move Z Axis up
G1 E0.0000 F1800 

G92 E0
G92 E0
G1 F2400 E-0.8
;LAYER_COUNT:35
;LAYER:0
M107
G0 F9000 X113.472 Y134.761 Z0.2
;TYPE:SKIRT
G1 F2400 E0
G1 F1800 X112.75 Y134.797 E0.02404
G1 X110.995 Y134.68 E0.08254
G1 X109.707 Y134.428 E0.1262
G1 X109.011 Y134.216 E0.1504
G1 X107.715 Y133.67 E0.19717
G1 X106.27 Y132.827 E0.25281
G1 X105.607 Y132.327 E0.28043
G1 X104.696 Y131.49 E0.32158
G1 X103.702 Y130.328 E0.37244
G1 X103.143 Y129.491 E0.40591
G1 X102.453 Y128.178 E0.45525
G1 X102.266 Y127.718 E0.47176
G1 X101.738 Y125.843 E0.53655
G1 X101.66 Y125.376 E0.5523
G1 X101.55 Y123.812 E0.60445
G1 X101.55 Y116.324 E0.8535
G1 X101.731 Y115.513 E0.88114
G1 X101.559 Y114.722 E0.90806
G1 X101.55 Y114.57 E0.91312
G1 X100.735 Y114.263 E0.94209
G1 X98.772 Y113.606 E1.01094
G1 X97.81 Y113.159 E1.04622
G1 X96.648 Y112.431 E1.09183
G1 X95.396 Y111.369 E1.14643
G1 X94.957 Y110.88 E1.16829
G1 X93.878 Y109.316 E1.23149
G1 X93.488 Y108.527 E1.26076
G1 X92.87 Y106.689 E1.32525
G1 X92.783 Y106.245 E1.3403
G1 X92.662 Y104.035 E1.41392
G1 X92.721 Y103.439 E1.43384
G1 X93.107 Y101.678 E1.4938
G1 X93.585 Y100.463 E1.53723
G1 X94.113 Y99.496 E1.57387
G1 X95.235 Y98.012 E1.63575
G1 X95.967 Y97.304 E1.66962
G1 X96.834 Y96.629 E1.70616
G1 X98.316 Y95.788 E1.76284
G1 X99.451 Y95.341 E1.80341
G1 X99.873 Y95.22 E1.81801
G1 X100.81 Y94.912 E1.85082
G1 X101.656 Y94.597 E1.88084
G1 X102.061 Y92.685 E1.94585
G1 X102.793 Y91.449 E1.99363
G1 X102.908 Y91.012 E2.00866
G1 X103.89 Y89.371 E2.07226
G1 X104.984 Y88.219 E2.1251
G1 X105.595 Y87.683 E2.15214
G1 X107.003 Y86.714 E2.20898
G1 X108.199 Y86.096 E2.25376
G1 X108.857 Y85.839 E2.27726
G1 X110.254 Y85.452 E2.32547
G1 X111.646 Y85.237 E2.37232
G1 X112.332 Y85.203 E2.39516
G1 X114.184 Y85.324 E2.45689
G1 X114.883 Y85.451 E2.48052
G1 X116.291 Y85.865 E2.52933
G1 X116.901 Y86.121 E2.55134
G1 X118.009 Y86.08 E2.58821
G1 X119.469 Y86.244 E2.63708
G1 X120.396 Y86.467 E2.66879
G1 X122.081 Y87.144 E2.72919
G1 X123.092 Y87.742 E2.76826
G1 X124.001 Y88.439 E2.80635
G1 X124.826 Y89.246 E2.84474
G1 X125.668 Y90.317 E2.89005
G1 X126.337 Y91.464 E2.93421
G1 X126.881 Y92.819 E2.98278
G1 X127.239 Y94.26 E3.03216
G1 X127.297 Y94.697 E3.04683
G1 X127.31 Y96.589 E3.10975
G1 X127.173 Y97.62 E3.14435
G1 X127.041 Y98.187 E3.16371
G1 X126.81 Y99.297 E3.20142
G1 X126.64 Y100.327 E3.23614
G1 X126.49 Y101.489 E3.27511
G1 X126.385 Y102.572 E3.3113
G1 X126.344 Y103.386 E3.33841
G1 X126.319 Y104.72 E3.38279
G1 X126.343 Y105.756 E3.41725
G1 X126.389 Y106.677 E3.44792
G1 X126.488 Y107.712 E3.4825
G1 X126.659 Y109.033 E3.52681
G1 X126.795 Y109.843 E3.55412
G1 X127.246 Y112 E3.62742
G1 X127.304 Y112.51 E3.64449
G1 X127.319 Y114.07 E3.69638
G1 X127.143 Y115.39 E3.74067
G1 X126.78 Y116.687 E3.78547
G1 X126.238 Y117.937 E3.83078
G1 X125.765 Y118.748 E3.86201
G1 X125.118 Y119.612 E3.89791
G1 X123.735 Y120.991 E3.96287
G1 X123.553 Y121.128 E3.97044
G1 X123.54 Y124.124 E4.07009
G1 X123.422 Y125.455 E4.11454
G1 X123.279 Y126.2 E4.13977
G1 X122.781 Y127.845 E4.19693
G1 X122.543 Y128.399 E4.21699
G1 X121.68 Y129.916 E4.27503
G1 X120.818 Y131.042 E4.3222
G1 X120.049 Y131.843 E4.35913
G1 X119.376 Y132.417 E4.38855
G1 X117.995 Y133.349 E4.44397
G1 X117.359 Y133.686 E4.4679
G1 X115.861 Y134.289 E4.52161
G1 X115.087 Y134.503 E4.54832
G1 X113.472 Y134.761 E4.60272
G0 F9000 X113.452 Y134.361
G1 F1800 X112.73 Y134.397 E4.62676
G1 X111.072 Y134.287 E4.68203
G1 X109.784 Y134.035 E4.72568
G1 X109.166 Y133.847 E4.74717
G1 X107.87 Y133.301 E4.79394
G1 X106.51 Y132.507 E4.84632
G1 X105.878 Y132.032 E4.87261
G1 X104.967 Y131.195 E4.91376
G1 X104.035 Y130.106 E4.96143
G1 X103.476 Y129.269 E4.99491
G1 X102.824 Y128.027 E5.04157
G1 X102.637 Y127.567 E5.05808
G1 X102.133 Y125.777 E5.11993
G1 X102.055 Y125.31 E5.13568
G1 X101.95 Y123.812 E5.18563
G1 X101.95 Y116.366 E5.43328
G1 X102.141 Y115.513 E5.46235
G1 X101.95 Y114.637 E5.49217
G1 X101.95 Y114.292 E5.50365
G1 X100.876 Y113.889 E5.5418
G1 X98.941 Y113.243 E5.60965
G1 X97.979 Y112.796 E5.64493
G1 X96.906 Y112.125 E5.68703
G1 X95.692 Y111.1 E5.73987
G1 X95.286 Y110.652 E5.75998
G1 X94.237 Y109.139 E5.82122
G1 X93.847 Y108.35 E5.85049
G1 X93.263 Y106.612 E5.91147
G1 X93.176 Y106.168 E5.92652
G1 X93.06 Y104.073 E5.99631
G1 X93.112 Y103.524 E6.01465
G1 X93.48 Y101.823 E6.07253
G1 X93.936 Y100.655 E6.11423
G1 X94.464 Y99.688 E6.15088
G1 X95.514 Y98.299 E6.20879
G1 X96.213 Y97.62 E6.2412
G1 X97.08 Y96.945 E6.27775
G1 X98.463 Y96.16 E6.33064
G1 X99.561 Y95.726 E6.36991
G1 X99.983 Y95.605 E6.38451
G1 X100.948 Y95.288 E6.4183
G1 X101.805 Y94.969 E6.44871
G1 X102.037 Y94.873 E6.45706
G1 X102.092 Y94.467 E6.47069
G1 X102.438 Y92.833 E6.52624
G1 X103.166 Y91.604 E6.57375
G1 X103.281 Y91.167 E6.58878
G1 X104.21 Y89.614 E6.64897
G1 X105.248 Y88.52 E6.69913
G1 X105.859 Y87.984 E6.72616
G1 X107.187 Y87.069 E6.7798
G1 X108.345 Y86.469 E6.82318
G1 X109.003 Y86.212 E6.84667
G1 X110.315 Y85.847 E6.89197
G1 X111.666 Y85.637 E6.93744
G1 X112.352 Y85.603 E6.96029
G1 X114.112 Y85.718 E7.01895
G1 X114.811 Y85.845 E7.04258
G1 X116.136 Y86.234 E7.08851
G1 X116.829 Y86.525 E7.11351
G1 X117.964 Y86.478 E7.15129
G1 X119.424 Y86.642 E7.20015
G1 X120.301 Y86.856 E7.23018
G1 X121.878 Y87.489 E7.2867
G1 X122.849 Y88.06 E7.32416
G1 X123.722 Y88.726 E7.36069
G1 X124.512 Y89.494 E7.39733
G1 X125.322 Y90.519 E7.44078
G1 X125.991 Y91.666 E7.48495
G1 X126.493 Y92.916 E7.52975
G1 X126.842 Y94.313 E7.57764
G1 X126.9 Y94.75 E7.5923
G1 X126.913 Y96.537 E7.65174
G1 X126.783 Y97.529 E7.68502
G1 X126.651 Y98.096 E7.70438
G1 X126.418 Y99.216 E7.74243
G1 X126.245 Y100.262 E7.77769
G1 X126.093 Y101.438 E7.81713
G1 X125.987 Y102.533 E7.85372
G1 X125.944 Y103.379 E7.8819
G1 X125.919 Y104.713 E7.92627
G1 X125.943 Y105.776 E7.96164
G1 X125.989 Y106.697 E7.99231
G1 X126.091 Y107.763 E8.02792
G1 X126.262 Y109.084 E8.07223
G1 X126.404 Y109.925 E8.1006
G1 X126.849 Y112.047 E8.17271
G1 X126.904 Y112.514 E8.18835
G1 X126.919 Y114.074 E8.24024
G1 X126.758 Y115.283 E8.2808
G1 X126.413 Y116.528 E8.32377
G1 X125.892 Y117.735 E8.3675
G1 X125.419 Y118.546 E8.39872
G1 X124.835 Y119.329 E8.43121
G1 X123.494 Y120.671 E8.49431
G1 X123.154 Y120.927 E8.50847
G1 X123.14 Y124.122 E8.61474
G1 X123.029 Y125.381 E8.65677
G1 X122.896 Y126.085 E8.6806
G1 X122.413 Y127.687 E8.73625
G1 X122.175 Y128.241 E8.75631
G1 X121.362 Y129.673 E8.81108
G1 X120.529 Y130.765 E8.85676
G1 X119.788 Y131.539 E8.8924
G1 X119.152 Y132.085 E8.92028
G1 X117.771 Y133.017 E8.97569
G1 X117.173 Y133.332 E8.99817
G1 X115.754 Y133.903 E9.04904
G1 X114.98 Y134.117 E9.07575
G1 X113.452 Y134.361 E9.12722
G0 F9000 X113.432 Y133.961
G1 F1800 X112.71 Y133.997 E9.15126
G1 X111.099 Y133.888 E9.20497
G1 X109.899 Y133.652 E9.24564
G1 X109.321 Y133.478 E9.26572
G1 X108.025 Y132.932 E9.3125
G1 X106.75 Y132.187 E9.36161
G1 X106.149 Y131.737 E9.38658
G1 X105.238 Y130.9 E9.42773
G1 X104.368 Y129.884 E9.47222
G1 X103.809 Y129.047 E9.50569
G1 X103.195 Y127.876 E9.54967
G1 X103.008 Y127.416 E9.56619
G1 X102.528 Y125.711 E9.6251
G1 X102.45 Y125.244 E9.64085
G1 X102.35 Y123.812 E9.68859
G1 X102.35 Y116.408 E9.93485
G1 X102.55 Y115.513 E9.96535
G1 X102.35 Y114.593 E9.99667
G1 X102.35 Y114.024 E10.01559
G1 X102.056 Y113.903 E10.02617
G1 X101.008 Y113.511 E10.06338
G1 X99.11 Y112.88 E10.12991
G1 X98.148 Y112.433 E10.16519
G1 X97.119 Y111.786 E10.20561
G1 X95.951 Y110.795 E10.25656
G1 X95.614 Y110.423 E10.27326
G1 X94.596 Y108.962 E10.33248
G1 X94.206 Y108.173 E10.36176
G1 X93.656 Y106.535 E10.41922
G1 X93.569 Y106.091 E10.43427
G1 X93.458 Y104.109 E10.5003
G1 X93.503 Y103.609 E10.517
G1 X93.871 Y101.908 E10.57488
G1 X94.287 Y100.847 E10.61278
G1 X94.815 Y99.88 E10.64943
G1 X95.793 Y98.585 E10.7034
G1 X96.459 Y97.936 E10.73433
G1 X97.326 Y97.261 E10.77088
G1 X98.66 Y96.508 E10.82183
G1 X99.671 Y96.111 E10.85795
G1 X100.093 Y95.99 E10.87255
G1 X101.078 Y95.666 E10.90704
G1 X101.958 Y95.339 E10.93827
G1 X102.402 Y95.155 E10.95425
G1 X102.483 Y94.55 E10.97455
G1 X102.815 Y92.981 E11.0279
G1 X103.539 Y91.759 E11.07514
G1 X103.654 Y91.322 E11.09017
G1 X104.53 Y89.857 E11.14694
G1 X105.512 Y88.821 E11.19442
G1 X106.123 Y88.285 E11.22145
G1 X107.371 Y87.424 E11.27188
G1 X108.491 Y86.842 E11.31386
G1 X109.149 Y86.585 E11.33735
G1 X110.377 Y86.242 E11.37976
G1 X111.686 Y86.037 E11.42383
G1 X112.372 Y86.003 E11.44667
G1 X114.04 Y86.112 E11.50227
G1 X114.739 Y86.239 E11.5259
G1 X115.981 Y86.603 E11.56895
G1 X116.757 Y86.929 E11.59694
G1 X117.981 Y86.878 E11.63769
G1 X119.329 Y87.031 E11.68281
G1 X120.206 Y87.245 E11.71283
G1 X121.676 Y87.834 E11.76551
G1 X122.607 Y88.379 E11.80139
G1 X123.444 Y89.014 E11.83633
G1 X124.199 Y89.743 E11.87124
G1 X124.976 Y90.721 E11.91278
G1 X125.645 Y91.868 E11.95695
G1 X126.105 Y93.013 E11.99799
G1 X126.445 Y94.366 E12.04439
G1 X126.503 Y94.803 E12.05905
G1 X126.513 Y96.539 E12.11679
G1 X126.393 Y97.438 E12.14696
G1 X126.261 Y98.005 E12.16632
G1 X126.026 Y99.134 E12.20467
G1 X125.85 Y100.197 E12.24051
G1 X125.696 Y101.387 E12.28042
G1 X125.589 Y102.495 E12.31744
G1 X125.544 Y103.372 E12.34665
G1 X125.519 Y104.706 E12.39103
G1 X125.543 Y105.796 E12.42729
G1 X125.589 Y106.717 E12.45796
G1 X125.694 Y107.814 E12.49461
G1 X125.865 Y109.135 E12.53892
G1 X126.012 Y110.005 E12.56826
G1 X126.261 Y111.218 E12.60945
G1 X126.452 Y112.096 E12.63934
G1 X126.504 Y112.518 E12.65348
G1 X126.519 Y114.078 E12.70537
G1 X126.372 Y115.177 E12.74224
G1 X126.045 Y116.37 E12.78339
G1 X125.546 Y117.533 E12.82548
G1 X125.073 Y118.344 E12.8567
G1 X124.552 Y119.047 E12.88581
G1 X123.253 Y120.351 E12.94703
G1 X122.755 Y120.726 E12.96776
G1 X122.74 Y124.12 E13.08065
G1 X122.636 Y125.308 E13.12031
G1 X122.513 Y125.97 E13.14271
G1 X122.045 Y127.529 E13.19684
G1 X121.807 Y128.083 E13.2169
G1 X121.044 Y129.431 E13.26842
G1 X120.24 Y130.489 E13.31261
G1 X119.527 Y131.235 E13.34694
G1 X118.891 Y131.781 E13.37482
G1 X117.585 Y132.663 E13.42723
G1 X116.987 Y132.978 E13.44971
G1 X115.647 Y133.517 E13.49775
G1 X114.873 Y133.731 E13.52446
G1 X113.432 Y133.961 E13.573
G0 F9000 X113.412 Y133.561
G1 F1800 X112.69 Y133.597 E13.59704
G1 X111.176 Y133.495 E13.64751
G1 X110.013 Y133.268 E13.68692
G1 X109.476 Y133.109 E13.70555
G1 X108.18 Y132.563 E13.75232
G1 X106.989 Y131.867 E13.7982
G1 X106.42 Y131.442 E13.82182
G1 X105.509 Y130.605 E13.86297
G1 X104.7 Y129.661 E13.90432
G1 X104.163 Y128.861 E13.93637
G1 X103.566 Y127.725 E13.97905
G1 X103.379 Y127.265 E13.99557
G1 X102.923 Y125.645 E14.05154
G1 X102.845 Y125.178 E14.06729
G1 X102.75 Y123.812 E14.11283
G1 X102.75 Y116.45 E14.35769
G1 X102.96 Y115.513 E14.38963
G1 X102.75 Y114.549 E14.42245
G1 X102.75 Y113.758 E14.44876
G1 X102.196 Y113.528 E14.46871
G1 X101.139 Y113.133 E14.50624
G1 X99.278 Y112.517 E14.57144
G1 X98.361 Y112.094 E14.60502
G1 X97.332 Y111.447 E14.64545
G1 X96.246 Y110.524 E14.69286
G1 X95.942 Y110.193 E14.7078
G1 X94.955 Y108.785 E14.76499
G1 X94.565 Y107.996 E14.79427
G1 X94.049 Y106.458 E14.84822
G1 X93.962 Y106.014 E14.86327
G1 X93.857 Y104.142 E14.92563
G1 X93.894 Y103.694 E14.94058
G1 X94.262 Y101.993 E14.99847
G1 X94.638 Y101.039 E15.03257
G1 X95.166 Y100.072 E15.06922
G1 X96.073 Y98.871 E15.11928
G1 X96.705 Y98.252 E15.1487
G1 X97.572 Y97.577 E15.18524
G1 X98.807 Y96.88 E15.23241
G1 X99.781 Y96.496 E15.26723
G1 X100.203 Y96.375 E15.28183
G1 X101.208 Y96.044 E15.31703
G1 X102.111 Y95.709 E15.34906
G1 X102.769 Y95.437 E15.37274
G1 X102.88 Y94.603 E15.40073
G1 X103.192 Y93.129 E15.45084
G1 X103.912 Y91.913 E15.49784
G1 X104.028 Y91.476 E15.51288
G1 X104.85 Y90.1 E15.56619
G1 X105.776 Y89.122 E15.61098
G1 X106.387 Y88.586 E15.63802
G1 X107.556 Y87.779 E15.68526
G1 X108.637 Y87.215 E15.72582
G1 X109.295 Y86.958 E15.74931
G1 X110.439 Y86.637 E15.78883
G1 X111.706 Y86.437 E15.83149
G1 X112.392 Y86.403 E15.85434
G1 X113.968 Y86.506 E15.90687
G1 X114.667 Y86.633 E15.9305
G1 X115.826 Y86.972 E15.97066
G1 X116.685 Y87.333 E16.00165
G1 X117.937 Y87.276 E16.04334
G1 X119.234 Y87.42 E16.08674
G1 X120.111 Y87.634 E16.11677
G1 X121.526 Y88.205 E16.16752
G1 X122.366 Y88.698 E16.19991
G1 X123.166 Y89.302 E16.23325
G1 X123.921 Y90.031 E16.26816
G1 X124.63 Y90.923 E16.30606
G1 X125.299 Y92.07 E16.35022
G1 X125.717 Y93.111 E16.38753
G1 X126.048 Y94.419 E16.43241
G1 X126.106 Y94.856 E16.44707
G1 X126.116 Y96.487 E16.50132
G1 X126.003 Y97.347 E16.53017
G1 X125.871 Y97.914 E16.54953
G1 X125.634 Y99.053 E16.58822
G1 X125.455 Y100.132 E16.6246
G1 X125.299 Y101.336 E16.66498
G1 X125.191 Y102.457 E16.70244
G1 X125.144 Y103.365 E16.73268
G1 X125.119 Y104.699 E16.77706
G1 X125.143 Y105.816 E16.81422
G1 X125.189 Y106.737 E16.84489
G1 X125.297 Y107.865 E16.88258
G1 X125.468 Y109.186 E16.92688
G1 X125.62 Y110.085 E16.95721
G1 X125.87 Y111.304 E16.99859
G1 X126.055 Y112.148 E17.02733
G1 X126.104 Y112.522 E17.03988
G1 X126.119 Y114.082 E17.09176
G1 X125.986 Y115.071 E17.12496
G1 X125.659 Y116.264 E17.1661
G1 X125.2 Y117.331 E17.20473
G1 X124.727 Y118.142 E17.23596
G1 X124.268 Y118.765 E17.2617
G1 X123.012 Y120.031 E17.32101
G1 X122.356 Y120.525 E17.34832
G1 X122.34 Y124.118 E17.46783
G1 X122.242 Y125.237 E17.50519
G1 X122.13 Y125.855 E17.52608
G1 X121.677 Y127.371 E17.5787
G1 X121.439 Y127.925 E17.59876
G1 X120.725 Y129.19 E17.64707
G1 X119.951 Y130.213 E17.68974
G1 X119.266 Y130.931 E17.72274
G1 X118.63 Y131.477 E17.75062
G1 X117.399 Y132.309 E17.80004
G1 X116.801 Y132.624 E17.82252
G1 X115.54 Y133.131 E17.86772
G1 X114.766 Y133.345 E17.89443
G1 X113.412 Y133.561 E17.94004
G0 F9000 X113.392 Y133.161
G1 F1800 X112.67 Y133.197 E17.96408
G1 X111.203 Y133.096 E18.01299
G1 X110.127 Y132.884 E18.04946
G1 X109.59 Y132.725 E18.06809
G1 X108.381 Y132.217 E18.11171
G1 X107.228 Y131.546 E18.15608
G1 X106.691 Y131.147 E18.17833
G1 X105.78 Y130.31 E18.21948
G1 X105.032 Y129.437 E18.25771
G1 X104.517 Y128.674 E18.28833
G1 X103.937 Y127.574 E18.32969
G1 X103.75 Y127.114 E18.34621
G1 X103.318 Y125.579 E18.39924
G1 X103.24 Y125.112 E18.41499
G1 X103.15 Y123.812 E18.45833
G1 X103.15 Y116.492 E18.7018
G1 X103.369 Y115.513 E18.73516
G1 X103.15 Y114.505 E18.76947
G1 X103.15 Y113.49 E18.80323
G1 X102.349 Y113.158 E18.83207
G1 X101.27 Y112.755 E18.87038
G1 X99.404 Y112.137 E18.93576
G1 X98.574 Y111.755 E18.96615
G1 X97.545 Y111.108 E19.00658
G1 X96.541 Y110.253 E19.05044
G1 X96.237 Y109.922 E19.06539
G1 X95.314 Y108.608 E19.11879
G1 X94.924 Y107.819 E19.14807
G1 X94.442 Y106.381 E19.19851
G1 X94.355 Y105.937 E19.21356
G1 X94.256 Y104.175 E19.27225
G1 X94.293 Y103.727 E19.28721
G1 X94.635 Y102.138 E19.34127
G1 X94.989 Y101.231 E19.37365
G1 X95.517 Y100.264 E19.41029
G1 X96.354 Y99.156 E19.45648
G1 X96.951 Y98.568 E19.48435
G1 X97.818 Y97.893 E19.5209
G1 X98.954 Y97.252 E19.56428
G1 X99.891 Y96.881 E19.5978
G1 X100.313 Y96.76 E19.6124
G1 X101.338 Y96.422 E19.6483
G1 X102.264 Y96.079 E19.68114
G1 X103.167 Y95.705 E19.71365
G1 X103.185 Y95.348 E19.72554
G1 X103.277 Y94.656 E19.74876
G1 X103.569 Y93.277 E19.79564
G1 X104.283 Y92.071 E19.84225
G1 X104.4 Y91.633 E19.85733
G1 X105.169 Y90.346 E19.9072
G1 X106.04 Y89.423 E19.94941
G1 X106.651 Y88.887 E19.97644
G1 X107.742 Y88.133 E20.02055
G1 X108.783 Y87.588 E20.05963
G1 X109.441 Y87.331 E20.08313
G1 X110.502 Y87.032 E20.11979
G1 X111.726 Y86.837 E20.16101
G1 X112.412 Y86.803 E20.18386
G1 X113.896 Y86.9 E20.23332
G1 X114.595 Y87.027 E20.25695
G1 X115.671 Y87.341 E20.29423
G1 X116.614 Y87.737 E20.32825
